built_in_luts/Fuji_Velvia_Vivid.cube
TITLE "Fuji_Velvia_Vivid"
LUT_3D_SIZE 6
0.000000 0.000000 0.000000
0.159054 0.000000 0.000000
0.378297 0.000000 0.000000
0.621703 0.000000 0.000000
0.840946 0.000000 0.000000
1.000000 0.000000 0.000000
0.000000 0.159054 0.000000
0.159054 0.159054 0.000000
0.378297 0.189148 0.000000
0.621703 0.207234 0.000000
0.840946 0.210236 0.000000
1.000000 0.200000 0.000000
0.000000 0.378297 0.000000
0.189148 0.378297 0.000000
0.378297 0.378297 0.000000
0.621703 0.414469 0.000000
0.840946 0.420473 0.000000
1.000000 0.400000 0.000000
0.000000 0.621703 0.000000
0.207234 0.621703 0.000000
0.414469 0.621703 0.000000
0.621703 0.621703 0.000000
0.840946 0.630709 0.000000
1.000000 0.600000 0.000000
0.000000 0.840946 0.000000
0.210236 0.840946 0.000000
0.420473 0.840946 0.000000
0.630709 0.840946 0.000000
0.840946 0.840946 0.000000
1.000000 0.800000 0.000000
0.000000 1.000000 0.000000
0.200000 1.000000 0.000000
0.400000 1.000000 0.000000
0.600000 1.000000 0.000000
0.800000 1.000000 0.000000
1.000000 1.000000 0.000000
0.000000 0.000000 0.159054
0.159054 0.000000 0.159054
0.378297 0.000000 0.189148
0.621703 0.000000 0.207234
0.840946 0.000000 0.210236
1.000000 0.000000 0.200000
0.000000 0.159054 0.159054
0.159054 0.159054 0.159054
0.378297 0.132404 0.132404
0.621703 0.082894 0.082894
0.840946 0.021024 0.021024
1.000000 0.000000 0.000000
0.000000 0.378297 0.189148
0.132404 0.378297 0.132404
0.378297 0.378297 0.132404
0.621703 0.352299 0.082894
0.840946 0.294331 0.021024
1.000000 0.250000 0.000000
0.000000 0.621703 0.207234
0.082894 0.621703 0.082894
0.352299 0.621703 0.082894
0.621703 0.621703 0.082894
0.840946 0.567638 0.021024
1.000000 0.500000 0.000000
0.000000 0.840946 0.210236
0.021024 0.840946 0.021024
0.294331 0.840946 0.021024
0.567638 0.840946 0.021024
0.840946 0.840946 0.021024
1.000000 0.750000 0.000000
0.000000 1.000000 0.200000
0.000000 1.000000 0.000000
0.250000 1.000000 0.000000
0.500000 1.000000 0.000000
0.750000 1.000000 0.000000
1.000000 1.000000 0.000000
0.000000 0.000000 0.378297
0.189148 0.000000 0.378297
0.378297 0.000000 0.378297
0.621703 0.000000 0.414469
0.840946 0.000000 0.420473
1.000000 0.000000 0.400000
0.000000 0.189148 0.378297
0.132404 0.132404 0.378297
0.378297 0.132404 0.378297
0.621703 0.082894 0.352299
0.840946 0.021024 0.294331
1.000000 0.000000 0.250000
0.000000 0.378297 0.378297
0.132404 0.378297 0.378297
0.378297 0.378297 0.378297
0.621703 0.352299 0.352299
0.840946 0.294331 0.294331
1.000000 0.220000 0.220000
0.000000 0.621703 0.414469
0.082894 0.621703 0.352299
0.352299 0.621703 0.352299
0.621703 0.621703 0.352299
0.840946 0.567638 0.294331
1.000000 0.480000 0.220000
0.000000 0.840946 0.420473
0.021024 0.840946 0.294331
0.294331 0.840946 0.294331
0.567638 0.840946 0.294331
0.840946 0.840946 0.294331
1.000000 0.740000 0.220000
0.000000 1.000000 0.400000
0.000000 1.000000 0.250000
0.220000 1.000000 0.220000
0.480000 1.000000 0.220000
0.740000 1.000000 0.220000
1.000000 1.000000 0.220000
0.000000 0.000000 0.621703
0.207234 0.000000 0.621703
0.414469 0.000000 0.621703
0.621703 0.000000 0.621703
0.840946 0.000000 0.630709
1.000000 0.000000 0.600000
0.000000 0.207234 0.621703
0.082894 0.082894 0.621703
0.352299 0.082894 0.621703
0.621703 0.082894 0.621703
0.840946 0.021024 0.567638
1.000000 0.000000 0.500000
0.000000 0.414469 0.621703
0.082894 0.352299 0.621703
0.352299 0.352299 0.621703
0.621703 0.352299 0.621703
0.840946 0.294331 0.567638
1.000000 0.220000 0.480000
0.000000 0.621703 0.621703
0.082894 0.621703 0.621703
0.352299 0.621703 0.621703
0.621703 0.621703 0.621703
0.840946 0.567638 0.567638
1.000000 0.480000 0.480000
0.000000 0.840946 0.630709
0.021024 0.840946 0.567638
0.294331 0.840946 0.567638
0.567638 0.840946 0.567638
0.840946 0.840946 0.567638
1.000000 0.740000 0.480000
0.000000 1.000000 0.600000
0.000000 1.000000 0.500000
0.220000 1.000000 0.480000
0.480000 1.000000 0.480000
0.740000 1.000000 0.480000
1.000000 1.000000 0.480000
0.000000 0.000000 0.840946
0.210236 0.000000 0.840946
0.420473 0.000000 0.840946
0.630709 0.000000 0.840946
0.840946 0.000000 0.840946
1.000000 0.000000 0.800000
0.000000 0.210236 0.840946
0.021024 0.021024 0.840946
0.294331 0.021024 0.840946
0.567638 0.021024 0.840946
0.840946 0.021024 0.840946
1.000000 0.000000 0.750000
0.000000 0.420473 0.840946
0.021024 0.294331 0.840946
0.294331 0.294331 0.840946
0.567638 0.294331 0.840946
0.840946 0.294331 0.840946
1.000000 0.220000 0.740000
0.000000 0.630709 0.840946
0.021024 0.567638 0.840946
0.294331 0.567638 0.840946
0.567638 0.567638 0.840946
0.840946 0.567638 0.840946
1.000000 0.480000 0.740000
0.000000 0.840946 0.840946
0.021024 0.840946 0.840946
0.294331 0.840946 0.840946
0.567638 0.840946 0.840946
0.840946 0.840946 0.840946
1.000000 0.740000 0.740000
0.000000 1.000000 0.800000
0.000000 1.000000 0.750000
0.220000 1.000000 0.740000
0.480000 1.000000 0.740000
0.740000 1.000000 0.740000
1.000000 1.000000 0.740000
0.000000 0.000000 1.000000
0.200000 0.000000 1.000000
0.400000 0.000000 1.000000
0.600000 0.000000 1.000000
0.800000 0.000000 1.000000
1.000000 0.000000 1.000000
0.000000 0.200000 1.000000
0.000000 0.000000 1.000000
0.250000 0.000000 1.000000
0.500000 0.000000 1.000000
0.750000 0.000000 1.000000
1.000000 0.000000 1.000000
0.000000 0.400000 1.000000
0.000000 0.250000 1.000000
0.220000 0.220000 1.000000
0.480000 0.220000 1.000000
0.740000 0.220000 1.000000
1.000000 0.220000 1.000000
0.000000 0.600000 1.000000
0.000000 0.500000 1.000000
0.220000 0.480000 1.000000
0.480000 0.480000 1.000000
0.740000 0.480000 1.000000
1.000000 0.480000 1.000000
0.000000 0.800000 1.000000
0.000000 0.750000 1.000000
0.220000 0.740000 1.000000
0.480000 0.740000 1.000000
0.740000 0.740000 1.000000
1.000000 0.740000 1.000000
0.000000 1.000000 1.000000
0.000000 1.000000 1.000000
0.220000 1.000000 1.000000
0.480000 1.000000 1.000000
0.740000 1.000000 1.000000
1.000000 1.000000 1.000000
