built_in_luts/Fuji_Astia_Soft.cube
TITLE "Fuji_Astia_Soft"
LUT_3D_SIZE 6
0.000000 0.000000 0.000000
0.219192 0.000000 0.000000
0.409026 0.000000 0.000000
0.590974 0.000000 0.000000
0.780808 0.000000 0.000000
1.000000 0.000000 0.000000
0.000000 0.219192 0.000000
0.219192 0.219192 0.000000
0.409026 0.204513 0.000000
0.590974 0.196991 0.000000
0.780808 0.195202 0.000000
1.000000 0.200000 0.000000
0.000000 0.409026 0.000000
0.204513 0.409026 0.000000
0.409026 0.409026 0.000000
0.590974 0.393983 0.000000
0.780808 0.390404 0.000000
1.000000 0.400000 0.000000
0.000000 0.590974 0.000000
0.196991 0.590974 0.000000
0.393983 0.590974 0.000000
0.590974 0.590974 0.000000
0.780808 0.585606 0.000000
1.000000 0.600000 0.000000
0.000000 0.780808 0.000000
0.195202 0.780808 0.000000
0.390404 0.780808 0.000000
0.585606 0.780808 0.000000
0.780808 0.780808 0.000000
1.000000 0.800000 0.000000
0.000000 1.000000 0.000000
0.200000 1.000000 0.000000
0.400000 1.000000 0.000000
0.600000 1.000000 0.000000
0.800000 1.000000 0.000000
1.000000 1.000000 0.000000
0.000000 0.000000 0.219192
0.219192 0.000000 0.219192
0.409026 0.000000 0.204513
0.590974 0.000000 0.196991
0.780808 0.000000 0.195202
1.000000 0.000000 0.200000
0.000000 0.219192 0.219192
0.219192 0.219192 0.219192
0.409026 0.184062 0.184062
0.590974 0.157593 0.157593
0.780808 0.136641 0.136641
1.000000 0.120000 0.120000
0.000000 0.409026 0.204513
0.184062 0.409026 0.184062
0.409026 0.409026 0.184062
0.590974 0.374283 0.157593
0.780808 0.351364 0.136641
1.000000 0.340000 0.120000
0.000000 0.590974 0.196991
0.157593 0.590974 0.157593
0.374283 0.590974 0.157593
0.590974 0.590974 0.157593
0.780808 0.566086 0.136641
1.000000 0.560000 0.120000
0.000000 0.780808 0.195202
0.136641 0.780808 0.136641
0.351364 0.780808 0.136641
0.566086 0.780808 0.136641
0.780808 0.780808 0.136641
1.000000 0.780000 0.120000
0.000000 1.000000 0.200000
0.120000 1.000000 0.120000
0.340000 1.000000 0.120000
0.560000 1.000000 0.120000
0.780000 1.000000 0.120000
1.000000 1.000000 0.120000
0.000000 0.000000 0.409026
0.204513 0.000000 0.409026
0.409026 0.000000 0.409026
0.590974 0.000000 0.393983
0.780808 0.000000 0.390404
1.000000 0.000000 0.400000
0.000000 0.204513 0.409026
0.184062 0.184062 0.409026
0.409026 0.184062 0.409026
0.590974 0.157593 0.374283
0.780808 0.136641 0.351364
1.000000 0.120000 0.340000
0.000000 0.409026 0.409026
0.184062 0.409026 0.409026
0.409026 0.409026 0.409026
0.590974 0.374283 0.374283
0.780808 0.351364 0.351364
1.000000 0.340000 0.340000
0.000000 0.590974 0.393983
0.157593 0.590974 0.374283
0.374283 0.590974 0.374283
0.590974 0.590974 0.374283
0.780808 0.566086 0.351364
1.000000 0.560000 0.340000
0.000000 0.780808 0.390404
0.136641 0.780808 0.351364
0.351364 0.780808 0.351364
0.566086 0.780808 0.351364
0.780808 0.780808 0.351364
1.000000 0.780000 0.340000
0.000000 1.000000 0.400000
0.120000 1.000000 0.340000
0.340000 1.000000 0.340000
0.560000 1.000000 0.340000
0.780000 1.000000 0.340000
1.000000 1.000000 0.340000
0.000000 0.000000 0.590974
0.196991 0.000000 0.590974
0.393983 0.000000 0.590974
0.590974 0.000000 0.590974
0.780808 0.000000 0.585606
1.000000 0.000000 0.600000
0.000000 0.196991 0.590974
0.157593 0.157593 0.590974
0.374283 0.157593 0.590974
0.590974 0.157593 0.590974
0.780808 0.136641 0.566086
1.000000 0.120000 0.560000
0.000000 0.393983 0.590974
0.157593 0.374283 0.590974
0.374283 0.374283 0.590974
0.590974 0.374283 0.590974
0.780808 0.351364 0.566086
1.000000 0.340000 0.560000
0.000000 0.590974 0.590974
0.157593 0.590974 0.590974
0.374283 0.590974 0.590974
0.590974 0.590974 0.590974
0.780808 0.566086 0.566086
1.000000 0.560000 0.560000
0.000000 0.780808 0.585606
0.136641 0.780808 0.566086
0.351364 0.780808 0.566086
0.566086 0.780808 0.566086
0.780808 0.780808 0.566086
1.000000 0.780000 0.560000
0.000000 1.000000 0.600000
0.120000 1.000000 0.560000
0.340000 1.000000 0.560000
0.560000 1.000000 0.560000
0.780000 1.000000 0.560000
1.000000 1.000000 0.560000
0.000000 0.000000 0.780808
0.195202 0.000000 0.780808
0.390404 0.000000 0.780808
0.585606 0.000000 0.780808
0.780808 0.000000 0.780808
1.000000 0.000000 0.800000
0.000000 0.195202 0.780808
0.136641 0.136641 0.780808
0.351364 0.136641 0.780808
0.566086 0.136641 0.780808
0.780808 0.136641 0.780808
1.000000 0.120000 0.780000
0.000000 0.390404 0.780808
0.136641 0.351364 0.780808
0.351364 0.351364 0.780808
0.566086 0.351364 0.780808
0.780808 0.351364 0.780808
1.000000 0.340000 0.780000
0.000000 0.585606 0.780808
0.136641 0.566086 0.780808
0.351364 0.566086 0.780808
0.566086 0.566086 0.780808
0.780808 0.566086 0.780808
1.000000 0.560000 0.780000
0.000000 0.780808 0.780808
0.136641 0.780808 0.780808
0.351364 0.780808 0.780808
0.566086 0.780808 0.780808
0.780808 0.780808 0.780808
1.000000 0.780000 0.780000
0.000000 1.000000 0.800000
0.120000 1.000000 0.780000
0.340000 1.000000 0.780000
0.560000 1.000000 0.780000
0.780000 1.000000 0.780000
1.000000 1.000000 0.780000
0.000000 0.000000 1.000000
0.200000 0.000000 1.000000
0.400000 0.000000 1.000000
0.600000 0.000000 1.000000
0.800000 0.000000 1.000000
1.000000 0.000000 1.000000
0.000000 0.200000 1.000000
0.120000 0.120000 1.000000
0.340000 0.120000 1.000000
0.560000 0.120000 1.000000
0.780000 0.120000 1.000000
1.000000 0.120000 1.000000
0.000000 0.400000 1.000000
0.120000 0.340000 1.000000
0.340000 0.340000 1.000000
0.560000 0.340000 1.000000
0.780000 0.340000 1.000000
1.000000 0.340000 1.000000
0.000000 0.600000 1.000000
0.120000 0.560000 1.000000
0.340000 0.560000 1.000000
0.560000 0.560000 1.000000
0.780000 0.560000 1.000000
1.000000 0.560000 1.000000
0.000000 0.800000 1.000000
0.120000 0.780000 1.000000
0.340000 0.780000 1.000000
0.560000 0.780000 1.000000
0.780000 0.780000 1.000000
1.000000 0.780000 1.000000
0.000000 1.000000 1.000000
0.120000 1.000000 1.000000
0.340000 1.000000 1.000000
0.560000 1.000000 1.000000
0.780000 1.000000 1.000000
1.000000 1.000000 1.000000
