built_in_luts/Fuji_Velvia_Vivid.cube
TITLE "Fuji_Velvia_Vivid"
LUT_3D_SIZE 16
0.000000 0.000000 0.000000
0.040285 0.000000 0.000000
0.095814 0.000000 0.000000
0.159054 0.000000 0.000000
0.227886 0.000000 0.000000
0.301201 0.000000 0.000000
0.378297 0.000000 0.000000
0.458687 0.000000 0.000000
0.541313 0.000000 0.000000
0.621703 0.000000 0.000000
0.698799 0.000000 0.000000
0.772114 0.000000 0.000000
0.840946 0.000000 0.000000
0.904186 0.000000 0.000000
0.959715 0.000000 0.000000
1.000000 0.000000 0.000000
0.000000 0.040285 0.000000
0.040285 0.040285 0.000000
0.095814 0.047907 0.000000
0.159054 0.053018 0.000000
0.227886 0.056972 0.000000
0.301201 0.060240 0.000000
0.378297 0.063049 0.000000
0.458687 0.065527 0.000000
0.541313 0.067664 0.000000
0.621703 0.069078 0.000000
0.698799 0.069880 0.000000
0.772114 0.070192 0.000000
0.840946 0.070079 0.000000
0.904186 0.069553 0.000000
0.959715 0.068551 0.000000
1.000000 0.066667 0.000000
0.000000 0.095814 0.000000
0.047907 0.095814 0.000000
0.095814 0.095814 0.000000
0.159054 0.106036 0.000000
0.227886 0.113943 0.000000
0.301201 0.120480 0.000000
0.378297 0.126099 0.000000
0.458687 0.131053 0.000000
0.541313 0.135328 0.000000
0.621703 0.138156 0.000000
0.698799 0.139760 0.000000
0.772114 0.140384 0.000000
0.840946 0.140158 0.000000
0.904186 0.139105 0.000000
0.959715 0.137102 0.000000
1.000000 0.133333 0.000000
0.000000 0.159054 0.000000
0.053018 0.159054 0.000000
0.106036 0.159054 0.000000
0.159054 0.159054 0.000000
0.227886 0.170915 0.000000
0.301201 0.180720 0.000000
0.378297 0.189148 0.000000
0.458687 0.196580 0.000000
0.541313 0.202993 0.000000
0.621703 0.207234 0.000000
0.698799 0.209640 0.000000
0.772114 0.210576 0.000000
0.840946 0.210236 0.000000
0.904186 0.208658 0.000000
0.959715 0.205653 0.000000
1.000000 0.200000 0.000000
0.000000 0.227886 0.000000
0.056972 0.227886 0.000000
0.113943 0.227886 0.000000
0.170915 0.227886 0.000000
0.227886 0.227886 0.000000
0.301201 0.240961 0.000000
0.378297 0.252198 0.000000
0.458687 0.262107 0.000000
0.541313 0.270657 0.000000
0.621703 0.276313 0.000000
0.698799 0.279520 0.000000
0.772114 0.280769 0.000000
0.840946 0.280315 0.000000
0.904186 0.278211 0.000000
0.959715 0.274204 0.000000
1.000000 0.266667 0.000000
0.000000 0.301201 0.000000
0.060240 0.301201 0.000000
0.120480 0.301201 0.000000
0.180720 0.301201 0.000000
0.240961 0.301201 0.000000
0.301201 0.301201 0.000000
0.378297 0.315247 0.000000
0.458687 0.327633 0.000000
0.541313 0.338321 0.000000
0.621703 0.345391 0.000000
0.698799 0.349400 0.000000
0.772114 0.350961 0.000000
0.840946 0.350394 0.000000
0.904186 0.347764 0.000000
0.959715 0.342755 0.000000
1.000000 0.333333 0.000000
0.000000 0.378297 0.000000
0.063049 0.378297 0.000000
0.126099 0.378297 0.000000
0.189148 0.378297 0.000000
0.252198 0.378297 0.000000
0.315247 0.378297 0.000000
0.378297 0.378297 0.000000
0.458687 0.393160 0.000000
0.541313 0.405985 0.000000
0.621703 0.414469 0.000000
0.698799 0.419280 0.000000
0.772114 0.421153 0.000000
0.840946 0.420473 0.000000
0.904186 0.417316 0.000000
0.959715 0.411306 0.000000
1.000000 0.400000 0.000000
0.000000 0.458687 0.000000
0.065527 0.458687 0.000000
0.131053 0.458687 0.000000
0.196580 0.458687 0.000000
0.262107 0.458687 0.000000
0.327633 0.458687 0.000000
0.393160 0.458687 0.000000
0.458687 0.458687 0.000000
0.541313 0.473649 0.000000
0.621703 0.483547 0.000000
0.698799 0.489160 0.000000
0.772114 0.491345 0.000000
0.840946 0.490552 0.000000
0.904186 0.486869 0.000000
0.959715 0.479857 0.000000
1.000000 0.466667 0.000000
0.000000 0.541313 0.000000
0.067664 0.541313 0.000000
0.135328 0.541313 0.000000
0.202993 0.541313 0.000000
0.270657 0.541313 0.000000
0.338321 0.541313 0.000000
0.405985 0.541313 0.000000
0.473649 0.541313 0.000000
0.541313 0.541313 0.000000
0.621703 0.552625 0.000000
0.698799 0.559039 0.000000
0.772114 0.561537 0.000000
0.840946 0.560631 0.000000
0.904186 0.556422 0.000000
0.959715 0.548409 0.000000
1.000000 0.533333 0.000000
0.000000 0.621703 0.000000
0.069078 0.621703 0.000000
0.138156 0.621703 0.000000
0.207234 0.621703 0.000000
0.276313 0.621703 0.000000
0.345391 0.621703 0.000000
0.414469 0.621703 0.000000
0.483547 0.621703 0.000000
0.552625 0.621703 0.000000
0.621703 0.621703 0.000000
0.698799 0.628919 0.000000
0.772114 0.631729 0.000000
0.840946 0.630709 0.000000
0.904186 0.625975 0.000000
0.959715 0.616960 0.000000
1.000000 0.600000 0.000000
0.000000 0.698799 0.000000
0.069880 0.698799 0.000000
0.139760 0.698799 0.000000
0.209640 0.698799 0.000000
0.279520 0.698799 0.000000
0.349400 0.698799 0.000000
0.419280 0.698799 0.000000
0.489160 0.698799 0.000000
0.559039 0.698799 0.000000
0.628919 0.698799 0.000000
0.698799 0.698799 0.000000
0.772114 0.701921 0.000000
0.840946 0.700788 0.000000
0.904186 0.695527 0.000000
0.959715 0.685511 0.000000
1.000000 0.666667 0.000000
0.000000 0.772114 0.000000
0.070192 0.772114 0.000000
0.140384 0.772114 0.000000
0.210576 0.772114 0.000000
0.280769 0.772114 0.000000
0.350961 0.772114 0.000000
0.421153 0.772114 0.000000
0.491345 0.772114 0.000000
0.561537 0.772114 0.000000
0.631729 0.772114 0.000000
0.701921 0.772114 0.000000
0.772114 0.772114 0.000000
0.840946 0.770867 0.000000
0.904186 0.765080 0.000000
0.959715 0.754062 0.000000
1.000000 0.733333 0.000000
0.000000 0.840946 0.000000
0.070079 0.840946 0.000000
0.140158 0.840946 0.000000
0.210236 0.840946 0.000000
0.280315 0.840946 0.000000
0.350394 0.840946 0.000000
0.420473 0.840946 0.000000
0.490552 0.840946 0.000000
0.560631 0.840946 0.000000
0.630709 0.840946 0.000000
0.700788 0.840946 0.000000
0.770867 0.840946 0.000000
0.840946 0.840946 0.000000
0.904186 0.834633 0.000000
0.959715 0.822613 0.000000
1.000000 0.800000 0.000000
0.000000 0.904186 0.000000
0.069553 0.904186 0.000000
0.139105 0.904186 0.000000
0.208658 0.904186 0.000000
0.278211 0.904186 0.000000
0.347764 0.904186 0.000000
0.417316 0.904186 0.000000
0.486869 0.904186 0.000000
0.556422 0.904186 0.000000
0.625975 0.904186 0.000000
0.695527 0.904186 0.000000
0.765080 0.904186 0.000000
0.834633 0.904186 0.000000
0.904186 0.904186 0.000000
0.959715 0.891164 0.000000
1.000000 0.866667 0.000000
0.000000 0.959715 0.000000
0.068551 0.959715 0.000000
0.137102 0.959715 0.000000
0.205653 0.959715 0.000000
0.274204 0.959715 0.000000
0.342755 0.959715 0.000000
0.411306 0.959715 0.000000
0.479857 0.959715 0.000000
0.548409 0.959715 0.000000
0.616960 0.959715 0.000000
0.685511 0.959715 0.000000
0.754062 0.959715 0.000000
0.822613 0.959715 0.000000
0.891164 0.959715 0.000000
0.959715 0.959715 0.000000
1.000000 0.933333 0.000000
0.000000 1.000000 0.000000
0.066667 1.000000 0.000000
0.133333 1.000000 0.000000
0.200000 1.000000 0.000000
0.266667 1.000000 0.000000
0.333333 1.000000 0.000000
0.400000 1.000000 0.000000
0.466667 1.000000 0.000000
0.533333 1.000000 0.000000
0.600000 1.000000 0.000000
0.666667 1.000000 0.000000
0.733333 1.000000 0.000000
0.800000 1.000000 0.000000
0.866667 1.000000 0.000000
0.933333 1.000000 0.000000
1.000000 1.000000 0.000000
0.000000 0.000000 0.040285
0.040285 0.000000 0.040285
0.095814 0.000000 0.047907
0.159054 0.000000 0.053018
0.227886 0.000000 0.056972
0.301201 0.000000 0.060240
0.378297 0.000000 0.063049
0.458687 0.000000 0.065527
0.541313 0.000000 0.067664
0.621703 0.000000 0.069078
0.698799 0.000000 0.069880
0.772114 0.000000 0.070192
0.840946 0.000000 0.070079
0.904186 0.000000 0.069553
0.959715 0.000000 0.068551
1.000000 0.000000 0.066667
0.000000 0.040285 0.040285
0.040285 0.040285 0.040285
0.095814 0.033535 0.033535
0.159054 0.021207 0.021207
0.227886 0.005697 0.005697
0.301201 0.000000 0.000000
0.378297 0.000000 0.000000
0.458687 0.000000 0.000000
0.541313 0.000000 0.000000
0.621703 0.000000 0.000000
0.698799 0.000000 0.000000
0.772114 0.000000 0.000000
0.840946 0.000000 0.000000
0.904186 0.000000 0.000000
0.959715 0.000000 0.000000
1.000000 0.000000 0.000000
0.000000 0.095814 0.047907
0.033535 0.095814 0.033535
0.095814 0.095814 0.033535
0.159054 0.090131 0.021207
0.227886 0.079760 0.005697
0.301201 0.075300 0.000000
0.378297 0.075659 0.000000
0.458687 0.076448 0.000000
0.541313 0.077330 0.000000
0.621703 0.077713 0.000000
0.698799 0.077644 0.000000
0.772114 0.077211 0.000000
0.840946 0.076450 0.000000
0.904186 0.075349 0.000000
0.959715 0.073824 0.000000
1.000000 0.071429 0.000000
0.000000 0.159054 0.053018
0.021207 0.159054 0.021207
0.090131 0.159054 0.021207
0.159054 0.159054 0.021207
0.227886 0.153823 0.005697
0.301201 0.150600 0.000000
0.378297 0.151319 0.000000
0.458687 0.152896 0.000000
0.541313 0.154661 0.000000
0.621703 0.155426 0.000000
0.698799 0.155289 0.000000
0.772114 0.154423 0.000000
0.840946 0.152899 0.000000
0.904186 0.150698 0.000000
0.959715 0.147648 0.000000
1.000000 0.142857 0.000000
0.000000 0.227886 0.056972
0.005697 0.227886 0.005697
0.079760 0.227886 0.005697
0.153823 0.227886 0.005697
0.227886 0.227886 0.005697
0.301201 0.225901 0.000000
0.378297 0.226978 0.000000
0.458687 0.229343 0.000000
0.541313 0.231991 0.000000
0.621703 0.233139 0.000000
0.698799 0.232933 0.000000
0.772114 0.231634 0.000000
0.840946 0.229349 0.000000
0.904186 0.226046 0.000000
0.959715 0.221473 0.000000
1.000000 0.214286 0.000000
0.000000 0.301201 0.060240
0.000000 0.301201 0.000000
0.075300 0.301201 0.000000
0.150600 0.301201 0.000000
0.225901 0.301201 0.000000
0.301201 0.301201 0.000000
0.378297 0.302637 0.000000
0.458687 0.305791 0.000000
0.541313 0.309322 0.000000
0.621703 0.310852 0.000000
0.698799 0.310577 0.000000
0.772114 0.308845 0.000000
0.840946 0.305798 0.000000
0.904186 0.301395 0.000000
0.959715 0.295297 0.000000
1.000000 0.285714 0.000000
0.000000 0.378297 0.063049
0.000000 0.378297 0.000000
0.075659 0.378297 0.000000
0.151319 0.378297 0.000000
0.226978 0.378297 0.000000
0.302637 0.378297 0.000000
0.378297 0.378297 0.000000
0.458687 0.382239 0.000000
0.541313 0.386652 0.000000
0.621703 0.388565 0.000000
0.698799 0.388222 0.000000
0.772114 0.386057 0.000000
0.840946 0.382248 0.000000
0.904186 0.376744 0.000000
0.959715 0.369121 0.000000
1.000000 0.357143 0.000000
0.000000 0.458687 0.065527
0.000000 0.458687 0.000000
0.076448 0.458687 0.000000
0.152896 0.458687 0.000000
0.229343 0.458687 0.000000
0.305791 0.458687 0.000000
0.382239 0.458687 0.000000
0.458687 0.458687 0.000000
0.541313 0.463983 0.000000
0.621703 0.466278 0.000000
0.698799 0.465866 0.000000
0.772114 0.463268 0.000000
0.840946 0.458698 0.000000
0.904186 0.452093 0.000000
0.959715 0.442945 0.000000
1.000000 0.428571 0.000000
0.000000 0.541313 0.067664
0.000000 0.541313 0.000000
0.077330 0.541313 0.000000
0.154661 0.541313 0.000000
0.231991 0.541313 0.000000
0.309322 0.541313 0.000000
0.386652 0.541313 0.000000
0.463983 0.541313 0.000000
0.541313 0.541313 0.000000
0.621703 0.543990 0.000000
0.698799 0.543511 0.000000
0.772114 0.540480 0.000000
0.840946 0.535147 0.000000
0.904186 0.527442 0.000000
0.959715 0.516770 0.000000
1.000000 0.500000 0.000000
0.000000 0.621703 0.069078
0.000000 0.621703 0.000000
0.077713 0.621703 0.000000
0.155426 0.621703 0.000000
0.233139 0.621703 0.000000
0.310852 0.621703 0.000000
0.388565 0.621703 0.000000
0.466278 0.621703 0.000000
0.543990 0.621703 0.000000
0.621703 0.621703 0.000000
0.698799 0.621155 0.000000
0.772114 0.617691 0.000000
0.840946 0.611597 0.000000
0.904186 0.602790 0.000000
0.959715 0.590594 0.000000
1.000000 0.571429 0.000000
0.000000 0.698799 0.069880
0.000000 0.698799 0.000000
0.077644 0.698799 0.000000
0.155289 0.698799 0.000000
0.232933 0.698799 0.000000
0.310577 0.698799 0.000000
0.388222 0.698799 0.000000
0.465866 0.698799 0.000000
0.543511 0.698799 0.000000
0.621155 0.698799 0.000000
0.698799 0.698799 0.000000
0.772114 0.694902 0.000000
0.840946 0.688047 0.000000
0.904186 0.678139 0.000000
0.959715 0.664418 0.000000
1.000000 0.642857 0.000000
0.000000 0.772114 0.070192
0.000000 0.772114 0.000000
0.077211 0.772114 0.000000
0.154423 0.772114 0.000000
0.231634 0.772114 0.000000
0.308845 0.772114 0.000000
0.386057 0.772114 0.000000
0.463268 0.772114 0.000000
0.540480 0.772114 0.000000
0.617691 0.772114 0.000000
0.694902 0.772114 0.000000
0.772114 0.772114 0.000000
0.840946 0.764496 0.000000
0.904186 0.753488 0.000000
0.959715 0.738242 0.000000
1.000000 0.714286 0.000000
0.000000 0.840946 0.070079
0.000000 0.840946 0.000000
0.076450 0.840946 0.000000
0.152899 0.840946 0.000000
0.229349 0.840946 0.000000
0.305798 0.840946 0.000000
0.382248 0.840946 0.000000
0.458698 0.840946 0.000000
0.535147 0.840946 0.000000
0.611597 0.840946 0.000000
0.688047 0.840946 0.000000
0.764496 0.840946 0.000000
0.840946 0.840946 0.000000
0.904186 0.828837 0.000000
0.959715 0.812067 0.000000
1.000000 0.785714 0.000000
0.000000 0.904186 0.069553
0.000000 0.904186 0.000000
0.075349 0.904186 0.000000
0.150698 0.904186 0.000000
0.226046 0.904186 0.000000
0.301395 0.904186 0.000000
0.376744 0.904186 0.000000
0.452093 0.904186 0.000000
0.527442 0.904186 0.000000
0.602790 0.904186 0.000000
0.678139 0.904186 0.000000
0.753488 0.904186 0.000000
0.828837 0.904186 0.000000
0.904186 0.904186 0.000000
0.959715 0.885891 0.000000
1.000000 0.857143 0.000000
0.000000 0.959715 0.068551
0.000000 0.959715 0.000000
0.073824 0.959715 0.000000
0.147648 0.959715 0.000000
0.221473 0.959715 0.000000
0.295297 0.959715 0.000000
0.369121 0.959715 0.000000
0.442945 0.959715 0.000000
0.516770 0.959715 0.000000
0.590594 0.959715 0.000000
0.664418 0.959715 0.000000
0.738242 0.959715 0.000000
0.812067 0.959715 0.000000
0.885891 0.959715 0.000000
0.959715 0.959715 0.000000
1.000000 0.928571 0.000000
0.000000 1.000000 0.066667
0.000000 1.000000 0.000000
0.071429 1.000000 0.000000
0.142857 1.000000 0.000000
0.214286 1.000000 0.000000
0.285714 1.000000 0.000000
0.357143 1.000000 0.000000
0.428571 1.000000 0.000000
0.500000 1.000000 0.000000
0.571429 1.000000 0.000000
0.642857 1.000000 0.000000
0.714286 1.000000 0.000000
0.785714 1.000000 0.000000
0.857143 1.000000 0.000000
0.928571 1.000000 0.000000
1.000000 1.000000 0.000000
0.000000 0.000000 0.095814
0.047907 0.000000 0.095814
0.095814 0.000000 0.095814
0.159054 0.000000 0.106036
0.227886 0.000000 0.113943
0.301201 0.000000 0.120480
0.378297 0.000000 0.126099
0.458687 0.000000 0.131053
0.541313 0.000000 0.135328
0.621703 0.000000 0.138156
0.698799 0.000000 0.139760
0.772114 0.000000 0.140384
0.840946 0.000000 0.140158
0.904186 0.000000 0.139105
0.959715 0.000000 0.137102
1.000000 0.000000 0.133333
0.000000 0.047907 0.095814
0.033535 0.033535 0.095814
0.095814 0.033535 0.095814
0.159054 0.021207 0.090131
0.227886 0.005697 0.079760
0.301201 0.000000 0.075300
0.378297 0.000000 0.075659
0.458687 0.000000 0.076448
0.541313 0.000000 0.077330
0.621703 0.000000 0.077713
0.698799 0.000000 0.077644
0.772114 0.000000 0.077211
0.840946 0.000000 0.076450
0.904186 0.000000 0.075349
0.959715 0.000000 0.073824
1.000000 0.000000 0.071429
0.000000 0.095814 0.095814
0.033535 0.095814 0.095814
0.095814 0.095814 0.095814
0.159054 0.090131 0.090131
0.227886 0.079760 0.079760
0.301201 0.066264 0.066264
0.378297 0.050440 0.050440
0.458687 0.032763 0.032763
0.541313 0.013533 0.013533
0.621703 0.000000 0.000000
0.698799 0.000000 0.000000
0.772114 0.000000 0.000000
0.840946 0.000000 0.000000
0.904186 0.000000 0.000000
0.959715 0.000000 0.000000
1.000000 0.000000 0.000000
0.000000 0.159054 0.106036
0.021207 0.159054 0.090131
0.090131 0.159054 0.090131
0.159054 0.159054 0.090131
0.227886 0.153823 0.079760
0.301201 0.144576 0.066264
0.378297 0.132404 0.050440
0.458687 0.117948 0.032763
0.541313 0.101496 0.013533
0.621703 0.088815 0.000000
0.698799 0.087350 0.000000
0.772114 0.085790 0.000000
0.840946 0.084095 0.000000
0.904186 0.082199 0.000000
0.959715 0.079976 0.000000
1.000000 0.076923 0.000000
0.000000 0.227886 0.113943
0.005697 0.227886 0.079760
0.079760 0.227886 0.079760
0.153823 0.227886 0.079760
0.227886 0.227886 0.079760
0.301201 0.222888 0.066264
0.378297 0.214368 0.050440
0.458687 0.203133 0.032763
0.541313 0.189460 0.013533
0.621703 0.177630 0.000000
0.698799 0.174700 0.000000
0.772114 0.171581 0.000000
0.840946 0.168189 0.000000
0.904186 0.164397 0.000000
0.959715 0.159952 0.000000
1.000000 0.153846 0.000000
0.000000 0.301201 0.120480
0.000000 0.301201 0.075300
0.066264 0.301201 0.066264
0.144576 0.301201 0.066264
0.222888 0.301201 0.066264
0.301201 0.301201 0.066264
0.378297 0.296332 0.050440
0.458687 0.288317 0.032763
0.541313 0.277423 0.013533
0.621703 0.266444 0.000000
0.698799 0.262050 0.000000
0.772114 0.257371 0.000000
0.840946 0.252284 0.000000
0.904186 0.246596 0.000000
0.959715 0.239929 0.000000
1.000000 0.230769 0.000000
0.000000 0.378297 0.126099
0.000000 0.378297 0.075659
0.050440 0.378297 0.050440
0.132404 0.378297 0.050440
0.214368 0.378297 0.050440
0.296332 0.378297 0.050440
0.378297 0.378297 0.050440
0.458687 0.373502 0.032763
0.541313 0.365387 0.013533
0.621703 0.355259 0.000000
0.698799 0.349400 0.000000
0.772114 0.343162 0.000000
0.840946 0.336378 0.000000
0.904186 0.328795 0.000000
0.959715 0.319905 0.000000
1.000000 0.307692 0.000000
0.000000 0.458687 0.131053
0.000000 0.458687 0.076448
0.032763 0.458687 0.032763
0.117948 0.458687 0.032763
0.203133 0.458687 0.032763
0.288317 0.458687 0.032763
0.373502 0.458687 0.032763
0.458687 0.458687 0.032763
0.541313 0.453350 0.013533
0.621703 0.444074 0.000000
0.698799 0.436750 0.000000
0.772114 0.428952 0.000000
0.840946 0.420473 0.000000
0.904186 0.410993 0.000000
0.959715 0.399881 0.000000
1.000000 0.384615 0.000000
0.000000 0.541313 0.135328
0.000000 0.541313 0.077330
0.013533 0.541313 0.013533
0.101496 0.541313 0.013533
0.189460 0.541313 0.013533
0.277423 0.541313 0.013533
0.365387 0.541313 0.013533
0.453350 0.541313 0.013533
0.541313 0.541313 0.013533
0.621703 0.532889 0.000000
0.698799 0.524099 0.000000
0.772114 0.514742 0.000000
0.840946 0.504568 0.000000
0.904186 0.493192 0.000000
0.959715 0.479857 0.000000
1.000000 0.461538 0.000000
0.000000 0.621703 0.138156
0.000000 0.621703 0.077713
0.000000 0.621703 0.000000
0.088815 0.621703 0.000000
0.177630 0.621703 0.000000
0.266444 0.621703 0.000000
0.355259 0.621703 0.000000
0.444074 0.621703 0.000000
0.532889 0.621703 0.000000
0.621703 0.621703 0.000000
0.698799 0.611449 0.000000
0.772114 0.600533 0.000000
0.840946 0.588662 0.000000
0.904186 0.575391 0.000000
0.959715 0.559834 0.000000
1.000000 0.538462 0.000000
0.000000 0.698799 0.139760
0.000000 0.698799 0.077644
0.000000 0.698799 0.000000
0.087350 0.698799 0.000000
0.174700 0.698799 0.000000
0.262050 0.698799 0.000000
0.349400 0.698799 0.000000
0.436750 0.698799 0.000000
0.524099 0.698799 0.000000
0.611449 0.698799 0.000000
0.698799 0.698799 0.000000
0.772114 0.686323 0.000000
0.840946 0.672757 0.000000
0.904186 0.657590 0.000000
0.959715 0.639810 0.000000
1.000000 0.615385 0.000000
0.000000 0.772114 0.140384
0.000000 0.772114 0.077211
0.000000 0.772114 0.000000
0.085790 0.772114 0.000000
0.171581 0.772114 0.000000
0.257371 0.772114 0.000000
0.343162 0.772114 0.000000
0.428952 0.772114 0.000000
0.514742 0.772114 0.000000
0.600533 0.772114 0.000000
0.686323 0.772114 0.000000
0.772114 0.772114 0.000000
0.840946 0.756851 0.000000
0.904186 0.739788 0.000000
0.959715 0.719786 0.000000
1.000000 0.692308 0.000000
0.000000 0.840946 0.140158
0.000000 0.840946 0.076450
0.000000 0.840946 0.000000
0.084095 0.840946 0.000000
0.168189 0.840946 0.000000
0.252284 0.840946 0.000000
0.336378 0.840946 0.000000
0.420473 0.840946 0.000000
0.504568 0.840946 0.000000
0.588662 0.840946 0.000000
0.672757 0.840946 0.000000
0.756851 0.840946 0.000000
0.840946 0.840946 0.000000
0.904186 0.821987 0.000000
0.959715 0.799762 0.000000
1.000000 0.769231 0.000000
0.000000 0.904186 0.139105
0.000000 0.904186 0.075349
0.000000 0.904186 0.000000
0.082199 0.904186 0.000000
0.164397 0.904186 0.000000
0.246596 0.904186 0.000000
0.328795 0.904186 0.000000
0.410993 0.904186 0.000000
0.493192 0.904186 0.000000
0.575391 0.904186 0.000000
0.657590 0.904186 0.000000
0.739788 0.904186 0.000000
0.821987 0.904186 0.000000
0.904186 0.904186 0.000000
0.959715 0.879739 0.000000
1.000000 0.846154 0.000000
0.000000 0.959715 0.137102
0.000000 0.959715 0.073824
0.000000 0.959715 0.000000
0.079976 0.959715 0.000000
0.159952 0.959715 0.000000
0.239929 0.959715 0.000000
0.319905 0.959715 0.000000
0.399881 0.959715 0.000000
0.479857 0.959715 0.000000
0.559834 0.959715 0.000000
0.639810 0.959715 0.000000
0.719786 0.959715 0.000000
0.799762 0.959715 0.000000
0.879739 0.959715 0.000000
0.959715 0.959715 0.000000
1.000000 0.923077 0.000000
0.000000 1.000000 0.133333
0.000000 1.000000 0.071429
0.000000 1.000000 0.000000
0.076923 1.000000 0.000000
0.153846 1.000000 0.000000
0.230769 1.000000 0.000000
0.307692 1.000000 0.000000
0.384615 1.000000 0.000000
0.461538 1.000000 0.000000
0.538462 1.000000 0.000000
0.615385 1.000000 0.000000
0.692308 1.000000 0.000000
0.769231 1.000000 0.000000
0.846154 1.000000 0.000000
0.923077 1.000000 0.000000
1.000000 1.000000 0.000000
0.000000 0.000000 0.159054
0.053018 0.000000 0.159054
0.106036 0.000000 0.159054
0.159054 0.000000 0.159054
0.227886 0.000000 0.170915
0.301201 0.000000 0.180720
0.378297 0.000000 0.189148
0.458687 0.000000 0.196580
0.541313 0.000000 0.202993
0.621703 0.000000 0.207234
0.698799 0.000000 0.209640
0.772114 0.000000 0.210576
0.840946 0.000000 0.210236
0.904186 0.000000 0.208658
0.959715 0.000000 0.205653
1.000000 0.000000 0.200000
0.000000 0.053018 0.159054
0.021207 0.021207 0.159054
0.090131 0.021207 0.159054
0.159054 0.021207 0.159054
0.227886 0.005697 0.153823
0.301201 0.000000 0.150600
0.378297 0.000000 0.151319
0.458687 0.000000 0.152896
0.541313 0.000000 0.154661
0.621703 0.000000 0.155426
0.698799 0.000000 0.155289
0.772114 0.000000 0.154423
0.840946 0.000000 0.152899
0.904186 0.000000 0.150698
0.959715 0.000000 0.147648
1.000000 0.000000 0.142857
0.000000 0.106036 0.159054
0.021207 0.090131 0.159054
0.090131 0.090131 0.159054
0.159054 0.090131 0.159054
0.227886 0.079760 0.153823
0.301201 0.066264 0.144576
0.378297 0.050440 0.132404
0.458687 0.032763 0.117948
0.541313 0.013533 0.101496
0.621703 0.000000 0.088815
0.698799 0.000000 0.087350
0.772114 0.000000 0.085790
0.840946 0.000000 0.084095
0.904186 0.000000 0.082199
0.959715 0.000000 0.079976
1.000000 0.000000 0.076923
0.000000 0.159054 0.159054
0.021207 0.159054 0.159054
0.090131 0.159054 0.159054
0.159054 0.159054 0.159054
0.227886 0.153823 0.153823
0.301201 0.144576 0.144576
0.378297 0.132404 0.132404
0.458687 0.117948 0.117948
0.541313 0.101496 0.101496
0.621703 0.082894 0.082894
0.698799 0.062892 0.062892
0.772114 0.042115 0.042115
0.840946 0.021024 0.021024
0.904186 0.000000 0.000000
0.959715 0.000000 0.000000
1.000000 0.000000 0.000000
0.000000 0.227886 0.170915
0.005697 0.227886 0.153823
0.079760 0.227886 0.153823
0.153823 0.227886 0.153823
0.227886 0.227886 0.153823
0.301201 0.222888 0.144576
0.378297 0.214368 0.132404
0.458687 0.203133 0.117948
0.541313 0.189460 0.101496
0.621703 0.172695 0.082894
0.698799 0.153736 0.062892
0.772114 0.133365 0.042115
0.840946 0.112126 0.021024
0.904186 0.090419 0.000000
0.959715 0.087247 0.000000
1.000000 0.083333 0.000000
0.000000 0.301201 0.180720
0.000000 0.301201 0.150600
0.066264 0.301201 0.144576
0.144576 0.301201 0.144576
0.222888 0.301201 0.144576
0.301201 0.301201 0.144576
0.378297 0.296332 0.132404
0.458687 0.288317 0.117948
0.541313 0.277423 0.101496
0.621703 0.262497 0.082894
0.698799 0.244580 0.062892
0.772114 0.224615 0.042115
0.840946 0.203229 0.021024
0.904186 0.180837 0.000000
0.959715 0.174494 0.000000
1.000000 0.166667 0.000000
0.000000 0.378297 0.189148
0.000000 0.378297 0.151319
0.050440 0.378297 0.132404
0.132404 0.378297 0.132404
0.214368 0.378297 0.132404
0.296332 0.378297 0.132404
0.378297 0.378297 0.132404
0.458687 0.373502 0.117948
0.541313 0.365387 0.101496
0.621703 0.352299 0.082894
0.698799 0.335424 0.062892
0.772114 0.315865 0.042115
0.840946 0.294331 0.021024
0.904186 0.271256 0.000000
0.959715 0.261740 0.000000
1.000000 0.250000 0.000000
0.000000 0.458687 0.196580
0.000000 0.458687 0.152896
0.032763 0.458687 0.117948
0.117948 0.458687 0.117948
0.203133 0.458687 0.117948
0.288317 0.458687 0.117948
0.373502 0.458687 0.117948
