built_in_luts/Fuji_Astia_Soft.cube
TITLE "Fuji_Astia_Soft"
LUT_3D_SIZE 16
0.000000 0.000000 0.000000
0.081548 0.000000 0.000000
0.152174 0.000000 0.000000
0.219192 0.000000 0.000000
0.283968 0.000000 0.000000
0.347127 0.000000 0.000000
0.409026 0.000000 0.000000
0.469897 0.000000 0.000000
0.530103 0.000000 0.000000
0.590974 0.000000 0.000000
0.652873 0.000000 0.000000
0.716032 0.000000 0.000000
0.780808 0.000000 0.000000
0.847826 0.000000 0.000000
0.918452 0.000000 0.000000
1.000000 0.000000 0.000000
0.000000 0.081548 0.000000
0.081548 0.081548 0.000000
0.152174 0.076087 0.000000
0.219192 0.073064 0.000000
0.283968 0.070992 0.000000
0.347127 0.069425 0.000000
0.409026 0.068171 0.000000
0.469897 0.067128 0.000000
0.530103 0.066263 0.000000
0.590974 0.065664 0.000000
0.652873 0.065287 0.000000
0.716032 0.065094 0.000000
0.780808 0.065067 0.000000
0.847826 0.065217 0.000000
0.918452 0.065604 0.000000
1.000000 0.066667 0.000000
0.000000 0.152174 0.000000
0.076087 0.152174 0.000000
0.152174 0.152174 0.000000
0.219192 0.146128 0.000000
0.283968 0.141984 0.000000
0.347127 0.138851 0.000000
0.409026 0.136342 0.000000
0.469897 0.134256 0.000000
0.530103 0.132526 0.000000
0.590974 0.131328 0.000000
0.652873 0.130575 0.000000
0.716032 0.130188 0.000000
0.780808 0.130135 0.000000
0.847826 0.130435 0.000000
0.918452 0.131207 0.000000
1.000000 0.133333 0.000000
0.000000 0.219192 0.000000
0.073064 0.219192 0.000000
0.146128 0.219192 0.000000
0.219192 0.219192 0.000000
0.283968 0.212976 0.000000
0.347127 0.208276 0.000000
0.409026 0.204513 0.000000
0.469897 0.201385 0.000000
0.530103 0.198788 0.000000
0.590974 0.196991 0.000000
0.652873 0.195862 0.000000
0.716032 0.195282 0.000000
0.780808 0.195202 0.000000
0.847826 0.195652 0.000000
0.918452 0.196811 0.000000
1.000000 0.200000 0.000000
0.000000 0.283968 0.000000
0.070992 0.283968 0.000000
0.141984 0.283968 0.000000
0.212976 0.283968 0.000000
0.283968 0.283968 0.000000
0.347127 0.277701 0.000000
0.409026 0.272684 0.000000
0.469897 0.268513 0.000000
0.530103 0.265051 0.000000
0.590974 0.262655 0.000000
0.652873 0.261149 0.000000
0.716032 0.260375 0.000000
0.780808 0.260269 0.000000
0.847826 0.260869 0.000000
0.918452 0.262415 0.000000
1.000000 0.266667 0.000000
0.000000 0.347127 0.000000
0.069425 0.347127 0.000000
0.138851 0.347127 0.000000
0.208276 0.347127 0.000000
0.277701 0.347127 0.000000
0.347127 0.347127 0.000000
0.409026 0.340855 0.000000
0.469897 0.335641 0.000000
0.530103 0.331314 0.000000
0.590974 0.328319 0.000000
0.652873 0.326437 0.000000
0.716032 0.325469 0.000000
0.780808 0.325337 0.000000
0.847826 0.326087 0.000000
0.918452 0.328018 0.000000
1.000000 0.333333 0.000000
0.000000 0.409026 0.000000
0.068171 0.409026 0.000000
0.136342 0.409026 0.000000
0.204513 0.409026 0.000000
0.272684 0.409026 0.000000
0.340855 0.409026 0.000000
0.409026 0.409026 0.000000
0.469897 0.402769 0.000000
0.530103 0.397577 0.000000
0.590974 0.393983 0.000000
0.652873 0.391724 0.000000
0.716032 0.390563 0.000000
0.780808 0.390404 0.000000
0.847826 0.391304 0.000000
0.918452 0.393622 0.000000
1.000000 0.400000 0.000000
0.000000 0.469897 0.000000
0.067128 0.469897 0.000000
0.134256 0.469897 0.000000
0.201385 0.469897 0.000000
0.268513 0.469897 0.000000
0.335641 0.469897 0.000000
0.402769 0.469897 0.000000
0.469897 0.469897 0.000000
0.530103 0.463840 0.000000
0.590974 0.459646 0.000000
0.652873 0.457011 0.000000
0.716032 0.455657 0.000000
0.780808 0.455472 0.000000
0.847826 0.456521 0.000000
0.918452 0.459226 0.000000
1.000000 0.466667 0.000000
0.000000 0.530103 0.000000
0.066263 0.530103 0.000000
0.132526 0.530103 0.000000
0.198788 0.530103 0.000000
0.265051 0.530103 0.000000
0.331314 0.530103 0.000000
0.397577 0.530103 0.000000
0.463840 0.530103 0.000000
0.530103 0.530103 0.000000
0.590974 0.525310 0.000000
0.652873 0.522299 0.000000
0.716032 0.520751 0.000000
0.780808 0.520539 0.000000
0.847826 0.521739 0.000000
0.918452 0.524830 0.000000
1.000000 0.533333 0.000000
0.000000 0.590974 0.000000
0.065664 0.590974 0.000000
0.131328 0.590974 0.000000
0.196991 0.590974 0.000000
0.262655 0.590974 0.000000
0.328319 0.590974 0.000000
0.393983 0.590974 0.000000
0.459646 0.590974 0.000000
0.525310 0.590974 0.000000
0.590974 0.590974 0.000000
0.652873 0.587586 0.000000
0.716032 0.585845 0.000000
0.780808 0.585606 0.000000
0.847826 0.586956 0.000000
0.918452 0.590433 0.000000
1.000000 0.600000 0.000000
0.000000 0.652873 0.000000
0.065287 0.652873 0.000000
0.130575 0.652873 0.000000
0.195862 0.652873 0.000000
0.261149 0.652873 0.000000
0.326437 0.652873 0.000000
0.391724 0.652873 0.000000
0.457011 0.652873 0.000000
0.522299 0.652873 0.000000
0.587586 0.652873 0.000000
0.652873 0.652873 0.000000
0.716032 0.650939 0.000000
0.780808 0.650674 0.000000
0.847826 0.652173 0.000000
0.918452 0.656037 0.000000
1.000000 0.666667 0.000000
0.000000 0.716032 0.000000
0.065094 0.716032 0.000000
0.130188 0.716032 0.000000
0.195282 0.716032 0.000000
0.260375 0.716032 0.000000
0.325469 0.716032 0.000000
0.390563 0.716032 0.000000
0.455657 0.716032 0.000000
0.520751 0.716032 0.000000
0.585845 0.716032 0.000000
0.650939 0.716032 0.000000
0.716032 0.716032 0.000000
0.780808 0.715741 0.000000
0.847826 0.717391 0.000000
0.918452 0.721641 0.000000
1.000000 0.733333 0.000000
0.000000 0.780808 0.000000
0.065067 0.780808 0.000000
0.130135 0.780808 0.000000
0.195202 0.780808 0.000000
0.260269 0.780808 0.000000
0.325337 0.780808 0.000000
0.390404 0.780808 0.000000
0.455472 0.780808 0.000000
0.520539 0.780808 0.000000
0.585606 0.780808 0.000000
0.650674 0.780808 0.000000
0.715741 0.780808 0.000000
0.780808 0.780808 0.000000
0.847826 0.782608 0.000000
0.918452 0.787244 0.000000
1.000000 0.800000 0.000000
0.000000 0.847826 0.000000
0.065217 0.847826 0.000000
0.130435 0.847826 0.000000
0.195652 0.847826 0.000000
0.260869 0.847826 0.000000
0.326087 0.847826 0.000000
0.391304 0.847826 0.000000
0.456521 0.847826 0.000000
0.521739 0.847826 0.000000
0.586956 0.847826 0.000000
0.652173 0.847826 0.000000
0.717391 0.847826 0.000000
0.782608 0.847826 0.000000
0.847826 0.847826 0.000000
0.918452 0.852848 0.000000
1.000000 0.866667 0.000000
0.000000 0.918452 0.000000
0.065604 0.918452 0.000000
0.131207 0.918452 0.000000
0.196811 0.918452 0.000000
0.262415 0.918452 0.000000
0.328018 0.918452 0.000000
0.393622 0.918452 0.000000
0.459226 0.918452 0.000000
0.524830 0.918452 0.000000
0.590433 0.918452 0.000000
0.656037 0.918452 0.000000
0.721641 0.918452 0.000000
0.787244 0.918452 0.000000
0.852848 0.918452 0.000000
0.918452 0.918452 0.000000
1.000000 0.933333 0.000000
0.000000 1.000000 0.000000
0.066667 1.000000 0.000000
0.133333 1.000000 0.000000
0.200000 1.000000 0.000000
0.266667 1.000000 0.000000
0.333333 1.000000 0.000000
0.400000 1.000000 0.000000
0.466667 1.000000 0.000000
0.533333 1.000000 0.000000
0.600000 1.000000 0.000000
0.666667 1.000000 0.000000
0.733333 1.000000 0.000000
0.800000 1.000000 0.000000
0.866667 1.000000 0.000000
0.933333 1.000000 0.000000
1.000000 1.000000 0.000000
0.000000 0.000000 0.081548
0.081548 0.000000 0.081548
0.152174 0.000000 0.076087
0.219192 0.000000 0.073064
0.283968 0.000000 0.070992
0.347127 0.000000 0.069425
0.409026 0.000000 0.068171
0.469897 0.000000 0.067128
0.530103 0.000000 0.066263
0.590974 0.000000 0.065664
0.652873 0.000000 0.065287
0.716032 0.000000 0.065094
0.780808 0.000000 0.065067
0.847826 0.000000 0.065217
0.918452 0.000000 0.065604
1.000000 0.000000 0.066667
0.000000 0.081548 0.081548
0.081548 0.081548 0.081548
0.152174 0.068479 0.068479
0.219192 0.058451 0.058451
0.283968 0.049694 0.049694
0.347127 0.041655 0.041655
0.409026 0.034086 0.034086
0.469897 0.026851 0.026851
0.530103 0.019879 0.019879
0.590974 0.013133 0.013133
0.652873 0.006529 0.006529
0.716032 0.000000 0.000000
0.780808 0.000000 0.000000
0.847826 0.000000 0.000000
0.918452 0.000000 0.000000
1.000000 0.000000 0.000000
0.000000 0.152174 0.076087
0.068479 0.152174 0.068479
0.152174 0.152174 0.068479
0.219192 0.138821 0.058451
0.283968 0.127785 0.049694
0.347127 0.118023 0.041655
0.409026 0.109074 0.034086
0.469897 0.100692 0.026851
0.530103 0.092768 0.019879
0.590974 0.085363 0.013133
0.652873 0.078345 0.006529
0.716032 0.071603 0.000000
0.780808 0.070983 0.000000
0.847826 0.070652 0.000000
0.918452 0.070650 0.000000
1.000000 0.071429 0.000000
0.000000 0.219192 0.073064
0.058451 0.219192 0.058451
0.138821 0.219192 0.058451
0.219192 0.219192 0.058451
0.283968 0.205877 0.049694
0.347127 0.194391 0.041655
0.409026 0.184062 0.034086
0.469897 0.174533 0.026851
0.530103 0.165657 0.019879
0.590974 0.157593 0.013133
0.652873 0.150161 0.006529
0.716032 0.143206 0.000000
0.780808 0.141965 0.000000
0.847826 0.141304 0.000000
0.918452 0.141300 0.000000
1.000000 0.142857 0.000000
0.000000 0.283968 0.070992
0.049694 0.283968 0.049694
0.127785 0.283968 0.049694
0.205877 0.283968 0.049694
0.283968 0.283968 0.049694
0.347127 0.270759 0.041655
0.409026 0.259050 0.034086
0.469897 0.248374 0.026851
0.530103 0.238546 0.019879
0.590974 0.229823 0.013133
0.652873 0.221977 0.006529
0.716032 0.214810 0.000000
0.780808 0.212948 0.000000
0.847826 0.211956 0.000000
0.918452 0.211950 0.000000
1.000000 0.214286 0.000000
0.000000 0.347127 0.069425
0.041655 0.347127 0.041655
0.118023 0.347127 0.041655
0.194391 0.347127 0.041655
0.270759 0.347127 0.041655
0.347127 0.347127 0.041655
0.409026 0.334038 0.034086
0.469897 0.322215 0.026851
0.530103 0.311435 0.019879
0.590974 0.302053 0.013133
0.652873 0.293793 0.006529
0.716032 0.286413 0.000000
0.780808 0.283930 0.000000
0.847826 0.282609 0.000000
0.918452 0.282601 0.000000
1.000000 0.285714 0.000000
0.000000 0.409026 0.068171
0.034086 0.409026 0.034086
0.109074 0.409026 0.034086
0.184062 0.409026 0.034086
0.259050 0.409026 0.034086
0.334038 0.409026 0.034086
0.409026 0.409026 0.034086
0.469897 0.396056 0.026851
0.530103 0.384324 0.019879
0.590974 0.374283 0.013133
0.652873 0.365609 0.006529
0.716032 0.358016 0.000000
0.780808 0.354913 0.000000
0.847826 0.353261 0.000000
0.918452 0.353251 0.000000
1.000000 0.357143 0.000000
0.000000 0.469897 0.067128
0.026851 0.469897 0.026851
0.100692 0.469897 0.026851
0.174533 0.469897 0.026851
0.248374 0.469897 0.026851
0.322215 0.469897 0.026851
0.396056 0.469897 0.026851
0.469897 0.469897 0.026851
0.530103 0.457213 0.019879
0.590974 0.446514 0.013133
0.652873 0.437425 0.006529
0.716032 0.429619 0.000000
0.780808 0.425895 0.000000
0.847826 0.423913 0.000000
0.918452 0.423901 0.000000
1.000000 0.428571 0.000000
0.000000 0.530103 0.066263
0.019879 0.530103 0.019879
0.092768 0.530103 0.019879
0.165657 0.530103 0.019879
0.238546 0.530103 0.019879
0.311435 0.530103 0.019879
0.384324 0.530103 0.019879
0.457213 0.530103 0.019879
0.530103 0.530103 0.019879
0.590974 0.518744 0.013133
0.652873 0.509241 0.006529
0.716032 0.501223 0.000000
0.780808 0.496878 0.000000
0.847826 0.494565 0.000000
0.918452 0.494551 0.000000
1.000000 0.500000 0.000000
0.000000 0.590974 0.065664
0.013133 0.590974 0.013133
0.085363 0.590974 0.013133
0.157593 0.590974 0.013133
0.229823 0.590974 0.013133
0.302053 0.590974 0.013133
0.374283 0.590974 0.013133
0.446514 0.590974 0.013133
0.518744 0.590974 0.013133
0.590974 0.590974 0.013133
0.652873 0.581057 0.006529
0.716032 0.572826 0.000000
0.780808 0.567861 0.000000
0.847826 0.565217 0.000000
0.918452 0.565201 0.000000
1.000000 0.571429 0.000000
0.000000 0.652873 0.065287
0.006529 0.652873 0.006529
0.078345 0.652873 0.006529
0.150161 0.652873 0.006529
0.221977 0.652873 0.006529
0.293793 0.652873 0.006529
0.365609 0.652873 0.006529
0.437425 0.652873 0.006529
0.509241 0.652873 0.006529
0.581057 0.652873 0.006529
0.652873 0.652873 0.006529
0.716032 0.644429 0.000000
0.780808 0.638843 0.000000
0.847826 0.635869 0.000000
0.918452 0.635851 0.000000
1.000000 0.642857 0.000000
0.000000 0.716032 0.065094
0.000000 0.716032 0.000000
0.071603 0.716032 0.000000
0.143206 0.716032 0.000000
0.214810 0.716032 0.000000
0.286413 0.716032 0.000000
0.358016 0.716032 0.000000
0.429619 0.716032 0.000000
0.501223 0.716032 0.000000
0.572826 0.716032 0.000000
0.644429 0.716032 0.000000
0.716032 0.716032 0.000000
0.780808 0.709826 0.000000
0.847826 0.706521 0.000000
0.918452 0.706501 0.000000
1.000000 0.714286 0.000000
0.000000 0.780808 0.065067
0.000000 0.780808 0.000000
0.070983 0.780808 0.000000
0.141965 0.780808 0.000000
0.212948 0.780808 0.000000
0.283930 0.780808 0.000000
0.354913 0.780808 0.000000
0.425895 0.780808 0.000000
0.496878 0.780808 0.000000
0.567861 0.780808 0.000000
0.638843 0.780808 0.000000
0.709826 0.780808 0.000000
0.780808 0.780808 0.000000
0.847826 0.777173 0.000000
0.918452 0.777151 0.000000
1.000000 0.785714 0.000000
0.000000 0.847826 0.065217
0.000000 0.847826 0.000000
0.070652 0.847826 0.000000
0.141304 0.847826 0.000000
0.211956 0.847826 0.000000
0.282609 0.847826 0.000000
0.353261 0.847826 0.000000
0.423913 0.847826 0.000000
0.494565 0.847826 0.000000
0.565217 0.847826 0.000000
0.635869 0.847826 0.000000
0.706521 0.847826 0.000000
0.777173 0.847826 0.000000
0.847826 0.847826 0.000000
0.918452 0.847802 0.000000
1.000000 0.857143 0.000000
0.000000 0.918452 0.065604
0.000000 0.918452 0.000000
0.070650 0.918452 0.000000
0.141300 0.918452 0.000000
0.211950 0.918452 0.000000
0.282601 0.918452 0.000000
0.353251 0.918452 0.000000
0.423901 0.918452 0.000000
0.494551 0.918452 0.000000
0.565201 0.918452 0.000000
0.635851 0.918452 0.000000
0.706501 0.918452 0.000000
0.777151 0.918452 0.000000
0.847802 0.918452 0.000000
0.918452 0.918452 0.000000
1.000000 0.928571 0.000000
0.000000 1.000000 0.066667
0.000000 1.000000 0.000000
0.071429 1.000000 0.000000
0.142857 1.000000 0.000000
0.214286 1.000000 0.000000
0.285714 1.000000 0.000000
0.357143 1.000000 0.000000
0.428571 1.000000 0.000000
0.500000 1.000000 0.000000
0.571429 1.000000 0.000000
0.642857 1.000000 0.000000
0.714286 1.000000 0.000000
0.785714 1.000000 0.000000
0.857143 1.000000 0.000000
0.928571 1.000000 0.000000
1.000000 1.000000 0.000000
0.000000 0.000000 0.152174
0.076087 0.000000 0.152174
0.152174 0.000000 0.152174
0.219192 0.000000 0.146128
0.283968 0.000000 0.141984
0.347127 0.000000 0.138851
0.409026 0.000000 0.136342
0.469897 0.000000 0.134256
0.530103 0.000000 0.132526
0.590974 0.000000 0.131328
0.652873 0.000000 0.130575
0.716032 0.000000 0.130188
0.780808 0.000000 0.130135
0.847826 0.000000 0.130435
0.918452 0.000000 0.131207
1.000000 0.000000 0.133333
0.000000 0.076087 0.152174
0.068479 0.068479 0.152174
0.152174 0.068479 0.152174
0.219192 0.058451 0.138821
0.283968 0.049694 0.127785
0.347127 0.041655 0.118023
0.409026 0.034086 0.109074
0.469897 0.026851 0.100692
0.530103 0.019879 0.092768
0.590974 0.013133 0.085363
0.652873 0.006529 0.078345
0.716032 0.000000 0.071603
0.780808 0.000000 0.070983
0.847826 0.000000 0.070652
0.918452 0.000000 0.070650
1.000000 0.000000 0.071429
0.000000 0.152174 0.152174
0.068479 0.152174 0.152174
0.152174 0.152174 0.152174
0.219192 0.138821 0.138821
0.283968 0.127785 0.127785
0.347127 0.118023 0.118023
0.409026 0.109074 0.109074
0.469897 0.100692 0.100692
0.530103 0.092768 0.092768
0.590974 0.085363 0.085363
0.652873 0.078345 0.078345
0.716032 0.071603 0.071603
0.780808 0.065067 0.065067
0.847826 0.058696 0.058696
0.918452 0.052483 0.052483
1.000000 0.046667 0.046667
0.000000 0.219192 0.146128
0.058451 0.219192 0.138821
0.138821 0.219192 0.138821
0.219192 0.219192 0.138821
0.283968 0.205877 0.127785
0.347127 0.194391 0.118023
0.409026 0.184062 0.109074
0.469897 0.174533 0.100692
0.530103 0.165657 0.092768
0.590974 0.157593 0.085363
0.652873 0.150161 0.078345
0.716032 0.143206 0.071603
0.780808 0.136641 0.065067
0.847826 0.130435 0.058696
0.918452 0.124647 0.052483
1.000000 0.120000 0.046667
0.000000 0.283968 0.141984
0.049694 0.283968 0.127785
0.127785 0.283968 0.127785
0.205877 0.283968 0.127785
0.283968 0.283968 0.127785
0.347127 0.270759 0.118023
0.409026 0.259050 0.109074
0.469897 0.248374 0.100692
0.530103 0.238546 0.092768
0.590974 0.229823 0.085363
0.652873 0.221977 0.078345
0.716032 0.214810 0.071603
0.780808 0.208216 0.065067
0.847826 0.202174 0.058696
0.918452 0.196811 0.052483
1.000000 0.193333 0.046667
0.000000 0.347127 0.138851
0.041655 0.347127 0.118023
0.118023 0.347127 0.118023
0.194391 0.347127 0.118023
0.270759 0.347127 0.118023
0.347127 0.347127 0.118023
0.409026 0.334038 0.109074
0.469897 0.322215 0.100692
0.530103 0.311435 0.092768
0.590974 0.302053 0.085363
0.652873 0.293793 0.078345
0.716032 0.286413 0.071603
0.780808 0.279790 0.065067
0.847826 0.273913 0.058696
0.918452 0.268975 0.052483
1.000000 0.266667 0.046667
0.000000 0.409026 0.136342
0.034086 0.409026 0.109074
0.109074 0.409026 0.109074
0.184062 0.409026 0.109074
0.259050 0.409026 0.109074
0.334038 0.409026 0.109074
0.409026 0.409026 0.109074
0.469897 0.396056 0.100692
0.530103 0.384324 0.092768
0.590974 0.374283 0.085363
0.652873 0.365609 0.078345
0.716032 0.358016 0.071603
0.780808 0.351364 0.065067
0.847826 0.345652 0.058696
0.918452 0.341139 0.052483
1.000000 0.340000 0.046667
0.000000 0.469897 0.134256
0.026851 0.469897 0.100692
0.100692 0.469897 0.100692
0.174533 0.469897 0.100692
0.248374 0.469897 0.100692
0.322215 0.469897 0.100692
0.396056 0.469897 0.100692
0.469897 0.469897 0.100692
0.530103 0.457213 0.092768
0.590974 0.446514 0.085363
0.652873 0.437425 0.078345
0.716032 0.429619 0.071603
0.780808 0.422938 0.065067
0.847826 0.417391 0.058696
0.918452 0.413303 0.052483
1.000000 0.413333 0.046667
0.000000 0.530103 0.132526
0.019879 0.530103 0.092768
0.092768 0.530103 0.092768
0.165657 0.530103 0.092768
0.238546 0.530103 0.092768
0.311435 0.530103 0.092768
0.384324 0.530103 0.092768
0.457213 0.530103 0.092768
0.530103 0.530103 0.092768
0.590974 0.518744 0.085363
0.652873 0.509241 0.078345
0.716032 0.501223 0.071603
0.780808 0.494512 0.065067
0.847826 0.489130 0.058696
0.918452 0.485467 0.052483
1.000000 0.486667 0.046667
0.000000 0.590974 0.131328
0.013133 0.590974 0.085363
0.085363 0.590974 0.085363
0.157593 0.590974 0.085363
0.229823 0.590974 0.085363
0.302053 0.590974 0.085363
0.374283 0.590974 0.085363
0.446514 0.590974 0.085363
0.518744 0.590974 0.085363
0.590974 0.590974 0.085363
0.652873 0.581057 0.078345
0.716032 0.572826 0.071603
0.780808 0.566086 0.065067
0.847826 0.560869 0.058696
0.918452 0.557631 0.052483
1.000000 0.560000 0.046667
0.000000 0.652873 0.130575
0.006529 0.652873 0.078345
0.078345 0.652873 0.078345
0.150161 0.652873 0.078345
0.221977 0.652873 0.078345
0.293793 0.652873 0.078345
0.365609 0.652873 0.078345
0.437425 0.652873 0.078345
0.509241 0.652873 0.078345
0.581057 0.652873 0.078345
0.652873 0.652873 0.078345
0.716032 0.644429 0.071603
0.780808 0.637660 0.065067
0.847826 0.632608 0.058696
0.918452 0.629795 0.052483
1.000000 0.633333 0.046667
0.000000 0.716032 0.130188
0.000000 0.716032 0.071603
0.071603 0.716032 0.071603
0.143206 0.716032 0.071603
0.214810 0.716032 0.071603
0.286413 0.716032 0.071603
0.358016 0.716032 0.071603
0.429619 0.716032 0.071603
0.501223 0.716032 0.071603
0.572826 0.716032 0.071603
0.644429 0.716032 0.071603
0.716032 0.716032 0.071603
0.780808 0.709234 0.065067
0.847826 0.704347 0.058696
0.918452 0.701960 0.052483
1.000000 0.706667 0.046667
0.000000 0.780808 0.130135
0.000000 0.780808 0.070983
0.065067 0.780808 0.065067
0.136641 0.780808 0.065067
0.208216 0.780808 0.065067
0.279790 0.780808 0.065067
0.351364 0.780808 0.065067
0.422938 0.780808 0.065067
0.494512 0.780808 0.065067
0.566086 0.780808 0.065067
0.637660 0.780808 0.065067
0.709234 0.780808 0.065067
0.780808 0.780808 0.065067
0.847826 0.776086 0.058696
0.918452 0.774124 0.052483
1.000000 0.780000 0.046667
0.000000 0.847826 0.130435
0.000000 0.847826 0.070652
0.058696 0.847826 0.058696
0.130435 0.847826 0.058696
0.202174 0.847826 0.058696
0.273913 0.847826 0.058696
0.345652 0.847826 0.058696
0.417391 0.847826 0.058696
0.489130 0.847826 0.058696
0.560869 0.847826 0.058696
0.632608 0.847826 0.058696
0.704347 0.847826 0.058696
0.776086 0.847826 0.058696
0.847826 0.847826 0.058696
0.918452 0.846288 0.052483
1.000000 0.853333 0.046667
0.000000 0.918452 0.131207
0.000000 0.918452 0.070650
0.052483 0.918452 0.052483
0.124647 0.918452 0.052483
0.196811 0.918452 0.052483
0.268975 0.918452 0.052483
0.341139 0.918452 0.052483
0.413303 0.918452 0.052483
0.485467 0.918452 0.052483
0.557631 0.918452 0.052483
0.629795 0.918452 0.052483
0.701960 0.918452 0.052483
0.774124 0.918452 0.052483
0.846288 0.918452 0.052483
0.918452 0.918452 0.052483
1.000000 0.926667 0.046667
0.000000 1.000000 0.133333
0.000000 1.000000 0.071429
0.046667 1.000000 0.046667
0.120000 1.000000 0.046667
0.193333 1.000000 0.046667
0.266667 1.000000 0.046667
0.340000 1.000000 0.046667
0.413333 1.000000 0.046667
0.486667 1.000000 0.046667
0.560000 1.000000 0.046667
0.633333 1.000000 0.046667
0.706667 1.000000 0.046667
0.780000 1.000000 0.046667
0.853333 1.000000 0.046667
0.926667 1.000000 0.046667
1.000000 1.000000 0.046667
0.000000 0.000000 0.219192
0.073064 0.000000 0.219192
0.146128 0.000000 0.219192
0.219192 0.000000 0.219192
0.283968 0.000000 0.212976
0.347127 0.000000 0.208276
0.409026 0.000000 0.204513
0.469897 0.000000 0.201385
0.530103 0.000000 0.198788
0.590974 0.000000 0.196991
0.652873 0.000000 0.195862
0.716032 0.000000 0.195282
0.780808 0.000000 0.195202
0.847826 0.000000 0.195652
0.918452 0.000000 0.196811
1.000000 0.000000 0.200000
0.000000 0.073064 0.219192
0.058451 0.058451 0.219192
0.138821 0.058451 0.219192
0.219192 0.058451 0.219192
0.283968 0.049694 0.205877
0.347127 0.041655 0.194391
0.409026 0.034086 0.184062
0.469897 0.026851 0.174533
0.530103 0.019879 0.165657
0.590974 0.013133 0.157593
0.652873 0.006529 0.150161
0.716032 0.000000 0.143206
0.780808 0.000000 0.141965
0.847826 0.000000 0.141304
0.918452 0.000000 0.141300
1.000000 0.000000 0.142857
0.000000 0.146128 0.219192
0.058451 0.138821 0.219192
0.138821 0.138821 0.219192
0.219192 0.138821 0.219192
0.283968 0.127785 0.205877
0.347127 0.118023 0.194391
0.409026 0.109074 0.184062
0.469897 0.100692 0.174533
0.530103 0.092768 0.165657
0.590974 0.085363 0.157593
0.652873 0.078345 0.150161
0.716032 0.071603 0.143206
0.780808 0.065067 0.136641
0.847826 0.058696 0.130435
0.918452 0.052483 0.124647
1.000000 0.046667 0.120000
0.000000 0.219192 0.219192
0.058451 0.219192 0.219192
0.138821 0.219192 0.219192
0.219192 0.219192 0.219192
0.283968 0.205877 0.205877
0.347127 0.194391 0.194391
0.409026 0.184062 0.184062
0.469897 0.174533 0.174533
0.530103 0.165657 0.165657
0.590974 0.157593 0.157593
0.652873 0.150161 0.150161
0.716032 0.143206 0.143206
0.780808 0.136641 0.136641
0.847826 0.130435 0.130435
0.918452 0.124647 0.124647
1.000000 0.120000 0.120000
0.000000 0.283968 0.212976
0.049694 0.283968 0.205877
0.127785 0.283968 0.205877
0.205877 0.283968 0.205877
0.283968 0.283968 0.205877
0.347127 0.270759 0.194391
0.409026 0.259050 0.184062
0.469897 0.248374 0.174533
0.530103 0.238546 0.165657
0.590974 0.229823 0.157593
0.652873 0.221977 0.150161
0.716032 0.214810 0.143206
0.780808 0.208216 0.136641
0.847826 0.202174 0.130435
0.918452 0.196811 0.124647
1.000000 0.193333 0.120000
0.000000 0.347127 0.208276
0.041655 0.347127 0.194391
0.118023 0.347127 0.194391
0.194391 0.347127 0.194391
0.270759 0.347127 0.194391
0.347127 0.347127 0.194391
0.409026 0.334038 0.184062
0.469897 0.322215 0.174533
0.530103 0.311435 0.165657
0.590974 0.302053 0.157593
0.652873 0.293793 0.150161
0.716032 0.286413 0.143206
0.780808 0.279790 0.136641
0.847826 0.273913 0.130435
0.918452 0.268975 0.124647
1.000000 0.266667 0.120000
0.000000 0.409026 0.204513
0.034086 0.409026 0.184062
0.109074 0.409026 0.184062
0.184062 0.409026 0.184062
0.259050 0.409026 0.184062
0.334038 0.409026 0.184062
0.409026 0.409026 0.184062
0.469897 0.396056 0.174533
0.530103 0.384324 0.165657
0.590974 0.374283 0.157593
0.652873 0.365609 0.150161
0.716032 0.358016 0.143206
0.780808 0.351364 0.136641
0.847826 0.345652 0.130435
0.918452 0.341139 0.124647
1.000000 0.340000 0.120000
0.000000 0.469897 0.201385
0.026851 0.469897 0.174533
0.100692 0.469897 0.174533
0.174533 0.469897 0.174533
0.248374 0.469897 0.174533
0.322215 0.469897 0.174533
0.396056 0.469897 0.174533
