built_in_luts/Fuji_Classic_Negative_NC.cube
TITLE "Fuji_Classic_Negative_NC"
LUT_3D_SIZE 16
0.000000 0.040000 0.020000
0.000000 0.040806 0.022417
0.031145 0.041916 0.025749
0.104503 0.043181 0.029543
0.184348 0.044558 0.033673
0.269393 0.046024 0.038072
0.358824 0.047566 0.042698
0.452076 0.049174 0.047521
0.541313 0.054131 0.054131
0.624416 0.061085 0.062713
0.711149 0.064940 0.072350
0.793628 0.068606 0.081514
0.871064 0.072047 0.090118
0.942209 0.075209 0.098023
1.000000 0.077986 0.104964
1.000000 0.080000 0.110000
0.000000 0.077062 0.022417
0.000000 0.077062 0.022417
0.031145 0.085033 0.025749
0.104503 0.090897 0.029543
0.184348 0.095832 0.033673
0.269393 0.100240 0.038072
0.358824 0.104310 0.042698
0.452076 0.108148 0.047521
0.541313 0.115029 0.054131
0.624416 0.123256 0.062713
0.711149 0.127832 0.072350
0.793628 0.131779 0.081514
0.871064 0.135118 0.090118
0.942209 0.137807 0.098023
1.000000 0.139682 0.104964
1.000000 0.140000 0.110000
0.000000 0.128149 0.025749
0.000000 0.128149 0.025749
0.031145 0.128149 0.025749
0.104503 0.138614 0.029543
0.184348 0.147107 0.033673
0.269393 0.154456 0.038072
0.358824 0.161055 0.042698
0.452076 0.167122 0.047521
0.541313 0.175927 0.054131
0.624416 0.185426 0.062713
0.711149 0.190724 0.072350
0.793628 0.194952 0.081514
0.871064 0.198189 0.090118
0.942209 0.200404 0.098023
1.000000 0.201378 0.104964
1.000000 0.200000 0.110000
0.000000 0.186330 0.029543
0.009070 0.186330 0.029543
0.056787 0.186330 0.029543
0.104503 0.186330 0.029543
0.184348 0.198381 0.033673
0.269393 0.208672 0.038072
0.358824 0.217799 0.042698
0.452076 0.226096 0.047521
0.541313 0.236825 0.054131
0.624416 0.247596 0.062713
0.711149 0.253616 0.072350
0.793628 0.258124 0.081514
0.871064 0.261260 0.090118
0.942209 0.263002 0.098023
1.000000 0.263074 0.104964
1.000000 0.260000 0.110000
0.000000 0.249655 0.033673
0.030525 0.249655 0.033673
0.081799 0.249655 0.033673
0.133074 0.249655 0.033673
0.184348 0.249655 0.033673
0.269393 0.262888 0.038072
0.358824 0.274544 0.042698
0.452076 0.285070 0.047521
0.541313 0.297722 0.054131
0.624416 0.309767 0.062713
0.711149 0.316508 0.072350
0.793628 0.321297 0.081514
0.871064 0.324331 0.090118
0.942209 0.325599 0.098023
1.000000 0.324770 0.104964
1.000000 0.320000 0.110000
0.000000 0.317105 0.038072
0.052528 0.317105 0.038072
0.106744 0.317105 0.038072
0.160961 0.317105 0.038072
0.215177 0.317105 0.038072
0.269393 0.317105 0.038072
0.358824 0.331288 0.042698
0.452076 0.344044 0.047521
0.541313 0.358620 0.054131
0.624416 0.371937 0.062713
0.711149 0.379400 0.072350
0.793628 0.384470 0.081514
0.871064 0.387402 0.090118
0.942209 0.388197 0.098023
1.000000 0.386466 0.104964
1.000000 0.380000 0.110000
0.018357 0.388033 0.042698
0.075102 0.388033 0.042698
0.131846 0.388033 0.042698
0.188591 0.388033 0.042698
0.245335 0.388033 0.042698
0.302080 0.388033 0.042698
0.358824 0.388033 0.042698
0.452076 0.403018 0.047521
0.541313 0.419518 0.054131
0.624416 0.434107 0.062713
0.711149 0.442292 0.072350
0.793628 0.447643 0.081514
0.871064 0.450473 0.090118
0.942209 0.450794 0.098023
1.000000 0.448162 0.104964
1.000000 0.440000 0.110000
0.039258 0.461992 0.047521
0.098232 0.461992 0.047521
0.157206 0.461992 0.047521
0.216180 0.461992 0.047521
0.275154 0.461992 0.047521
0.334128 0.461992 0.047521
0.393102 0.461992 0.047521
0.452076 0.461992 0.047521
0.541313 0.480416 0.054131
0.624416 0.496278 0.062713
0.711149 0.505184 0.072350
0.793628 0.510816 0.081514
0.871064 0.513544 0.090118
0.942209 0.513392 0.098023
1.000000 0.509857 0.104964
1.000000 0.500000 0.110000
0.054131 0.541313 0.054131
0.115029 0.541313 0.054131
0.175927 0.541313 0.054131
0.236825 0.541313 0.054131
0.297722 0.541313 0.054131
0.358620 0.541313 0.054131
0.419518 0.541313 0.054131
0.480416 0.541313 0.054131
0.541313 0.541313 0.054131
0.624416 0.558448 0.062713
0.711149 0.568075 0.072350
0.793628 0.573989 0.081514
0.871064 0.576615 0.090118
0.942209 0.575989 0.098023
1.000000 0.571553 0.104964
1.000000 0.560000 0.110000
0.064883 0.620618 0.062713
0.127054 0.620618 0.062713
0.189224 0.620618 0.062713
0.251394 0.620618 0.062713
0.313565 0.620618 0.062713
0.375735 0.620618 0.062713
0.437905 0.620618 0.062713
0.500076 0.620618 0.062713
0.562246 0.620618 0.062713
0.624416 0.620618 0.062713
0.711149 0.630967 0.072350
0.793628 0.637162 0.081514
0.871064 0.639686 0.090118
0.942209 0.638586 0.098023
1.000000 0.633249 0.104964
1.000000 0.620000 0.110000
0.082230 0.693859 0.072350
0.145122 0.693859 0.072350
0.208014 0.693859 0.072350
0.270906 0.693859 0.072350
0.333798 0.693859 0.072350
0.396690 0.693859 0.072350
0.459581 0.693859 0.072350
0.522473 0.693859 0.072350
0.585365 0.693859 0.072350
0.648257 0.693859 0.072350
0.711149 0.693859 0.072350
0.793628 0.700335 0.081514
0.871064 0.702757 0.090118
0.942209 0.701184 0.098023
1.000000 0.694945 0.104964
1.000000 0.680000 0.110000
0.098726 0.763508 0.081514
0.161898 0.763508 0.081514
0.225071 0.763508 0.081514
0.288244 0.763508 0.081514
0.351417 0.763508 0.081514
0.414590 0.763508 0.081514
0.477763 0.763508 0.081514
0.540936 0.763508 0.081514
0.604109 0.763508 0.081514
0.667282 0.763508 0.081514
0.730455 0.763508 0.081514
0.793628 0.763508 0.081514
0.871064 0.765828 0.090118
0.942209 0.763781 0.098023
1.000000 0.756641 0.104964
1.000000 0.740000 0.110000
0.114213 0.828899 0.090118
0.177284 0.828899 0.090118
0.240355 0.828899 0.090118
0.303426 0.828899 0.090118
0.366497 0.828899 0.090118
0.429568 0.828899 0.090118
0.492638 0.828899 0.090118
0.555709 0.828899 0.090118
0.618780 0.828899 0.090118
0.681851 0.828899 0.090118
0.744922 0.828899 0.090118
0.807993 0.828899 0.090118
0.871064 0.828899 0.090118
0.942209 0.826379 0.098023
1.000000 0.818337 0.104964
1.000000 0.800000 0.110000
0.128442 0.888976 0.098023
0.191039 0.888976 0.098023
0.253637 0.888976 0.098023
0.316234 0.888976 0.098023
0.378832 0.888976 0.098023
0.441429 0.888976 0.098023
0.504027 0.888976 0.098023
0.566624 0.888976 0.098023
0.629221 0.888976 0.098023
0.691819 0.888976 0.098023
0.754416 0.888976 0.098023
0.817014 0.888976 0.098023
0.879611 0.888976 0.098023
0.942209 0.888976 0.098023
1.000000 0.880033 0.104964
1.000000 0.860000 0.110000
0.140936 0.941729 0.104964
0.202632 0.941729 0.104964
0.264328 0.941729 0.104964
0.326024 0.941729 0.104964
0.387720 0.941729 0.104964
0.449416 0.941729 0.104964
0.511112 0.941729 0.104964
0.572808 0.941729 0.104964
0.634504 0.941729 0.104964
0.696200 0.941729 0.104964
0.757896 0.941729 0.104964
0.819591 0.941729 0.104964
0.881287 0.941729 0.104964
0.942983 0.941729 0.104964
1.000000 0.941729 0.104964
1.000000 0.920000 0.110000
0.150000 0.980000 0.110000
0.210000 0.980000 0.110000
0.270000 0.980000 0.110000
0.330000 0.980000 0.110000
0.390000 0.980000 0.110000
0.450000 0.980000 0.110000
0.510000 0.980000 0.110000
0.570000 0.980000 0.110000
0.630000 0.980000 0.110000
0.690000 0.980000 0.110000
0.750000 0.980000 0.110000
0.810000 0.980000 0.110000
0.870000 0.980000 0.110000
0.930000 0.980000 0.110000
0.990000 0.980000 0.110000
1.000000 0.980000 0.110000
0.000000 0.040806 0.058674
0.000000 0.040806 0.058674
0.031145 0.041916 0.068865
0.104503 0.043181 0.077259
0.184348 0.044558 0.084948
0.269393 0.046024 0.092288
0.358824 0.047566 0.099442
0.452076 0.049174 0.106495
0.541313 0.054131 0.115029
0.624416 0.061085 0.124883
0.711149 0.064940 0.135242
0.793628 0.068606 0.144687
0.871064 0.072047 0.153189
0.942209 0.075209 0.160621
1.000000 0.077986 0.166660
1.000000 0.080000 0.170000
0.000000 0.077062 0.058674
0.000000 0.077062 0.058674
0.031145 0.085033 0.068865
0.104503 0.090897 0.077259
0.184348 0.095832 0.084948
0.269393 0.100240 0.092288
0.358824 0.104310 0.099442
0.452076 0.108148 0.106495
0.541313 0.115029 0.115029
0.624416 0.123256 0.124883
0.711149 0.127832 0.135242
0.793628 0.131779 0.144687
0.871064 0.135118 0.153189
0.942209 0.137807 0.160621
1.000000 0.139682 0.166660
1.000000 0.140000 0.170000
0.000000 0.128149 0.068865
0.000000 0.128149 0.068865
0.031145 0.128149 0.068865
0.104503 0.138614 0.077259
0.184348 0.147107 0.084948
0.269393 0.154456 0.092288
0.358824 0.161055 0.099442
0.452076 0.167122 0.106495
0.541313 0.175927 0.115029
0.624416 0.185426 0.124883
0.711149 0.190724 0.135242
0.793628 0.194952 0.144687
0.871064 0.198189 0.153189
0.942209 0.200404 0.160621
1.000000 0.201378 0.166660
1.000000 0.200000 0.170000
0.000000 0.186330 0.077259
0.009070 0.186330 0.077259
0.056787 0.186330 0.077259
0.104503 0.186330 0.077259
0.184348 0.198381 0.084948
0.269393 0.208672 0.092288
0.358824 0.217799 0.099442
0.452076 0.226096 0.106495
0.541313 0.236825 0.115029
0.624416 0.247596 0.124883
0.711149 0.253616 0.135242
0.793628 0.258124 0.144687
0.871064 0.261260 0.153189
0.942209 0.263002 0.160621
1.000000 0.263074 0.166660
1.000000 0.260000 0.170000
0.000000 0.249655 0.084948
0.030525 0.249655 0.084948
0.081799 0.249655 0.084948
0.133074 0.249655 0.084948
0.184348 0.249655 0.084948
0.269393 0.262888 0.092288
0.358824 0.274544 0.099442
0.452076 0.285070 0.106495
0.541313 0.297722 0.115029
0.624416 0.309767 0.124883
0.711149 0.316508 0.135242
0.793628 0.321297 0.144687
0.871064 0.324331 0.153189
0.942209 0.325599 0.160621
1.000000 0.324770 0.166660
1.000000 0.320000 0.170000
0.000000 0.317105 0.092288
0.052528 0.317105 0.092288
0.106744 0.317105 0.092288
0.160961 0.317105 0.092288
0.215177 0.317105 0.092288
0.269393 0.317105 0.092288
0.358824 0.331288 0.099442
0.452076 0.344044 0.106495
0.541313 0.358620 0.115029
0.624416 0.371937 0.124883
0.711149 0.379400 0.135242
0.793628 0.384470 0.144687
0.871064 0.387402 0.153189
0.942209 0.388197 0.160621
1.000000 0.386466 0.166660
1.000000 0.380000 0.170000
0.018357 0.388033 0.099442
0.075102 0.388033 0.099442
0.131846 0.388033 0.099442
0.188591 0.388033 0.099442
0.245335 0.388033 0.099442
0.302080 0.388033 0.099442
0.358824 0.388033 0.099442
0.452076 0.403018 0.106495
0.541313 0.419518 0.115029
0.624416 0.434107 0.124883
0.711149 0.442292 0.135242
0.793628 0.447643 0.144687
0.871064 0.450473 0.153189
0.942209 0.450794 0.160621
1.000000 0.448162 0.166660
1.000000 0.440000 0.170000
0.039258 0.461992 0.106495
0.098232 0.461992 0.106495
0.157206 0.461992 0.106495
0.216180 0.461992 0.106495
0.275154 0.461992 0.106495
0.334128 0.461992 0.106495
0.393102 0.461992 0.106495
0.452076 0.461992 0.106495
0.541313 0.480416 0.115029
0.624416 0.496278 0.124883
0.711149 0.505184 0.135242
0.793628 0.510816 0.144687
0.871064 0.513544 0.153189
0.942209 0.513392 0.160621
1.000000 0.509857 0.166660
1.000000 0.500000 0.170000
0.054131 0.541313 0.115029
0.115029 0.541313 0.115029
0.175927 0.541313 0.115029
0.236825 0.541313 0.115029
0.297722 0.541313 0.115029
0.358620 0.541313 0.115029
0.419518 0.541313 0.115029
0.480416 0.541313 0.115029
0.541313 0.541313 0.115029
0.624416 0.558448 0.124883
0.711149 0.568075 0.135242
0.793628 0.573989 0.144687
0.871064 0.576615 0.153189
0.942209 0.575989 0.160621
1.000000 0.571553 0.166660
1.000000 0.560000 0.170000
0.064883 0.620618 0.124883
0.127054 0.620618 0.124883
0.189224 0.620618 0.124883
0.251394 0.620618 0.124883
0.313565 0.620618 0.124883
0.375735 0.620618 0.124883
0.437905 0.620618 0.124883
0.500076 0.620618 0.124883
0.562246 0.620618 0.124883
0.624416 0.620618 0.124883
0.711149 0.630967 0.135242
0.793628 0.637162 0.144687
0.871064 0.639686 0.153189
0.942209 0.638586 0.160621
1.000000 0.633249 0.166660
1.000000 0.620000 0.170000
0.082230 0.693859 0.135242
0.145122 0.693859 0.135242
0.208014 0.693859 0.135242
0.270906 0.693859 0.135242
0.333798 0.693859 0.135242
0.396690 0.693859 0.135242
0.459581 0.693859 0.135242
0.522473 0.693859 0.135242
0.585365 0.693859 0.135242
0.648257 0.693859 0.135242
0.711149 0.693859 0.135242
0.793628 0.700335 0.144687
0.871064 0.702757 0.153189
0.942209 0.701184 0.160621
1.000000 0.694945 0.166660
1.000000 0.680000 0.170000
0.098726 0.763508 0.144687
0.161898 0.763508 0.144687
0.225071 0.763508 0.144687
0.288244 0.763508 0.144687
0.351417 0.763508 0.144687
0.414590 0.763508 0.144687
0.477763 0.763508 0.144687
0.540936 0.763508 0.144687
0.604109 0.763508 0.144687
0.667282 0.763508 0.144687
0.730455 0.763508 0.144687
0.793628 0.763508 0.144687
0.871064 0.765828 0.153189
0.942209 0.763781 0.160621
1.000000 0.756641 0.166660
1.000000 0.740000 0.170000
0.114213 0.828899 0.153189
0.177284 0.828899 0.153189
0.240355 0.828899 0.153189
0.303426 0.828899 0.153189
0.366497 0.828899 0.153189
0.429568 0.828899 0.153189
0.492638 0.828899 0.153189
0.555709 0.828899 0.153189
0.618780 0.828899 0.153189
0.681851 0.828899 0.153189
0.744922 0.828899 0.153189
0.807993 0.828899 0.153189
0.871064 0.828899 0.153189
0.942209 0.826379 0.160621
1.000000 0.818337 0.166660
1.000000 0.800000 0.170000
0.128442 0.888976 0.160621
0.191039 0.888976 0.160621
0.253637 0.888976 0.160621
0.316234 0.888976 0.160621
0.378832 0.888976 0.160621
0.441429 0.888976 0.160621
0.504027 0.888976 0.160621
0.566624 0.888976 0.160621
0.629221 0.888976 0.160621
0.691819 0.888976 0.160621
0.754416 0.888976 0.160621
0.817014 0.888976 0.160621
0.879611 0.888976 0.160621
0.942209 0.888976 0.160621
1.000000 0.880033 0.166660
1.000000 0.860000 0.170000
0.140936 0.941729 0.166660
0.202632 0.941729 0.166660
0.264328 0.941729 0.166660
0.326024 0.941729 0.166660
0.387720 0.941729 0.166660
0.449416 0.941729 0.166660
0.511112 0.941729 0.166660
0.572808 0.941729 0.166660
0.634504 0.941729 0.166660
0.696200 0.941729 0.166660
0.757896 0.941729 0.166660
0.819591 0.941729 0.166660
0.881287 0.941729 0.166660
0.942983 0.941729 0.166660
1.000000 0.941729 0.166660
1.000000 0.920000 0.170000
0.150000 0.980000 0.170000
0.210000 0.980000 0.170000
0.270000 0.980000 0.170000
0.330000 0.980000 0.170000
0.390000 0.980000 0.170000
0.450000 0.980000 0.170000
0.510000 0.980000 0.170000
0.570000 0.980000 0.170000
0.630000 0.980000 0.170000
0.690000 0.980000 0.170000
0.750000 0.980000 0.170000
0.810000 0.980000 0.170000
0.870000 0.980000 0.170000
0.930000 0.980000 0.170000
0.990000 0.980000 0.170000
1.000000 0.980000 0.170000
0.000000 0.041916 0.111982
0.000000 0.041916 0.111982
0.031145 0.041916 0.111982
0.104503 0.043181 0.124976
0.184348 0.044558 0.136222
0.269393 0.046024 0.146504
0.358824 0.047566 0.156187
0.452076 0.049174 0.165469
0.541313 0.054131 0.175927
0.624416 0.061085 0.187054
0.711149 0.064940 0.198134
0.793628 0.068606 0.207860
0.871064 0.072047 0.216260
0.942209 0.075209 0.223218
1.000000 0.077986 0.228356
1.000000 0.080000 0.230000
0.000000 0.085033 0.111982
0.000000 0.085033 0.111982
0.031145 0.085033 0.111982
0.104503 0.090897 0.124976
0.184348 0.095832 0.136222
0.269393 0.100240 0.146504
0.358824 0.104310 0.156187
0.452076 0.108148 0.165469
0.541313 0.115029 0.175927
0.624416 0.123256 0.187054
0.711149 0.127832 0.198134
0.793628 0.131779 0.207860
0.871064 0.135118 0.216260
0.942209 0.137807 0.223218
1.000000 0.139682 0.228356
1.000000 0.140000 0.230000
0.000000 0.128149 0.111982
0.000000 0.128149 0.111982
0.031145 0.128149 0.111982
0.104503 0.138614 0.124976
0.184348 0.147107 0.136222
0.269393 0.154456 0.146504
0.358824 0.161055 0.156187
0.452076 0.167122 0.165469
0.541313 0.175927 0.175927
0.624416 0.185426 0.187054
0.711149 0.190724 0.198134
0.793628 0.194952 0.207860
0.871064 0.198189 0.216260
0.942209 0.200404 0.223218
1.000000 0.201378 0.228356
1.000000 0.200000 0.230000
0.000000 0.186330 0.124976
0.009070 0.186330 0.124976
0.056787 0.186330 0.124976
0.104503 0.186330 0.124976
0.184348 0.198381 0.136222
0.269393 0.208672 0.146504
0.358824 0.217799 0.156187
0.452076 0.226096 0.165469
0.541313 0.236825 0.175927
0.624416 0.247596 0.187054
0.711149 0.253616 0.198134
0.793628 0.258124 0.207860
0.871064 0.261260 0.216260
0.942209 0.263002 0.223218
1.000000 0.263074 0.228356
1.000000 0.260000 0.230000
0.000000 0.249655 0.136222
0.030525 0.249655 0.136222
0.081799 0.249655 0.136222
0.133074 0.249655 0.136222
0.184348 0.249655 0.136222
0.269393 0.262888 0.146504
0.358824 0.274544 0.156187
0.452076 0.285070 0.165469
0.541313 0.297722 0.175927
0.624416 0.309767 0.187054
0.711149 0.316508 0.198134
0.793628 0.321297 0.207860
0.871064 0.324331 0.216260
0.942209 0.325599 0.223218
1.000000 0.324770 0.228356
1.000000 0.320000 0.230000
0.000000 0.317105 0.146504
0.052528 0.317105 0.146504
0.106744 0.317105 0.146504
0.160961 0.317105 0.146504
0.215177 0.317105 0.146504
0.269393 0.317105 0.146504
0.358824 0.331288 0.156187
0.452076 0.344044 0.165469
0.541313 0.358620 0.175927
0.624416 0.371937 0.187054
0.711149 0.379400 0.198134
0.793628 0.384470 0.207860
0.871064 0.387402 0.216260
0.942209 0.388197 0.223218
1.000000 0.386466 0.228356
1.000000 0.380000 0.230000
0.018357 0.388033 0.156187
0.075102 0.388033 0.156187
0.131846 0.388033 0.156187
0.188591 0.388033 0.156187
0.245335 0.388033 0.156187
0.302080 0.388033 0.156187
0.358824 0.388033 0.156187
0.452076 0.403018 0.165469
0.541313 0.419518 0.175927
0.624416 0.434107 0.187054
0.711149 0.442292 0.198134
0.793628 0.447643 0.207860
0.871064 0.450473 0.216260
0.942209 0.450794 0.223218
1.000000 0.448162 0.228356
1.000000 0.440000 0.230000
0.039258 0.461992 0.165469
0.098232 0.461992 0.165469
0.157206 0.461992 0.165469
0.216180 0.461992 0.165469
0.275154 0.461992 0.165469
0.334128 0.461992 0.165469
0.393102 0.461992 0.165469
0.452076 0.461992 0.165469
0.541313 0.480416 0.175927
0.624416 0.496278 0.187054
0.711149 0.505184 0.198134
0.793628 0.510816 0.207860
0.871064 0.513544 0.216260
0.942209 0.513392 0.223218
1.000000 0.509857 0.228356
1.000000 0.500000 0.230000
0.054131 0.541313 0.175927
0.115029 0.541313 0.175927
0.175927 0.541313 0.175927
0.236825 0.541313 0.175927
0.297722 0.541313 0.175927
0.358620 0.541313 0.175927
0.419518 0.541313 0.175927
0.480416 0.541313 0.175927
0.541313 0.541313 0.175927
0.624416 0.558448 0.187054
0.711149 0.568075 0.198134
0.793628 0.573989 0.207860
0.871064 0.576615 0.216260
0.942209 0.575989 0.223218
1.000000 0.571553 0.228356
1.000000 0.560000 0.230000
0.064883 0.620618 0.187054
0.127054 0.620618 0.187054
0.189224 0.620618 0.187054
0.251394 0.620618 0.187054
0.313565 0.620618 0.187054
0.375735 0.620618 0.187054
0.437905 0.620618 0.187054
0.500076 0.620618 0.187054
0.562246 0.620618 0.187054
0.624416 0.620618 0.187054
0.711149 0.630967 0.198134
0.793628 0.637162 0.207860
0.871064 0.639686 0.216260
0.942209 0.638586 0.223218
1.000000 0.633249 0.228356
1.000000 0.620000 0.230000
0.082230 0.693859 0.198134
0.145122 0.693859 0.198134
0.208014 0.693859 0.198134
0.270906 0.693859 0.198134
0.333798 0.693859 0.198134
0.396690 0.693859 0.198134
0.459581 0.693859 0.198134
0.522473 0.693859 0.198134
0.585365 0.693859 0.198134
0.648257 0.693859 0.198134
0.711149 0.693859 0.198134
0.793628 0.700335 0.207860
0.871064 0.702757 0.216260
0.942209 0.701184 0.223218
1.000000 0.694945 0.228356
1.000000 0.680000 0.230000
0.098726 0.763508 0.207860
0.161898 0.763508 0.207860
0.225071 0.763508 0.207860
0.288244 0.763508 0.207860
0.351417 0.763508 0.207860
0.414590 0.763508 0.207860
0.477763 0.763508 0.207860
0.540936 0.763508 0.207860
0.604109 0.763508 0.207860
0.667282 0.763508 0.207860
0.730455 0.763508 0.207860
0.793628 0.763508 0.207860
0.871064 0.765828 0.216260
0.942209 0.763781 0.223218
1.000000 0.756641 0.228356
1.000000 0.740000 0.230000
0.114213 0.828899 0.216260
0.177284 0.828899 0.216260
0.240355 0.828899 0.216260
0.303426 0.828899 0.216260
0.366497 0.828899 0.216260
0.429568 0.828899 0.216260
0.492638 0.828899 0.216260
0.555709 0.828899 0.216260
0.618780 0.828899 0.216260
0.681851 0.828899 0.216260
0.744922 0.828899 0.216260
0.807993 0.828899 0.216260
0.871064 0.828899 0.216260
0.942209 0.826379 0.223218
1.000000 0.818337 0.228356
1.000000 0.800000 0.230000
0.128442 0.888976 0.223218
0.191039 0.888976 0.223218
0.253637 0.888976 0.223218
0.316234 0.888976 0.223218
0.378832 0.888976 0.223218
0.441429 0.888976 0.223218
0.504027 0.888976 0.223218
0.566624 0.888976 0.223218
0.629221 0.888976 0.223218
0.691819 0.888976 0.223218
0.754416 0.888976 0.223218
0.817014 0.888976 0.223218
0.879611 0.888976 0.223218
0.942209 0.888976 0.223218
1.000000 0.880033 0.228356
1.000000 0.860000 0.230000
0.140936 0.941729 0.228356
0.202632 0.941729 0.228356
0.264328 0.941729 0.228356
0.326024 0.941729 0.228356
0.387720 0.941729 0.228356
0.449416 0.941729 0.228356
0.511112 0.941729 0.228356
0.572808 0.941729 0.228356
0.634504 0.941729 0.228356
0.696200 0.941729 0.228356
0.757896 0.941729 0.228356
0.819591 0.941729 0.228356
0.881287 0.941729 0.228356
0.942983 0.941729 0.228356
1.000000 0.941729 0.228356
1.000000 0.920000 0.230000
0.150000 0.980000 0.230000
0.210000 0.980000 0.230000
0.270000 0.980000 0.230000
0.330000 0.980000 0.230000
0.390000 0.980000 0.230000
0.450000 0.980000 0.230000
0.510000 0.980000 0.230000
0.570000 0.980000 0.230000
0.630000 0.980000 0.230000
0.690000 0.980000 0.230000
0.750000 0.980000 0.230000
0.810000 0.980000 0.230000
0.870000 0.980000 0.230000
0.930000 0.980000 0.230000
0.990000 0.980000 0.230000
1.000000 0.980000 0.230000
0.000000 0.043181 0.172692
0.009070 0.043181 0.172692
0.056787 0.043181 0.172692
0.104503 0.043181 0.172692
0.184348 0.044558 0.187497
0.269393 0.046024 0.200720
0.358824 0.047566 0.212931
0.452076 0.049174 0.224443
0.541313 0.054131 0.236825
0.624416 0.061085 0.249224
0.711149 0.064940 0.261026
0.793628 0.068606 0.271033
0.871064 0.072047 0.279331
0.942209 0.075209 0.285816
1.000000 0.077986 0.290052
1.000000 0.080000 0.290000
0.000000 0.090897 0.172692
0.009070 0.090897 0.172692
0.056787 0.090897 0.172692
0.104503 0.090897 0.172692
0.184348 0.095832 0.187497
0.269393 0.100240 0.200720
0.358824 0.104310 0.212931
0.452076 0.108148 0.224443
0.541313 0.115029 0.236825
0.624416 0.123256 0.249224
0.711149 0.127832 0.261026
0.793628 0.131779 0.271033
0.871064 0.135118 0.279331
0.942209 0.137807 0.285816
1.000000 0.139682 0.290052
1.000000 0.140000 0.290000
0.000000 0.138614 0.172692
0.009070 0.138614 0.172692
0.056787 0.138614 0.172692
0.104503 0.138614 0.172692
0.184348 0.147107 0.187497
0.269393 0.154456 0.200720
0.358824 0.161055 0.212931
0.452076 0.167122 0.224443
0.541313 0.175927 0.236825
0.624416 0.185426 0.249224
0.711149 0.190724 0.261026
0.793628 0.194952 0.271033
0.871064 0.198189 0.279331
0.942209 0.200404 0.285816
1.000000 0.201378 0.290052
1.000000 0.200000 0.290000
0.000000 0.186330 0.172692
0.009070 0.186330 0.172692
0.056787 0.186330 0.172692
0.104503 0.186330 0.172692
0.184348 0.198381 0.187497
0.269393 0.208672 0.200720
0.358824 0.217799 0.212931
0.452076 0.226096 0.224443
0.541313 0.236825 0.236825
0.624416 0.247596 0.249224
0.711149 0.253616 0.261026
0.793628 0.258124 0.271033
0.871064 0.261260 0.279331
0.942209 0.263002 0.285816
1.000000 0.263074 0.290052
1.000000 0.260000 0.290000
0.000000 0.249655 0.187497
0.030525 0.249655 0.187497
0.081799 0.249655 0.187497
0.133074 0.249655 0.187497
0.184348 0.249655 0.187497
0.269393 0.262888 0.200720
0.358824 0.274544 0.212931
0.452076 0.285070 0.224443
0.541313 0.297722 0.236825
0.624416 0.309767 0.249224
0.711149 0.316508 0.261026
0.793628 0.321297 0.271033
0.871064 0.324331 0.279331
0.942209 0.325599 0.285816
1.000000 0.324770 0.290052
1.000000 0.320000 0.290000
0.000000 0.317105 0.200720
0.052528 0.317105 0.200720
0.106744 0.317105 0.200720
0.160961 0.317105 0.200720
0.215177 0.317105 0.200720
0.269393 0.317105 0.200720
0.358824 0.331288 0.212931
0.452076 0.344044 0.224443
0.541313 0.358620 0.236825
0.624416 0.371937 0.249224
0.711149 0.379400 0.261026
0.793628 0.384470 0.271033
0.871064 0.387402 0.279331
0.942209 0.388197 0.285816
1.000000 0.386466 0.290052
1.000000 0.380000 0.290000
0.018357 0.388033 0.212931
0.075102 0.388033 0.212931
0.131846 0.388033 0.212931
0.188591 0.388033 0.212931
0.245335 0.388033 0.212931
0.302080 0.388033 0.212931
0.358824 0.388033 0.212931
0.452076 0.403018 0.224443
0.541313 0.419518 0.236825
0.624416 0.434107 0.249224
0.711149 0.442292 0.261026
0.793628 0.447643 0.271033
0.871064 0.450473 0.279331
0.942209 0.450794 0.285816
1.000000 0.448162 0.290052
1.000000 0.440000 0.290000
0.039258 0.461992 0.224443
0.098232 0.461992 0.224443
0.157206 0.461992 0.224443
0.216180 0.461992 0.224443
0.275154 0.461992 0.224443
0.334128 0.461992 0.224443
0.393102 0.461992 0.224443
