built_in_luts/Fuji_Provia_Standard.cube
TITLE "Fuji_Provia_Standard"
LUT_3D_SIZE 6
0.000000 0.000000 0.000000
0.182489 0.000000 0.000000
0.391173 0.000000 0.000000
0.608827 0.000000 0.000000
0.817511 0.000000 0.000000
1.000000 0.000000 0.000000
0.000000 0.182489 0.000000
0.182489 0.182489 0.000000
0.391173 0.195587 0.000000
0.608827 0.202942 0.000000
0.817511 0.204378 0.000000
1.000000 0.200000 0.000000
0.000000 0.391173 0.000000
0.195587 0.391173 0.000000
0.391173 0.391173 0.000000
0.608827 0.405885 0.000000
0.817511 0.408756 0.000000
1.000000 0.400000 0.000000
0.000000 0.608827 0.000000
0.202942 0.608827 0.000000
0.405885 0.608827 0.000000
0.608827 0.608827 0.000000
0.817511 0.613133 0.000000
1.000000 0.600000 0.000000
0.000000 0.817511 0.000000
0.204378 0.817511 0.000000
0.408756 0.817511 0.000000
0.613133 0.817511 0.000000
0.817511 0.817511 0.000000
1.000000 0.800000 0.000000
0.000000 1.000000 0.000000
0.200000 1.000000 0.000000
0.400000 1.000000 0.000000
0.600000 1.000000 0.000000
0.800000 1.000000 0.000000
1.000000 1.000000 0.000000
0.000000 0.000000 0.182489
0.182489 0.000000 0.182489
0.391173 0.000000 0.195587
0.608827 0.000000 0.202942
0.817511 0.000000 0.204378
1.000000 0.000000 0.200000
0.000000 0.182489 0.182489
0.182489 0.182489 0.182489
0.391173 0.185807 0.185807
0.608827 0.182648 0.182648
0.817511 0.173721 0.173721
1.000000 0.160000 0.160000
0.000000 0.391173 0.195587
0.185807 0.391173 0.185807
0.391173 0.391173 0.185807
0.608827 0.395737 0.182648
0.817511 0.388318 0.173721
1.000000 0.370000 0.160000
0.000000 0.608827 0.202942
0.182648 0.608827 0.182648
0.395737 0.608827 0.182648
0.608827 0.608827 0.182648
0.817511 0.602915 0.173721
1.000000 0.580000 0.160000
0.000000 0.817511 0.204378
0.173721 0.817511 0.173721
0.388318 0.817511 0.173721
0.602915 0.817511 0.173721
0.817511 0.817511 0.173721
1.000000 0.790000 0.160000
0.000000 1.000000 0.200000
0.160000 1.000000 0.160000
0.370000 1.000000 0.160000
0.580000 1.000000 0.160000
0.790000 1.000000 0.160000
1.000000 1.000000 0.160000
0.000000 0.000000 0.391173
0.195587 0.000000 0.391173
0.391173 0.000000 0.391173
0.608827 0.000000 0.405885
0.817511 0.000000 0.408756
1.000000 0.000000 0.400000
0.000000 0.195587 0.391173
0.185807 0.185807 0.391173
0.391173 0.185807 0.391173
0.608827 0.182648 0.395737
0.817511 0.173721 0.388318
1.000000 0.160000 0.370000
0.000000 0.391173 0.391173
0.185807 0.391173 0.391173
0.391173 0.391173 0.391173
0.608827 0.395737 0.395737
0.817511 0.388318 0.388318
1.000000 0.370000 0.370000
0.000000 0.608827 0.405885
0.182648 0.608827 0.395737
0.395737 0.608827 0.395737
0.608827 0.608827 0.395737
0.817511 0.602915 0.388318
1.000000 0.580000 0.370000
0.000000 0.817511 0.408756
0.173721 0.817511 0.388318
0.388318 0.817511 0.388318
0.602915 0.817511 0.388318
0.817511 0.817511 0.388318
1.000000 0.790000 0.370000
0.000000 1.000000 0.400000
0.160000 1.000000 0.370000
0.370000 1.000000 0.370000
0.580000 1.000000 0.370000
0.790000 1.000000 0.370000
1.000000 1.000000 0.370000
0.000000 0.000000 0.608827
0.202942 0.000000 0.608827
0.405885 0.000000 0.608827
0.608827 0.000000 0.608827
0.817511 0.000000 0.613133
1.000000 0.000000 0.600000
0.000000 0.202942 0.608827
0.182648 0.182648 0.608827
0.395737 0.182648 0.608827
0.608827 0.182648 0.608827
0.817511 0.173721 0.602915
1.000000 0.160000 0.580000
0.000000 0.405885 0.608827
0.182648 0.395737 0.608827
0.395737 0.395737 0.608827
0.608827 0.395737 0.608827
0.817511 0.388318 0.602915
1.000000 0.370000 0.580000
0.000000 0.608827 0.608827
0.182648 0.608827 0.608827
0.395737 0.608827 0.608827
0.608827 0.608827 0.608827
0.817511 0.602915 0.602915
1.000000 0.580000 0.580000
0.000000 0.817511 0.613133
0.173721 0.817511 0.602915
0.388318 0.817511 0.602915
0.602915 0.817511 0.602915
0.817511 0.817511 0.602915
1.000000 0.790000 0.580000
0.000000 1.000000 0.600000
0.160000 1.000000 0.580000
0.370000 1.000000 0.580000
0.580000 1.000000 0.580000
0.790000 1.000000 0.580000
1.000000 1.000000 0.580000
0.000000 0.000000 0.817511
0.204378 0.000000 0.817511
0.408756 0.000000 0.817511
0.613133 0.000000 0.817511
0.817511 0.000000 0.817511
1.000000 0.000000 0.800000
0.000000 0.204378 0.817511
0.173721 0.173721 0.817511
0.388318 0.173721 0.817511
0.602915 0.173721 0.817511
0.817511 0.173721 0.817511
1.000000 0.160000 0.790000
0.000000 0.408756 0.817511
0.173721 0.388318 0.817511
0.388318 0.388318 0.817511
0.602915 0.388318 0.817511
0.817511 0.388318 0.817511
1.000000 0.370000 0.790000
0.000000 0.613133 0.817511
0.173721 0.602915 0.817511
0.388318 0.602915 0.817511
0.602915 0.602915 0.817511
0.817511 0.602915 0.817511
1.000000 0.580000 0.790000
0.000000 0.817511 0.817511
0.173721 0.817511 0.817511
0.388318 0.817511 0.817511
0.602915 0.817511 0.817511
0.817511 0.817511 0.817511
1.000000 0.790000 0.790000
0.000000 1.000000 0.800000
0.160000 1.000000 0.790000
0.370000 1.000000 0.790000
0.580000 1.000000 0.790000
0.790000 1.000000 0.790000
1.000000 1.000000 0.790000
0.000000 0.000000 1.000000
0.200000 0.000000 1.000000
0.400000 0.000000 1.000000
0.600000 0.000000 1.000000
0.800000 0.000000 1.000000
1.000000 0.000000 1.000000
0.000000 0.200000 1.000000
0.160000 0.160000 1.000000
0.370000 0.160000 1.000000
0.580000 0.160000 1.000000
0.790000 0.160000 1.000000
1.000000 0.160000 1.000000
0.000000 0.400000 1.000000
0.160000 0.370000 1.000000
0.370000 0.370000 1.000000
0.580000 0.370000 1.000000
0.790000 0.370000 1.000000
1.000000 0.370000 1.000000
0.000000 0.600000 1.000000
0.160000 0.580000 1.000000
0.370000 0.580000 1.000000
0.580000 0.580000 1.000000
0.790000 0.580000 1.000000
1.000000 0.580000 1.000000
0.000000 0.800000 1.000000
0.160000 0.790000 1.000000
0.370000 0.790000 1.000000
0.580000 0.790000 1.000000
0.790000 0.790000 1.000000
1.000000 0.790000 1.000000
0.000000 1.000000 1.000000
0.160000 1.000000 1.000000
0.370000 1.000000 1.000000
0.580000 1.000000 1.000000
0.790000 1.000000 1.000000
1.000000 1.000000 1.000000
