built_in_luts/Fuji_Provia_Standard.cube
TITLE "Fuji_Provia_Standard"
LUT_3D_SIZE 16
0.000000 0.000000 0.000000
0.054501 0.000000 0.000000
0.116825 0.000000 0.000000
0.182489 0.000000 0.000000
0.250420 0.000000 0.000000
0.320088 0.000000 0.000000
0.391173 0.000000 0.000000
0.463458 0.000000 0.000000
0.536542 0.000000 0.000000
0.608827 0.000000 0.000000
0.679912 0.000000 0.000000
0.749580 0.000000 0.000000
0.817511 0.000000 0.000000
0.883175 0.000000 0.000000
0.945499 0.000000 0.000000
1.000000 0.000000 0.000000
0.000000 0.054501 0.000000
0.054501 0.054501 0.000000
0.116825 0.058412 0.000000
0.182489 0.060830 0.000000
0.250420 0.062605 0.000000
0.320088 0.064018 0.000000
0.391173 0.065196 0.000000
0.463458 0.066208 0.000000
0.536542 0.067068 0.000000
0.608827 0.067647 0.000000
0.679912 0.067991 0.000000
0.749580 0.068144 0.000000
0.817511 0.068126 0.000000
0.883175 0.067937 0.000000
0.945499 0.067536 0.000000
1.000000 0.066667 0.000000
0.000000 0.116825 0.000000
0.058412 0.116825 0.000000
0.116825 0.116825 0.000000
0.182489 0.121659 0.000000
0.250420 0.125210 0.000000
0.320088 0.128035 0.000000
0.391173 0.130391 0.000000
0.463458 0.132417 0.000000
0.536542 0.134135 0.000000
0.608827 0.135295 0.000000
0.679912 0.135982 0.000000
0.749580 0.136287 0.000000
0.817511 0.136252 0.000000
0.883175 0.135873 0.000000
0.945499 0.135071 0.000000
1.000000 0.133333 0.000000
0.000000 0.182489 0.000000
0.060830 0.182489 0.000000
0.121659 0.182489 0.000000
0.182489 0.182489 0.000000
0.250420 0.187815 0.000000
0.320088 0.192053 0.000000
0.391173 0.195587 0.000000
0.463458 0.198625 0.000000
0.536542 0.201203 0.000000
0.608827 0.202942 0.000000
0.679912 0.203974 0.000000
0.749580 0.204431 0.000000
0.817511 0.204378 0.000000
0.883175 0.203810 0.000000
0.945499 0.202607 0.000000
1.000000 0.200000 0.000000
0.000000 0.250420 0.000000
0.062605 0.250420 0.000000
0.125210 0.250420 0.000000
0.187815 0.250420 0.000000
0.250420 0.250420 0.000000
0.320088 0.256071 0.000000
0.391173 0.260782 0.000000
0.463458 0.264833 0.000000
0.536542 0.268271 0.000000
0.608827 0.270590 0.000000
0.679912 0.271965 0.000000
0.749580 0.272575 0.000000
0.817511 0.272504 0.000000
0.883175 0.271746 0.000000
0.945499 0.270143 0.000000
1.000000 0.266667 0.000000
0.000000 0.320088 0.000000
0.064018 0.320088 0.000000
0.128035 0.320088 0.000000
0.192053 0.320088 0.000000
0.256071 0.320088 0.000000
0.320088 0.320088 0.000000
0.391173 0.325978 0.000000
0.463458 0.331041 0.000000
0.536542 0.335339 0.000000
0.608827 0.338237 0.000000
0.679912 0.339956 0.000000
0.749580 0.340718 0.000000
0.817511 0.340630 0.000000
0.883175 0.339683 0.000000
0.945499 0.337678 0.000000
1.000000 0.333333 0.000000
0.000000 0.391173 0.000000
0.065196 0.391173 0.000000
0.130391 0.391173 0.000000
0.195587 0.391173 0.000000
0.260782 0.391173 0.000000
0.325978 0.391173 0.000000
0.391173 0.391173 0.000000
0.463458 0.397250 0.000000
0.536542 0.402406 0.000000
0.608827 0.405885 0.000000
0.679912 0.407947 0.000000
0.749580 0.408862 0.000000
0.817511 0.408756 0.000000
0.883175 0.407619 0.000000
0.945499 0.405214 0.000000
1.000000 0.400000 0.000000
0.000000 0.463458 0.000000
0.066208 0.463458 0.000000
0.132417 0.463458 0.000000
0.198625 0.463458 0.000000
0.264833 0.463458 0.000000
0.331041 0.463458 0.000000
0.397250 0.463458 0.000000
0.463458 0.463458 0.000000
0.536542 0.469474 0.000000
0.608827 0.473532 0.000000
0.679912 0.475938 0.000000
0.749580 0.477006 0.000000
0.817511 0.476882 0.000000
0.883175 0.475556 0.000000
0.945499 0.472750 0.000000
1.000000 0.466667 0.000000
0.000000 0.536542 0.000000
0.067068 0.536542 0.000000
0.134135 0.536542 0.000000
0.201203 0.536542 0.000000
0.268271 0.536542 0.000000
0.335339 0.536542 0.000000
0.402406 0.536542 0.000000
0.469474 0.536542 0.000000
0.536542 0.536542 0.000000
0.608827 0.541179 0.000000
0.679912 0.543929 0.000000
0.749580 0.545149 0.000000
0.817511 0.545008 0.000000
0.883175 0.543492 0.000000
0.945499 0.540285 0.000000
1.000000 0.533333 0.000000
0.000000 0.608827 0.000000
0.067647 0.608827 0.000000
0.135295 0.608827 0.000000
0.202942 0.608827 0.000000
0.270590 0.608827 0.000000
0.338237 0.608827 0.000000
0.405885 0.608827 0.000000
0.473532 0.608827 0.000000
0.541179 0.608827 0.000000
0.608827 0.608827 0.000000
0.679912 0.611921 0.000000
0.749580 0.613293 0.000000
0.817511 0.613133 0.000000
0.883175 0.611429 0.000000
0.945499 0.607821 0.000000
1.000000 0.600000 0.000000
0.000000 0.679912 0.000000
0.067991 0.679912 0.000000
0.135982 0.679912 0.000000
0.203974 0.679912 0.000000
0.271965 0.679912 0.000000
0.339956 0.679912 0.000000
0.407947 0.679912 0.000000
0.475938 0.679912 0.000000
0.543929 0.679912 0.000000
0.611921 0.679912 0.000000
0.679912 0.679912 0.000000
0.749580 0.681437 0.000000
0.817511 0.681259 0.000000
0.883175 0.679365 0.000000
0.945499 0.675357 0.000000
1.000000 0.666667 0.000000
0.000000 0.749580 0.000000
0.068144 0.749580 0.000000
0.136287 0.749580 0.000000
0.204431 0.749580 0.000000
0.272575 0.749580 0.000000
0.340718 0.749580 0.000000
0.408862 0.749580 0.000000
0.477006 0.749580 0.000000
0.545149 0.749580 0.000000
0.613293 0.749580 0.000000
0.681437 0.749580 0.000000
0.749580 0.749580 0.000000
0.817511 0.749385 0.000000
0.883175 0.747302 0.000000
0.945499 0.742892 0.000000
1.000000 0.733333 0.000000
0.000000 0.817511 0.000000
0.068126 0.817511 0.000000
0.136252 0.817511 0.000000
0.204378 0.817511 0.000000
0.272504 0.817511 0.000000
0.340630 0.817511 0.000000
0.408756 0.817511 0.000000
0.476882 0.817511 0.000000
0.545008 0.817511 0.000000
0.613133 0.817511 0.000000
0.681259 0.817511 0.000000
0.749385 0.817511 0.000000
0.817511 0.817511 0.000000
0.883175 0.815239 0.000000
0.945499 0.810428 0.000000
1.000000 0.800000 0.000000
0.000000 0.883175 0.000000
0.067937 0.883175 0.000000
0.135873 0.883175 0.000000
0.203810 0.883175 0.000000
0.271746 0.883175 0.000000
0.339683 0.883175 0.000000
0.407619 0.883175 0.000000
0.475556 0.883175 0.000000
0.543492 0.883175 0.000000
0.611429 0.883175 0.000000
0.679365 0.883175 0.000000
0.747302 0.883175 0.000000
0.815239 0.883175 0.000000
0.883175 0.883175 0.000000
0.945499 0.877964 0.000000
1.000000 0.866667 0.000000
0.000000 0.945499 0.000000
0.067536 0.945499 0.000000
0.135071 0.945499 0.000000
0.202607 0.945499 0.000000
0.270143 0.945499 0.000000
0.337678 0.945499 0.000000
0.405214 0.945499 0.000000
0.472750 0.945499 0.000000
0.540285 0.945499 0.000000
0.607821 0.945499 0.000000
0.675357 0.945499 0.000000
0.742892 0.945499 0.000000
0.810428 0.945499 0.000000
0.877964 0.945499 0.000000
0.945499 0.945499 0.000000
1.000000 0.933333 0.000000
0.000000 1.000000 0.000000
0.066667 1.000000 0.000000
0.133333 1.000000 0.000000
0.200000 1.000000 0.000000
0.266667 1.000000 0.000000
0.333333 1.000000 0.000000
0.400000 1.000000 0.000000
0.466667 1.000000 0.000000
0.533333 1.000000 0.000000
0.600000 1.000000 0.000000
0.666667 1.000000 0.000000
0.733333 1.000000 0.000000
0.800000 1.000000 0.000000
0.866667 1.000000 0.000000
0.933333 1.000000 0.000000
1.000000 1.000000 0.000000
0.000000 0.000000 0.054501
0.054501 0.000000 0.054501
0.116825 0.000000 0.058412
0.182489 0.000000 0.060830
0.250420 0.000000 0.062605
0.320088 0.000000 0.064018
0.391173 0.000000 0.065196
0.463458 0.000000 0.066208
0.536542 0.000000 0.067068
0.608827 0.000000 0.067647
0.679912 0.000000 0.067991
0.749580 0.000000 0.068144
0.817511 0.000000 0.068126
0.883175 0.000000 0.067937
0.945499 0.000000 0.067536
1.000000 0.000000 0.066667
0.000000 0.054501 0.054501
0.054501 0.054501 0.054501
0.116825 0.055492 0.055492
0.182489 0.054747 0.054747
0.250420 0.053214 0.053214
0.320088 0.051214 0.051214
0.391173 0.048897 0.048897
0.463458 0.046346 0.046346
0.536542 0.043594 0.043594
0.608827 0.040588 0.040588
0.679912 0.037395 0.037395
0.749580 0.034072 0.034072
0.817511 0.030657 0.030657
0.883175 0.027175 0.027175
0.945499 0.023637 0.023637
1.000000 0.020000 0.020000
0.000000 0.116825 0.058412
0.055492 0.116825 0.055492
0.116825 0.116825 0.055492
0.182489 0.118618 0.054747
0.250420 0.118949 0.053214
0.320088 0.118433 0.051214
0.391173 0.117352 0.048897
0.463458 0.115865 0.046346
0.536542 0.114015 0.043594
0.608827 0.111618 0.040588
0.679912 0.108786 0.037395
0.749580 0.105623 0.034072
0.817511 0.102189 0.030657
0.883175 0.098508 0.027175
0.945499 0.094550 0.023637
1.000000 0.090000 0.020000
0.000000 0.182489 0.060830
0.054747 0.182489 0.054747
0.118618 0.182489 0.054747
0.182489 0.182489 0.054747
0.250420 0.184685 0.053214
0.320088 0.185651 0.051214
0.391173 0.185807 0.048897
0.463458 0.185383 0.046346
0.536542 0.184436 0.043594
0.608827 0.182648 0.040588
0.679912 0.180177 0.037395
0.749580 0.177174 0.034072
0.817511 0.173721 0.030657
0.883175 0.169841 0.027175
0.945499 0.165462 0.023637
1.000000 0.160000 0.020000
0.000000 0.250420 0.062605
0.053214 0.250420 0.053214
0.118949 0.250420 0.053214
0.184685 0.250420 0.053214
0.250420 0.250420 0.053214
0.320088 0.252870 0.051214
0.391173 0.254263 0.048897
0.463458 0.254902 0.046346
0.536542 0.254857 0.043594
0.608827 0.253678 0.040588
0.679912 0.251567 0.037395
0.749580 0.248724 0.034072
0.817511 0.245253 0.030657
0.883175 0.241175 0.027175
0.945499 0.236375 0.023637
1.000000 0.230000 0.020000
0.000000 0.320088 0.064018
0.051214 0.320088 0.051214
0.118433 0.320088 0.051214
0.185651 0.320088 0.051214
0.252870 0.320088 0.051214
0.320088 0.320088 0.051214
0.391173 0.322718 0.048897
0.463458 0.324421 0.046346
0.536542 0.325279 0.043594
0.608827 0.324708 0.040588
0.679912 0.322958 0.037395
0.749580 0.320275 0.034072
0.817511 0.316786 0.030657
0.883175 0.312508 0.027175
0.945499 0.307287 0.023637
1.000000 0.300000 0.020000
0.000000 0.391173 0.065196
0.048897 0.391173 0.048897
0.117352 0.391173 0.048897
0.185807 0.391173 0.048897
0.254263 0.391173 0.048897
0.322718 0.391173 0.048897
0.391173 0.391173 0.048897
0.463458 0.393939 0.046346
0.536542 0.395700 0.043594
0.608827 0.395737 0.040588
0.679912 0.394349 0.037395
0.749580 0.391826 0.034072
0.817511 0.388318 0.030657
0.883175 0.383841 0.027175
0.945499 0.378200 0.023637
1.000000 0.370000 0.020000
0.000000 0.463458 0.066208
0.046346 0.463458 0.046346
0.115865 0.463458 0.046346
0.185383 0.463458 0.046346
0.254902 0.463458 0.046346
0.324421 0.463458 0.046346
0.393939 0.463458 0.046346
0.463458 0.463458 0.046346
0.536542 0.466121 0.043594
0.608827 0.466767 0.040588
0.679912 0.465740 0.037395
0.749580 0.463377 0.034072
0.817511 0.459850 0.030657
0.883175 0.455175 0.027175
0.945499 0.449112 0.023637
1.000000 0.440000 0.020000
0.000000 0.536542 0.067068
0.043594 0.536542 0.043594
0.114015 0.536542 0.043594
0.184436 0.536542 0.043594
0.254857 0.536542 0.043594
0.325279 0.536542 0.043594
0.395700 0.536542 0.043594
0.466121 0.536542 0.043594
0.536542 0.536542 0.043594
0.608827 0.537797 0.040588
0.679912 0.537130 0.037395
0.749580 0.534928 0.034072
0.817511 0.531382 0.030657
0.883175 0.526508 0.027175
0.945499 0.520025 0.023637
1.000000 0.510000 0.020000
0.000000 0.608827 0.067647
0.040588 0.608827 0.040588
0.111618 0.608827 0.040588
0.182648 0.608827 0.040588
0.253678 0.608827 0.040588
0.324708 0.608827 0.040588
0.395737 0.608827 0.040588
0.466767 0.608827 0.040588
0.537797 0.608827 0.040588
0.608827 0.608827 0.040588
0.679912 0.608521 0.037395
0.749580 0.606479 0.034072
0.817511 0.602915 0.030657
0.883175 0.597842 0.027175
0.945499 0.590937 0.023637
1.000000 0.580000 0.020000
0.000000 0.679912 0.067991
0.037395 0.679912 0.037395
0.108786 0.679912 0.037395
0.180177 0.679912 0.037395
0.251567 0.679912 0.037395
0.322958 0.679912 0.037395
0.394349 0.679912 0.037395
0.465740 0.679912 0.037395
0.537130 0.679912 0.037395
0.608521 0.679912 0.037395
0.679912 0.679912 0.037395
0.749580 0.678029 0.034072
0.817511 0.674447 0.030657
0.883175 0.669175 0.027175
0.945499 0.661849 0.023637
1.000000 0.650000 0.020000
0.000000 0.749580 0.068144
0.034072 0.749580 0.034072
0.105623 0.749580 0.034072
0.177174 0.749580 0.034072
0.248724 0.749580 0.034072
0.320275 0.749580 0.034072
0.391826 0.749580 0.034072
0.463377 0.749580 0.034072
0.534928 0.749580 0.034072
0.606479 0.749580 0.034072
0.678029 0.749580 0.034072
0.749580 0.749580 0.034072
0.817511 0.745979 0.030657
0.883175 0.740508 0.027175
0.945499 0.732762 0.023637
1.000000 0.720000 0.020000
0.000000 0.817511 0.068126
0.030657 0.817511 0.030657
0.102189 0.817511 0.030657
0.173721 0.817511 0.030657
0.245253 0.817511 0.030657
0.316786 0.817511 0.030657
0.388318 0.817511 0.030657
0.459850 0.817511 0.030657
0.531382 0.817511 0.030657
0.602915 0.817511 0.030657
0.674447 0.817511 0.030657
0.745979 0.817511 0.030657
0.817511 0.817511 0.030657
0.883175 0.811842 0.027175
0.945499 0.803674 0.023637
1.000000 0.790000 0.020000
0.000000 0.883175 0.067937
0.027175 0.883175 0.027175
0.098508 0.883175 0.027175
0.169841 0.883175 0.027175
0.241175 0.883175 0.027175
0.312508 0.883175 0.027175
0.383841 0.883175 0.027175
0.455175 0.883175 0.027175
0.526508 0.883175 0.027175
0.597842 0.883175 0.027175
0.669175 0.883175 0.027175
0.740508 0.883175 0.027175
0.811842 0.883175 0.027175
0.883175 0.883175 0.027175
0.945499 0.874587 0.023637
1.000000 0.860000 0.020000
0.000000 0.945499 0.067536
0.023637 0.945499 0.023637
0.094550 0.945499 0.023637
0.165462 0.945499 0.023637
0.236375 0.945499 0.023637
0.307287 0.945499 0.023637
0.378200 0.945499 0.023637
0.449112 0.945499 0.023637
0.520025 0.945499 0.023637
0.590937 0.945499 0.023637
0.661849 0.945499 0.023637
0.732762 0.945499 0.023637
0.803674 0.945499 0.023637
0.874587 0.945499 0.023637
0.945499 0.945499 0.023637
1.000000 0.930000 0.020000
0.000000 1.000000 0.066667
0.020000 1.000000 0.020000
0.090000 1.000000 0.020000
0.160000 1.000000 0.020000
0.230000 1.000000 0.020000
0.300000 1.000000 0.020000
0.370000 1.000000 0.020000
0.440000 1.000000 0.020000
0.510000 1.000000 0.020000
0.580000 1.000000 0.020000
0.650000 1.000000 0.020000
0.720000 1.000000 0.020000
0.790000 1.000000 0.020000
0.860000 1.000000 0.020000
0.930000 1.000000 0.020000
1.000000 1.000000 0.020000
0.000000 0.000000 0.116825
0.058412 0.000000 0.116825
0.116825 0.000000 0.116825
0.182489 0.000000 0.121659
0.250420 0.000000 0.125210
0.320088 0.000000 0.128035
0.391173 0.000000 0.130391
0.463458 0.000000 0.132417
0.536542 0.000000 0.134135
0.608827 0.000000 0.135295
0.679912 0.000000 0.135982
0.749580 0.000000 0.136287
0.817511 0.000000 0.136252
0.883175 0.000000 0.135873
0.945499 0.000000 0.135071
1.000000 0.000000 0.133333
0.000000 0.058412 0.116825
0.055492 0.055492 0.116825
0.116825 0.055492 0.116825
0.182489 0.054747 0.118618
0.250420 0.053214 0.118949
0.320088 0.051214 0.118433
0.391173 0.048897 0.117352
0.463458 0.046346 0.115865
0.536542 0.043594 0.114015
0.608827 0.040588 0.111618
0.679912 0.037395 0.108786
0.749580 0.034072 0.105623
0.817511 0.030657 0.102189
0.883175 0.027175 0.098508
0.945499 0.023637 0.094550
1.000000 0.020000 0.090000
0.000000 0.116825 0.116825
0.055492 0.116825 0.116825
0.116825 0.116825 0.116825
0.182489 0.118618 0.118618
0.250420 0.118949 0.118949
0.320088 0.118433 0.118433
0.391173 0.117352 0.117352
0.463458 0.115865 0.115865
0.536542 0.114015 0.114015
0.608827 0.111618 0.111618
0.679912 0.108786 0.108786
0.749580 0.105623 0.105623
0.817511 0.102189 0.102189
0.883175 0.098508 0.098508
0.945499 0.094550 0.094550
1.000000 0.090000 0.090000
0.000000 0.182489 0.121659
0.054747 0.182489 0.118618
0.118618 0.182489 0.118618
0.182489 0.182489 0.118618
0.250420 0.184685 0.118949
0.320088 0.185651 0.118433
0.391173 0.185807 0.117352
0.463458 0.185383 0.115865
0.536542 0.184436 0.114015
0.608827 0.182648 0.111618
0.679912 0.180177 0.108786
0.749580 0.177174 0.105623
0.817511 0.173721 0.102189
0.883175 0.169841 0.098508
0.945499 0.165462 0.094550
1.000000 0.160000 0.090000
0.000000 0.250420 0.125210
0.053214 0.250420 0.118949
0.118949 0.250420 0.118949
0.184685 0.250420 0.118949
0.250420 0.250420 0.118949
0.320088 0.252870 0.118433
0.391173 0.254263 0.117352
0.463458 0.254902 0.115865
0.536542 0.254857 0.114015
0.608827 0.253678 0.111618
0.679912 0.251567 0.108786
0.749580 0.248724 0.105623
0.817511 0.245253 0.102189
0.883175 0.241175 0.098508
0.945499 0.236375 0.094550
1.000000 0.230000 0.090000
0.000000 0.320088 0.128035
0.051214 0.320088 0.118433
0.118433 0.320088 0.118433
0.185651 0.320088 0.118433
0.252870 0.320088 0.118433
0.320088 0.320088 0.118433
0.391173 0.322718 0.117352
0.463458 0.324421 0.115865
0.536542 0.325279 0.114015
0.608827 0.324708 0.111618
0.679912 0.322958 0.108786
0.749580 0.320275 0.105623
0.817511 0.316786 0.102189
0.883175 0.312508 0.098508
0.945499 0.307287 0.094550
1.000000 0.300000 0.090000
0.000000 0.391173 0.130391
0.048897 0.391173 0.117352
0.117352 0.391173 0.117352
0.185807 0.391173 0.117352
0.254263 0.391173 0.117352
0.322718 0.391173 0.117352
0.391173 0.391173 0.117352
0.463458 0.393939 0.115865
0.536542 0.395700 0.114015
0.608827 0.395737 0.111618
0.679912 0.394349 0.108786
0.749580 0.391826 0.105623
0.817511 0.388318 0.102189
0.883175 0.383841 0.098508
0.945499 0.378200 0.094550
1.000000 0.370000 0.090000
0.000000 0.463458 0.132417
0.046346 0.463458 0.115865
0.115865 0.463458 0.115865
0.185383 0.463458 0.115865
0.254902 0.463458 0.115865
0.324421 0.463458 0.115865
0.393939 0.463458 0.115865
0.463458 0.463458 0.115865
0.536542 0.466121 0.114015
0.608827 0.466767 0.111618
0.679912 0.465740 0.108786
0.749580 0.463377 0.105623
0.817511 0.459850 0.102189
0.883175 0.455175 0.098508
0.945499 0.449112 0.094550
1.000000 0.440000 0.090000
0.000000 0.536542 0.134135
0.043594 0.536542 0.114015
0.114015 0.536542 0.114015
0.184436 0.536542 0.114015
0.254857 0.536542 0.114015
0.325279 0.536542 0.114015
0.395700 0.536542 0.114015
0.466121 0.536542 0.114015
0.536542 0.536542 0.114015
0.608827 0.537797 0.111618
0.679912 0.537130 0.108786
0.749580 0.534928 0.105623
0.817511 0.531382 0.102189
0.883175 0.526508 0.098508
0.945499 0.520025 0.094550
1.000000 0.510000 0.090000
0.000000 0.608827 0.135295
0.040588 0.608827 0.111618
0.111618 0.608827 0.111618
0.182648 0.608827 0.111618
0.253678 0.608827 0.111618
0.324708 0.608827 0.111618
0.395737 0.608827 0.111618
0.466767 0.608827 0.111618
0.537797 0.608827 0.111618
0.608827 0.608827 0.111618
0.679912 0.608521 0.108786
0.749580 0.606479 0.105623
0.817511 0.602915 0.102189
0.883175 0.597842 0.098508
0.945499 0.590937 0.094550
1.000000 0.580000 0.090000
0.000000 0.679912 0.135982
0.037395 0.679912 0.108786
0.108786 0.679912 0.108786
0.180177 0.679912 0.108786
0.251567 0.679912 0.108786
0.322958 0.679912 0.108786
0.394349 0.679912 0.108786
0.465740 0.679912 0.108786
0.537130 0.679912 0.108786
0.608521 0.679912 0.108786
0.679912 0.679912 0.108786
0.749580 0.678029 0.105623
0.817511 0.674447 0.102189
0.883175 0.669175 0.098508
0.945499 0.661849 0.094550
1.000000 0.650000 0.090000
0.000000 0.749580 0.136287
0.034072 0.749580 0.105623
0.105623 0.749580 0.105623
0.177174 0.749580 0.105623
0.248724 0.749580 0.105623
0.320275 0.749580 0.105623
0.391826 0.749580 0.105623
0.463377 0.749580 0.105623
0.534928 0.749580 0.105623
0.606479 0.749580 0.105623
0.678029 0.749580 0.105623
0.749580 0.749580 0.105623
0.817511 0.745979 0.102189
0.883175 0.740508 0.098508
0.945499 0.732762 0.094550
1.000000 0.720000 0.090000
0.000000 0.817511 0.136252
0.030657 0.817511 0.102189
0.102189 0.817511 0.102189
0.173721 0.817511 0.102189
0.245253 0.817511 0.102189
0.316786 0.817511 0.102189
0.388318 0.817511 0.102189
0.459850 0.817511 0.102189
0.531382 0.817511 0.102189
0.602915 0.817511 0.102189
0.674447 0.817511 0.102189
0.745979 0.817511 0.102189
0.817511 0.817511 0.102189
0.883175 0.811842 0.098508
0.945499 0.803674 0.094550
1.000000 0.790000 0.090000
0.000000 0.883175 0.135873
0.027175 0.883175 0.098508
0.098508 0.883175 0.098508
0.169841 0.883175 0.098508
0.241175 0.883175 0.098508
0.312508 0.883175 0.098508
0.383841 0.883175 0.098508
0.455175 0.883175 0.098508
0.526508 0.883175 0.098508
0.597842 0.883175 0.098508
0.669175 0.883175 0.098508
0.740508 0.883175 0.098508
0.811842 0.883175 0.098508
0.883175 0.883175 0.098508
0.945499 0.874587 0.094550
1.000000 0.860000 0.090000
0.000000 0.945499 0.135071
0.023637 0.945499 0.094550
0.094550 0.945499 0.094550
0.165462 0.945499 0.094550
0.236375 0.945499 0.094550
0.307287 0.945499 0.094550
0.378200 0.945499 0.094550
0.449112 0.945499 0.094550
0.520025 0.945499 0.094550
0.590937 0.945499 0.094550
0.661849 0.945499 0.094550
0.732762 0.945499 0.094550
0.803674 0.945499 0.094550
0.874587 0.945499 0.094550
0.945499 0.945499 0.094550
1.000000 0.930000 0.090000
0.000000 1.000000 0.133333
0.020000 1.000000 0.090000
0.090000 1.000000 0.090000
0.160000 1.000000 0.090000
0.230000 1.000000 0.090000
0.300000 1.000000 0.090000
0.370000 1.000000 0.090000
0.440000 1.000000 0.090000
0.510000 1.000000 0.090000
0.580000 1.000000 0.090000
0.650000 1.000000 0.090000
0.720000 1.000000 0.090000
0.790000 1.000000 0.090000
0.860000 1.000000 0.090000
0.930000 1.000000 0.090000
1.000000 1.000000 0.090000
0.000000 0.000000 0.182489
0.060830 0.000000 0.182489
0.121659 0.000000 0.182489
0.182489 0.000000 0.182489
0.250420 0.000000 0.187815
0.320088 0.000000 0.192053
0.391173 0.000000 0.195587
0.463458 0.000000 0.198625
0.536542 0.000000 0.201203
0.608827 0.000000 0.202942
0.679912 0.000000 0.203974
0.749580 0.000000 0.204431
0.817511 0.000000 0.204378
0.883175 0.000000 0.203810
0.945499 0.000000 0.202607
1.000000 0.000000 0.200000
0.000000 0.060830 0.182489
0.054747 0.054747 0.182489
0.118618 0.054747 0.182489
0.182489 0.054747 0.182489
0.250420 0.053214 0.184685
0.320088 0.051214 0.185651
0.391173 0.048897 0.185807
0.463458 0.046346 0.185383
0.536542 0.043594 0.184436
0.608827 0.040588 0.182648
0.679912 0.037395 0.180177
0.749580 0.034072 0.177174
0.817511 0.030657 0.173721
0.883175 0.027175 0.169841
0.945499 0.023637 0.165462
1.000000 0.020000 0.160000
0.000000 0.121659 0.182489
0.054747 0.118618 0.182489
0.118618 0.118618 0.182489
0.182489 0.118618 0.182489
0.250420 0.118949 0.184685
0.320088 0.118433 0.185651
0.391173 0.117352 0.185807
0.463458 0.115865 0.185383
0.536542 0.114015 0.184436
0.608827 0.111618 0.182648
0.679912 0.108786 0.180177
0.749580 0.105623 0.177174
0.817511 0.102189 0.173721
0.883175 0.098508 0.169841
0.945499 0.094550 0.165462
1.000000 0.090000 0.160000
0.000000 0.182489 0.182489
0.054747 0.182489 0.182489
0.118618 0.182489 0.182489
0.182489 0.182489 0.182489
0.250420 0.184685 0.184685
0.320088 0.185651 0.185651
0.391173 0.185807 0.185807
0.463458 0.185383 0.185383
0.536542 0.184436 0.184436
0.608827 0.182648 0.182648
0.679912 0.180177 0.180177
0.749580 0.177174 0.177174
0.817511 0.173721 0.173721
0.883175 0.169841 0.169841
0.945499 0.165462 0.165462
1.000000 0.160000 0.160000
0.000000 0.250420 0.187815
0.053214 0.250420 0.184685
0.118949 0.250420 0.184685
0.184685 0.250420 0.184685
0.250420 0.250420 0.184685
0.320088 0.252870 0.185651
0.391173 0.254263 0.185807
0.463458 0.254902 0.185383
0.536542 0.254857 0.184436
0.608827 0.253678 0.182648
0.679912 0.251567 0.180177
0.749580 0.248724 0.177174
0.817511 0.245253 0.173721
0.883175 0.241175 0.169841
0.945499 0.236375 0.165462
1.000000 0.230000 0.160000
0.000000 0.320088 0.192053
0.051214 0.320088 0.185651
0.118433 0.320088 0.185651
0.185651 0.320088 0.185651
0.252870 0.320088 0.185651
0.320088 0.320088 0.185651
0.391173 0.322718 0.185807
0.463458 0.324421 0.185383
0.536542 0.325279 0.184436
0.608827 0.324708 0.182648
0.679912 0.322958 0.180177
0.749580 0.320275 0.177174
0.817511 0.316786 0.173721
0.883175 0.312508 0.169841
0.945499 0.307287 0.165462
1.000000 0.300000 0.160000
0.000000 0.391173 0.195587
0.048897 0.391173 0.185807
0.117352 0.391173 0.185807
0.185807 0.391173 0.185807
0.254263 0.391173 0.185807
0.322718 0.391173 0.185807
0.391173 0.391173 0.185807
0.463458 0.393939 0.185383
0.536542 0.395700 0.184436
0.608827 0.395737 0.182648
0.679912 0.394349 0.180177
0.749580 0.391826 0.177174
0.817511 0.388318 0.173721
0.883175 0.383841 0.169841
0.945499 0.378200 0.165462
1.000000 0.370000 0.160000
0.000000 0.463458 0.198625
0.046346 0.463458 0.185383
0.115865 0.463458 0.185383
0.185383 0.463458 0.185383
0.254902 0.463458 0.185383
0.324421 0.463458 0.185383
0.393939 0.463458 0.185383
