built_in_luts/Fuji_Classic_Negative_NC.cube
TITLE "Fuji_Classic_Negative_NC"
LUT_3D_SIZE 6
0.000000 0.040000 0.020000
0.104503 0.043181 0.029543
0.358824 0.047566 0.042698
0.624416 0.061085 0.062713
0.871064 0.072047 0.090118
1.000000 0.080000 0.110000
0.000000 0.186330 0.029543
0.104503 0.186330 0.029543
0.358824 0.217799 0.042698
0.624416 0.247596 0.062713
0.871064 0.261260 0.090118
1.000000 0.260000 0.110000
0.018357 0.388033 0.042698
0.188591 0.388033 0.042698
0.358824 0.388033 0.042698
0.624416 0.434107 0.062713
0.871064 0.450473 0.090118
1.000000 0.440000 0.110000
0.064883 0.620618 0.062713
0.251394 0.620618 0.062713
0.437905 0.620618 0.062713
0.624416 0.620618 0.062713
0.871064 0.639686 0.090118
1.000000 0.620000 0.110000
0.114213 0.828899 0.090118
0.303426 0.828899 0.090118
0.492638 0.828899 0.090118
0.681851 0.828899 0.090118
0.871064 0.828899 0.090118
1.000000 0.800000 0.110000
0.150000 0.980000 0.110000
0.330000 0.980000 0.110000
0.510000 0.980000 0.110000
0.690000 0.980000 0.110000
0.870000 0.980000 0.110000
1.000000 0.980000 0.110000
0.000000 0.043181 0.172692
0.104503 0.043181 0.172692
0.358824 0.047566 0.212931
0.624416 0.061085 0.249224
0.871064 0.072047 0.279331
1.000000 0.080000 0.290000
0.000000 0.186330 0.172692
0.104503 0.186330 0.172692
0.358824 0.217799 0.212931
0.624416 0.247596 0.249224
0.871064 0.261260 0.279331
1.000000 0.260000 0.290000
0.018357 0.388033 0.212931
0.188591 0.388033 0.212931
0.358824 0.388033 0.212931
0.624416 0.434107 0.249224
0.871064 0.450473 0.279331
1.000000 0.440000 0.290000
0.064883 0.620618 0.249224
0.251394 0.620618 0.249224
0.437905 0.620618 0.249224
0.624416 0.620618 0.249224
0.871064 0.639686 0.279331
1.000000 0.620000 0.290000
0.114213 0.828899 0.279331
0.303426 0.828899 0.279331
0.492638 0.828899 0.279331
0.681851 0.828899 0.279331
0.871064 0.828899 0.279331
1.000000 0.800000 0.290000
0.150000 0.980000 0.290000
0.330000 0.980000 0.290000
0.510000 0.980000 0.290000
0.690000 0.980000 0.290000
0.870000 0.980000 0.290000
1.000000 0.980000 0.290000
0.018357 0.047566 0.383165
0.188591 0.047566 0.383165
0.358824 0.047566 0.383165
0.624416 0.061085 0.435735
0.871064 0.072047 0.468544
1.000000 0.080000 0.470000
0.018357 0.217799 0.383165
0.188591 0.217799 0.383165
0.358824 0.217799 0.383165
0.624416 0.247596 0.435735
0.871064 0.261260 0.468544
1.000000 0.260000 0.470000
0.018357 0.388033 0.383165
0.188591 0.388033 0.383165
0.358824 0.388033 0.383165
0.624416 0.434107 0.435735
0.871064 0.450473 0.468544
1.000000 0.440000 0.470000
0.064883 0.620618 0.435735
0.251394 0.620618 0.435735
0.437905 0.620618 0.435735
0.624416 0.620618 0.435735
0.871064 0.639686 0.468544
1.000000 0.620000 0.470000
0.114213 0.828899 0.468544
0.303426 0.828899 0.468544
0.492638 0.828899 0.468544
0.681851 0.828899 0.468544
0.871064 0.828899 0.468544
1.000000 0.800000 0.470000
0.150000 0.980000 0.470000
0.330000 0.980000 0.470000
0.510000 0.980000 0.470000
0.690000 0.980000 0.470000
0.870000 0.980000 0.470000
1.000000 0.980000 0.470000
0.064883 0.061085 0.622246
0.251394 0.061085 0.622246
0.437905 0.061085 0.622246
0.624416 0.061085 0.622246
0.871064 0.072047 0.657757
1.000000 0.080000 0.650000
0.064883 0.247596 0.622246
0.251394 0.247596 0.622246
0.437905 0.247596 0.622246
0.624416 0.247596 0.622246
0.871064 0.261260 0.657757
1.000000 0.260000 0.650000
0.064883 0.434107 0.622246
0.251394 0.434107 0.622246
0.437905 0.434107 0.622246
0.624416 0.434107 0.622246
0.871064 0.450473 0.657757
1.000000 0.440000 0.650000
0.064883 0.620618 0.622246
0.251394 0.620618 0.622246
0.437905 0.620618 0.622246
0.624416 0.620618 0.622246
0.871064 0.639686 0.657757
1.000000 0.620000 0.650000
0.114213 0.828899 0.657757
0.303426 0.828899 0.657757
0.492638 0.828899 0.657757
0.681851 0.828899 0.657757
0.871064 0.828899 0.657757
1.000000 0.800000 0.650000
0.150000 0.980000 0.650000
0.330000 0.980000 0.650000
0.510000 0.980000 0.650000
0.690000 0.980000 0.650000
0.870000 0.980000 0.650000
1.000000 0.980000 0.650000
0.114213 0.072047 0.846970
0.303426 0.072047 0.846970
0.492638 0.072047 0.846970
0.681851 0.072047 0.846970
0.871064 0.072047 0.846970
1.000000 0.080000 0.830000
0.114213 0.261260 0.846970
0.303426 0.261260 0.846970
0.492638 0.261260 0.846970
0.681851 0.261260 0.846970
0.871064 0.261260 0.846970
1.000000 0.260000 0.830000
0.114213 0.450473 0.846970
0.303426 0.450473 0.846970
0.492638 0.450473 0.846970
0.681851 0.450473 0.846970
0.871064 0.450473 0.846970
1.000000 0.440000 0.830000
0.114213 0.639686 0.846970
0.303426 0.639686 0.846970
0.492638 0.639686 0.846970
0.681851 0.639686 0.846970
0.871064 0.639686 0.846970
1.000000 0.620000 0.830000
0.114213 0.828899 0.846970
0.303426 0.828899 0.846970
0.492638 0.828899 0.846970
0.681851 0.828899 0.846970
0.871064 0.828899 0.846970
1.000000 0.800000 0.830000
0.150000 0.980000 0.830000
0.330000 0.980000 0.830000
0.510000 0.980000 0.830000
0.690000 0.980000 0.830000
0.870000 0.980000 0.830000
1.000000 0.980000 0.830000
0.150000 0.080000 1.000000
0.330000 0.080000 1.000000
0.510000 0.080000 1.000000
0.690000 0.080000 1.000000
0.870000 0.080000 1.000000
1.000000 0.080000 1.000000
0.150000 0.260000 1.000000
0.330000 0.260000 1.000000
0.510000 0.260000 1.000000
0.690000 0.260000 1.000000
0.870000 0.260000 1.000000
1.000000 0.260000 1.000000
0.150000 0.440000 1.000000
0.330000 0.440000 1.000000
0.510000 0.440000 1.000000
0.690000 0.440000 1.000000
0.870000 0.440000 1.000000
1.000000 0.440000 1.000000
0.150000 0.620000 1.000000
0.330000 0.620000 1.000000
0.510000 0.620000 1.000000
0.690000 0.620000 1.000000
0.870000 0.620000 1.000000
1.000000 0.620000 1.000000
0.150000 0.800000 1.000000
0.330000 0.800000 1.000000
0.510000 0.800000 1.000000
0.690000 0.800000 1.000000
0.870000 0.800000 1.000000
1.000000 0.800000 1.000000
0.150000 0.980000 1.000000
0.330000 0.980000 1.000000
0.510000 0.980000 1.000000
0.690000 0.980000 1.000000
0.870000 0.980000 1.000000
1.000000 0.980000 1.000000
