dist/CUBE-to-XMP/_internal/built_in_luts/Fuji_Monochrome.cube
TITLE "Fuji_Monochrome"
LUT_3D_SIZE 16
0.000000 0.000000 0.000000
0.049278 0.049278 0.049278
0.109354 0.109354 0.109354
0.174317 0.174317 0.174317
0.242671 0.242671 0.242671
0.313664 0.313664 0.313664
0.386833 0.386833 0.386833
0.461862 0.461862 0.461862
0.538138 0.538138 0.538138
0.613167 0.613167 0.613167
0.686336 0.686336 0.686336
0.757329 0.757329 0.757329
0.825683 0.825683 0.825683
0.890646 0.890646 0.890646
0.950722 0.950722 0.950722
1.000000 1.000000 1.000000
0.049278 0.049278 0.049278
0.049278 0.049278 0.049278
0.109354 0.109354 0.109354
0.174317 0.174317 0.174317
0.242671 0.242671 0.242671
0.313664 0.313664 0.313664
0.386833 0.386833 0.386833
0.461862 0.461862 0.461862
0.538138 0.538138 0.538138
0.613167 0.613167 0.613167
0.686336 0.686336 0.686336
0.757329 0.757329 0.757329
0.825683 0.825683 0.825683
0.890646 0.890646 0.890646
0.950722 0.950722 0.950722
1.000000 1.000000 1.000000
0.109354 0.109354 0.109354
0.109354 0.109354 0.109354
0.109354 0.109354 0.109354
0.174317 0.174317 0.174317
0.242671 0.242671 0.242671
0.313664 0.313664 0.313664
0.386833 0.386833 0.386833
0.461862 0.461862 0.461862
0.538138 0.538138 0.538138
0.613167 0.613167 0.613167
0.686336 0.686336 0.686336
0.757329 0.757329 0.757329
0.825683 0.825683 0.825683
0.890646 0.890646 0.890646
0.950722 0.950722 0.950722
1.000000 1.000000 1.000000
0.174317 0.174317 0.174317
0.174317 0.174317 0.174317
0.174317 0.174317 0.174317
0.174317 0.174317 0.174317
0.242671 0.242671 0.242671
0.313664 0.313664 0.313664
0.386833 0.386833 0.386833
0.461862 0.461862 0.461862
0.538138 0.538138 0.538138
0.613167 0.613167 0.613167
0.686336 0.686336 0.686336
0.757329 0.757329 0.757329
0.825683 0.825683 0.825683
0.890646 0.890646 0.890646
0.950722 0.950722 0.950722
1.000000 1.000000 1.000000
0.242671 0.242671 0.242671
0.242671 0.242671 0.242671
0.242671 0.242671 0.242671
0.242671 0.242671 0.242671
0.242671 0.242671 0.242671
0.313664 0.313664 0.313664
0.386833 0.386833 0.386833
0.461862 0.461862 0.461862
0.538138 0.538138 0.538138
0.613167 0.613167 0.613167
0.686336 0.686336 0.686336
0.757329 0.757329 0.757329
0.825683 0.825683 0.825683
0.890646 0.890646 0.890646
0.950722 0.950722 0.950722
1.000000 1.000000 1.000000
0.313664 0.313664 0.313664
0.313664 0.313664 0.313664
0.313664 0.313664 0.313664
0.313664 0.313664 0.313664
0.313664 0.313664 0.313664
0.313664 0.313664 0.313664
0.386833 0.386833 0.386833
0.461862 0.461862 0.461862
0.538138 0.538138 0.538138
0.613167 0.613167 0.613167
0.686336 0.686336 0.686336
0.757329 0.757329 0.757329
0.825683 0.825683 0.825683
0.890646 0.890646 0.890646
0.950722 0.950722 0.950722
1.000000 1.000000 1.000000
0.386833 0.386833 0.386833
0.386833 0.386833 0.386833
0.386833 0.386833 0.386833
0.386833 0.386833 0.386833
0.386833 0.386833 0.386833
0.386833 0.386833 0.386833
0.386833 0.386833 0.386833
0.461862 0.461862 0.461862
0.538138 0.538138 0.538138
0.613167 0.613167 0.613167
0.686336 0.686336 0.686336
0.757329 0.757329 0.757329
0.825683 0.825683 0.825683
0.890646 0.890646 0.890646
0.950722 0.950722 0.950722
1.000000 1.000000 1.000000
0.461862 0.461862 0.461862
0.461862 0.461862 0.461862
0.461862 0.461862 0.461862
0.461862 0.461862 0.461862
0.461862 0.461862 0.461862
0.461862 0.461862 0.461862
0.461862 0.461862 0.461862
0.461862 0.461862 0.461862
0.538138 0.538138 0.538138
0.613167 0.613167 0.613167
0.686336 0.686336 0.686336
0.757329 0.757329 0.757329
0.825683 0.825683 0.825683
0.890646 0.890646 0.890646
0.950722 0.950722 0.950722
1.000000 1.000000 1.000000
0.538138 0.538138 0.538138
0.538138 0.538138 0.538138
0.538138 0.538138 0.538138
0.538138 0.538138 0.538138
0.538138 0.538138 0.538138
0.538138 0.538138 0.538138
0.538138 0.538138 0.538138
0.538138 0.538138 0.538138
0.538138 0.538138 0.538138
0.613167 0.613167 0.613167
0.686336 0.686336 0.686336
0.757329 0.757329 0.757329
0.825683 0.825683 0.825683
0.890646 0.890646 0.890646
0.950722 0.950722 0.950722
1.000000 1.000000 1.000000
0.613167 0.613167 0.613167
0.613167 0.613167 0.613167
0.613167 0.613167 0.613167
0.613167 0.613167 0.613167
0.613167 0.613167 0.613167
0.613167 0.613167 0.613167
0.613167 0.613167 0.613167
0.613167 0.613167 0.613167
0.613167 0.613167 0.613167
0.613167 0.613167 0.613167
0.686336 0.686336 0.686336
0.757329 0.757329 0.757329
0.825683 0.825683 0.825683
0.890646 0.890646 0.890646
0.950722 0.950722 0.950722
1.000000 1.000000 1.000000
0.686336 0.686336 0.686336
0.686336 0.686336 0.686336
0.686336 0.686336 0.686336
0.686336 0.686336 0.686336
0.686336 0.686336 0.686336
0.686336 0.686336 0.686336
0.686336 0.686336 0.686336
0.686336 0.686336 0.686336
0.686336 0.686336 0.686336
0.686336 0.686336 0.686336
0.686336 0.686336 0.686336
0.757329 0.757329 0.757329
0.825683 0.825683 0.825683
0.890646 0.890646 0.890646
0.950722 0.950722 0.950722
1.000000 1.000000 1.000000
0.757329 0.757329 0.757329
0.757329 0.757329 0.757329
0.757329 0.757329 0.757329
0.757329 0.757329 0.757329
0.757329 0.757329 0.757329
0.757329 0.757329 0.757329
0.757329 0.757329 0.757329
0.757329 0.757329 0.757329
0.757329 0.757329 0.757329
0.757329 0.757329 0.757329
0.757329 0.757329 0.757329
0.757329 0.757329 0.757329
0.825683 0.825683 0.825683
0.890646 0.890646 0.890646
0.950722 0.950722 0.950722
1.000000 1.000000 1.000000
0.825683 0.825683 0.825683
0.825683 0.825683 0.825683
0.825683 0.825683 0.825683
0.825683 0.825683 0.825683
0.825683 0.825683 0.825683
0.825683 0.825683 0.825683
0.825683 0.825683 0.825683
0.825683 0.825683 0.825683
0.825683 0.825683 0.825683
0.825683 0.825683 0.825683
0.825683 0.825683 0.825683
0.825683 0.825683 0.825683
0.825683 0.825683 0.825683
0.890646 0.890646 0.890646
0.950722 0.950722 0.950722
1.000000 1.000000 1.000000
0.890646 0.890646 0.890646
0.890646 0.890646 0.890646
0.890646 0.890646 0.890646
0.890646 0.890646 0.890646
0.890646 0.890646 0.890646
0.890646 0.890646 0.890646
0.890646 0.890646 0.890646
0.890646 0.890646 0.890646
0.890646 0.890646 0.890646
0.890646 0.890646 0.890646
0.890646 0.890646 0.890646
0.890646 0.890646 0.890646
0.890646 0.890646 0.890646
0.890646 0.890646 0.890646
0.950722 0.950722 0.950722
1.000000 1.000000 1.000000
0.950722 0.950722 0.950722
0.950722 0.950722 0.950722
0.950722 0.950722 0.950722
0.950722 0.950722 0.950722
0.950722 0.950722 0.950722
0.950722 0.950722 0.950722
0.950722 0.950722 0.950722
0.950722 0.950722 0.950722
0.950722 0.950722 0.950722
0.950722 0.950722 0.950722
0.950722 0.950722 0.950722
0.950722 0.950722 0.950722
0.950722 0.950722 0.950722
0.950722 0.950722 0.950722
0.950722 0.950722 0.950722
1.000000 1.000000 1.000000
1.000000 1.000000 1.000000
1.000000 1.000000 1.000000
1.000000 1.000000 1.000000
1.000000 1.000000 1.000000
1.000000 1.000000 1.000000
1.000000 1.000000 1.000000
1.000000 1.000000 1.000000
1.000000 1.000000 1.000000
1.000000 1.000000 1.000000
1.000000 1.000000 1.000000
1.000000 1.000000 1.000000
1.000000 1.000000 1.000000
1.000000 1.000000 1.000000
1.000000 1.000000 1.000000
1.000000 1.000000 1.000000
1.000000 1.000000 1.000000
0.049278 0.049278 0.049278
0.049278 0.049278 0.049278
0.109354 0.109354 0.109354
0.174317 0.174317 0.174317
0.242671 0.242671 0.242671
0.313664 0.313664 0.313664
0.386833 0.386833 0.386833
0.461862 0.461862 0.461862
0.538138 0.538138 0.538138
0.613167 0.613167 0.613167
0.686336 0.686336 0.686336
0.757329 0.757329 0.757329
0.825683 0.825683 0.825683
0.890646 0.890646 0.890646
0.950722 0.950722 0.950722
1.000000 1.000000 1.000000
0.049278 0.049278 0.049278
0.049278 0.049278 0.049278
0.109354 0.109354 0.109354
0.174317 0.174317 0.174317
0.242671 0.242671 0.242671
0.313664 0.313664 0.313664
0.386833 0.386833 0.386833
0.461862 0.461862 0.461862
0.538138 0.538138 0.538138
0.613167 0.613167 0.613167
0.686336 0.686336 0.686336
0.757329 0.757329 0.757329
0.825683 0.825683 0.825683
0.890646 0.890646 0.890646
0.950722 0.950722 0.950722
1.000000 1.000000 1.000000
0.109354 0.109354 0.109354
0.109354 0.109354 0.109354
0.109354 0.109354 0.109354
0.174317 0.174317 0.174317
0.242671 0.242671 0.242671
0.313664 0.313664 0.313664
0.386833 0.386833 0.386833
0.461862 0.461862 0.461862
0.538138 0.538138 0.538138
0.613167 0.613167 0.613167
0.686336 0.686336 0.686336
0.757329 0.757329 0.757329
0.825683 0.825683 0.825683
0.890646 0.890646 0.890646
0.950722 0.950722 0.950722
1.000000 1.000000 1.000000
0.174317 0.174317 0.174317
0.174317 0.174317 0.174317
0.174317 0.174317 0.174317
0.174317 0.174317 0.174317
0.242671 0.242671 0.242671
0.313664 0.313664 0.313664
0.386833 0.386833 0.386833
0.461862 0.461862 0.461862
0.538138 0.538138 0.538138
0.613167 0.613167 0.613167
0.686336 0.686336 0.686336
0.757329 0.757329 0.757329
0.825683 0.825683 0.825683
0.890646 0.890646 0.890646
0.950722 0.950722 0.950722
1.000000 1.000000 1.000000
0.242671 0.242671 0.242671
0.242671 0.242671 0.242671
0.242671 0.242671 0.242671
0.242671 0.242671 0.242671
0.242671 0.242671 0.242671
0.313664 0.313664 0.313664
0.386833 0.386833 0.386833
0.461862 0.461862 0.461862
0.538138 0.538138 0.538138
0.613167 0.613167 0.613167
0.686336 0.686336 0.686336
0.757329 0.757329 0.757329
0.825683 0.825683 0.825683
0.890646 0.890646 0.890646
0.950722 0.950722 0.950722
1.000000 1.000000 1.000000
0.313664 0.313664 0.313664
0.313664 0.313664 0.313664
0.313664 0.313664 0.313664
0.313664 0.313664 0.313664
0.313664 0.313664 0.313664
0.313664 0.313664 0.313664
0.386833 0.386833 0.386833
0.461862 0.461862 0.461862
0.538138 0.538138 0.538138
0.613167 0.613167 0.613167
0.686336 0.686336 0.686336
0.757329 0.757329 0.757329
0.825683 0.825683 0.825683
0.890646 0.890646 0.890646
0.950722 0.950722 0.950722
1.000000 1.000000 1.000000
0.386833 0.386833 0.386833
0.386833 0.386833 0.386833
0.386833 0.386833 0.386833
0.386833 0.386833 0.386833
0.386833 0.386833 0.386833
0.386833 0.386833 0.386833
0.386833 0.386833 0.386833
0.461862 0.461862 0.461862
0.538138 0.538138 0.538138
0.613167 0.613167 0.613167
0.686336 0.686336 0.686336
0.757329 0.757329 0.757329
0.825683 0.825683 0.825683
0.890646 0.890646 0.890646
0.950722 0.950722 0.950722
1.000000 1.000000 1.000000
0.461862 0.461862 0.461862
0.461862 0.461862 0.461862
0.461862 0.461862 0.461862
0.461862 0.461862 0.461862
0.461862 0.461862 0.461862
0.461862 0.461862 0.461862
0.461862 0.461862 0.461862
0.461862 0.461862 0.461862
0.538138 0.538138 0.538138
0.613167 0.613167 0.613167
0.686336 0.686336 0.686336
0.757329 0.757329 0.757329
0.825683 0.825683 0.825683
0.890646 0.890646 0.890646
0.950722 0.950722 0.950722
1.000000 1.000000 1.000000
0.538138 0.538138 0.538138
0.538138 0.538138 0.538138
0.538138 0.538138 0.538138
0.538138 0.538138 0.538138
0.538138 0.538138 0.538138
0.538138 0.538138 0.538138
0.538138 0.538138 0.538138
0.538138 0.538138 0.538138
0.538138 0.538138 0.538138
0.613167 0.613167 0.613167
0.686336 0.686336 0.686336
0.757329 0.757329 0.757329
0.825683 0.825683 0.825683
0.890646 0.890646 0.890646
0.950722 0.950722 0.950722
1.000000 1.000000 1.000000
0.613167 0.613167 0.613167
0.613167 0.613167 0.613167
0.613167 0.613167 0.613167
0.613167 0.613167 0.613167
0.613167 0.613167 0.613167
0.613167 0.613167 0.613167
0.613167 0.613167 0.613167
0.613167 0.613167 0.613167
0.613167 0.613167 0.613167
0.613167 0.613167 0.613167
0.686336 0.686336 0.686336
0.757329 0.757329 0.757329
0.825683 0.825683 0.825683
0.890646 0.890646 0.890646
0.950722 0.950722 0.950722
1.000000 1.000000 1.000000
0.686336 0.686336 0.686336
0.686336 0.686336 0.686336
0.686336 0.686336 0.686336
0.686336 0.686336 0.686336
0.686336 0.686336 0.686336
0.686336 0.686336 0.686336
0.686336 0.686336 0.686336
0.686336 0.686336 0.686336
0.686336 0.686336 0.686336
0.686336 0.686336 0.686336
0.686336 0.686336 0.686336
0.757329 0.757329 0.757329
0.825683 0.825683 0.825683
0.890646 0.890646 0.890646
0.950722 0.950722 0.950722
1.000000 1.000000 1.000000
0.757329 0.757329 0.757329
0.757329 0.757329 0.757329
0.757329 0.757329 0.757329
0.757329 0.757329 0.757329
0.757329 0.757329 0.757329
0.757329 0.757329 0.757329
0.757329 0.757329 0.757329
0.757329 0.757329 0.757329
0.757329 0.757329 0.757329
0.757329 0.757329 0.757329
0.757329 0.757329 0.757329
0.757329 0.757329 0.757329
0.825683 0.825683 0.825683
0.890646 0.890646 0.890646
0.950722 0.950722 0.950722
1.000000 1.000000 1.000000
0.825683 0.825683 0.825683
0.825683 0.825683 0.825683
0.825683 0.825683 0.825683
0.825683 0.825683 0.825683
0.825683 0.825683 0.825683
0.825683 0.825683 0.825683
0.825683 0.825683 0.825683
0.825683 0.825683 0.825683
0.825683 0.825683 0.825683
0.825683 0.825683 0.825683
0.825683 0.825683 0.825683
0.825683 0.825683 0.825683
0.825683 0.825683 0.825683
0.890646 0.890646 0.890646
0.950722 0.950722 0.950722
1.000000 1.000000 1.000000
0.890646 0.890646 0.890646
0.890646 0.890646 0.890646
0.890646 0.890646 0.890646
0.890646 0.890646 0.890646
0.890646 0.890646 0.890646
0.890646 0.890646 0.890646
0.890646 0.890646 0.890646
0.890646 0.890646 0.890646
0.890646 0.890646 0.890646
0.890646 0.890646 0.890646
0.890646 0.890646 0.890646
0.890646 0.890646 0.890646
0.890646 0.890646 0.890646
0.890646 0.890646 0.890646
0.950722 0.950722 0.950722
1.000000 1.000000 1.000000
0.950722 0.950722 0.950722
0.950722 0.950722 0.950722
0.950722 0.950722 0.950722
0.950722 0.950722 0.950722
0.950722 0.950722 0.950722
0.950722 0.950722 0.950722
0.950722 0.950722 0.950722
0.950722 0.950722 0.950722
0.950722 0.950722 0.950722
0.950722 0.950722 0.950722
0.950722 0.950722 0.950722
0.950722 0.950722 0.950722
0.950722 0.950722 0.950722
0.950722 0.950722 0.950722
0.950722 0.950722 0.950722
1.000000 1.000000 1.000000
1.000000 1.000000 1.000000
1.000000 1.000000 1.000000
1.000000 1.000000 1.000000
1.000000 1.000000 1.000000
1.000000 1.000000 1.000000
1.000000 1.000000 1.000000
1.000000 1.000000 1.000000
1.000000 1.000000 1.000000
1.000000 1.000000 1.000000
1.000000 1.000000 1.000000
1.000000 1.000000 1.000000
1.000000 1.000000 1.000000
1.000000 1.000000 1.000000
1.000000 1.000000 1.000000
1.000000 1.000000 1.000000
1.000000 1.000000 1.000000
0.109354 0.109354 0.109354
0.109354 0.109354 0.109354
0.109354 0.109354 0.109354
0.174317 0.174317 0.174317
0.242671 0.242671 0.242671
0.313664 0.313664 0.313664
0.386833 0.386833 0.386833
0.461862 0.461862 0.461862
0.538138 0.538138 0.538138
0.613167 0.613167 0.613167
0.686336 0.686336 0.686336
0.757329 0.757329 0.757329
0.825683 0.825683 0.825683
0.890646 0.890646 0.890646
0.950722 0.950722 0.950722
1.000000 1.000000 1.000000
0.109354 0.109354 0.109354
0.109354 0.109354 0.109354
0.109354 0.109354 0.109354
0.174317 0.174317 0.174317
0.242671 0.242671 0.242671
0.313664 0.313664 0.313664
0.386833 0.386833 0.386833
0.461862 0.461862 0.461862
0.538138 0.538138 0.538138
0.613167 0.613167 0.613167
0.686336 0.686336 0.686336
0.757329 0.757329 0.757329
0.825683 0.825683 0.825683
0.890646 0.890646 0.890646
0.950722 0.950722 0.950722
1.000000 1.000000 1.000000
0.109354 0.109354 0.109354
0.109354 0.109354 0.109354
0.109354 0.109354 0.109354
0.174317 0.174317 0.174317
0.242671 0.242671 0.242671
0.313664 0.313664 0.313664
0.386833 0.386833 0.386833
0.461862 0.461862 0.461862
0.538138 0.538138 0.538138
0.613167 0.613167 0.613167
0.686336 0.686336 0.686336
0.757329 0.757329 0.757329
0.825683 0.825683 0.825683
0.890646 0.890646 0.890646
0.950722 0.950722 0.950722
1.000000 1.000000 1.000000
0.174317 0.174317 0.174317
0.174317 0.174317 0.174317
0.174317 0.174317 0.174317
0.174317 0.174317 0.174317
0.242671 0.242671 0.242671
0.313664 0.313664 0.313664
0.386833 0.386833 0.386833
0.461862 0.461862 0.461862
0.538138 0.538138 0.538138
0.613167 0.613167 0.613167
0.686336 0.686336 0.686336
0.757329 0.757329 0.757329
0.825683 0.825683 0.825683
0.890646 0.890646 0.890646
0.950722 0.950722 0.950722
1.000000 1.000000 1.000000
0.242671 0.242671 0.242671
0.242671 0.242671 0.242671
0.242671 0.242671 0.242671
0.242671 0.242671 0.242671
0.242671 0.242671 0.242671
0.313664 0.313664 0.313664
0.386833 0.386833 0.386833
0.461862 0.461862 0.461862
0.538138 0.538138 0.538138
0.613167 0.613167 0.613167
0.686336 0.686336 0.686336
0.757329 0.757329 0.757329
0.825683 0.825683 0.825683
0.890646 0.890646 0.890646
0.950722 0.950722 0.950722
1.000000 1.000000 1.000000
0.313664 0.313664 0.313664
0.313664 0.313664 0.313664
0.313664 0.313664 0.313664
0.313664 0.313664 0.313664
0.313664 0.313664 0.313664
0.313664 0.313664 0.313664
0.386833 0.386833 0.386833
0.461862 0.461862 0.461862
0.538138 0.538138 0.538138
0.613167 0.613167 0.613167
0.686336 0.686336 0.686336
0.757329 0.757329 0.757329
0.825683 0.825683 0.825683
0.890646 0.890646 0.890646
0.950722 0.950722 0.950722
1.000000 1.000000 1.000000
0.386833 0.386833 0.386833
0.386833 0.386833 0.386833
0.386833 0.386833 0.386833
0.386833 0.386833 0.386833
0.386833 0.386833 0.386833
0.386833 0.386833 0.386833
0.386833 0.386833 0.386833
0.461862 0.461862 0.461862
0.538138 0.538138 0.538138
0.613167 0.613167 0.613167
0.686336 0.686336 0.686336
0.757329 0.757329 0.757329
0.825683 0.825683 0.825683
0.890646 0.890646 0.890646
0.950722 0.950722 0.950722
1.000000 1.000000 1.000000
0.461862 0.461862 0.461862
0.461862 0.461862 0.461862
0.461862 0.461862 0.461862
0.461862 0.461862 0.461862
0.461862 0.461862 0.461862
0.461862 0.461862 0.461862
0.461862 0.461862 0.461862
0.461862 0.461862 0.461862
0.538138 0.538138 0.538138
0.613167 0.613167 0.613167
0.686336 0.686336 0.686336
0.757329 0.757329 0.757329
0.825683 0.825683 0.825683
0.890646 0.890646 0.890646
0.950722 0.950722 0.950722
1.000000 1.000000 1.000000
0.538138 0.538138 0.538138
0.538138 0.538138 0.538138
0.538138 0.538138 0.538138
0.538138 0.538138 0.538138
0.538138 0.538138 0.538138
0.538138 0.538138 0.538138
0.538138 0.538138 0.538138
0.538138 0.538138 0.538138
0.538138 0.538138 0.538138
0.613167 0.613167 0.613167
0.686336 0.686336 0.686336
0.757329 0.757329 0.757329
0.825683 0.825683 0.825683
0.890646 0.890646 0.890646
0.950722 0.950722 0.950722
1.000000 1.000000 1.000000
0.613167 0.613167 0.613167
0.613167 0.613167 0.613167
0.613167 0.613167 0.613167
0.613167 0.613167 0.613167
0.613167 0.613167 0.613167
0.613167 0.613167 0.613167
0.613167 0.613167 0.613167
0.613167 0.613167 0.613167
0.613167 0.613167 0.613167
0.613167 0.613167 0.613167
0.686336 0.686336 0.686336
0.757329 0.757329 0.757329
0.825683 0.825683 0.825683
0.890646 0.890646 0.890646
0.950722 0.950722 0.950722
1.000000 1.000000 1.000000
0.686336 0.686336 0.686336
0.686336 0.686336 0.686336
0.686336 0.686336 0.686336
0.686336 0.686336 0.686336
0.686336 0.686336 0.686336
0.686336 0.686336 0.686336
0.686336 0.686336 0.686336
0.686336 0.686336 0.686336
0.686336 0.686336 0.686336
0.686336 0.686336 0.686336
0.686336 0.686336 0.686336
0.757329 0.757329 0.757329
0.825683 0.825683 0.825683
0.890646 0.890646 0.890646
0.950722 0.950722 0.950722
1.000000 1.000000 1.000000
0.757329 0.757329 0.757329
0.757329 0.757329 0.757329
0.757329 0.757329 0.757329
0.757329 0.757329 0.757329
0.757329 0.757329 0.757329
0.757329 0.757329 0.757329
0.757329 0.757329 0.757329
0.757329 0.757329 0.757329
0.757329 0.757329 0.757329
0.757329 0.757329 0.757329
0.757329 0.757329 0.757329
0.757329 0.757329 0.757329
0.825683 0.825683 0.825683
0.890646 0.890646 0.890646
0.950722 0.950722 0.950722
1.000000 1.000000 1.000000
0.825683 0.825683 0.825683
0.825683 0.825683 0.825683
0.825683 0.825683 0.825683
0.825683 0.825683 0.825683
0.825683 0.825683 0.825683
0.825683 0.825683 0.825683
0.825683 0.825683 0.825683
0.825683 0.825683 0.825683
0.825683 0.825683 0.825683
0.825683 0.825683 0.825683
0.825683 0.825683 0.825683
0.825683 0.825683 0.825683
0.825683 0.825683 0.825683
0.890646 0.890646 0.890646
0.950722 0.950722 0.950722
1.000000 1.000000 1.000000
0.890646 0.890646 0.890646
0.890646 0.890646 0.890646
0.890646 0.890646 0.890646
0.890646 0.890646 0.890646
0.890646 0.890646 0.890646
0.890646 0.890646 0.890646
0.890646 0.890646 0.890646
0.890646 0.890646 0.890646
0.890646 0.890646 0.890646
0.890646 0.890646 0.890646
0.890646 0.890646 0.890646
0.890646 0.890646 0.890646
0.890646 0.890646 0.890646
0.890646 0.890646 0.890646
0.950722 0.950722 0.950722
1.000000 1.000000 1.000000
0.950722 0.950722 0.950722
0.950722 0.950722 0.950722
0.950722 0.950722 0.950722
0.950722 0.950722 0.950722
0.950722 0.950722 0.950722
0.950722 0.950722 0.950722
0.950722 0.950722 0.950722
0.950722 0.950722 0.950722
0.950722 0.950722 0.950722
0.950722 0.950722 0.950722
0.950722 0.950722 0.950722
0.950722 0.950722 0.950722
0.950722 0.950722 0.950722
0.950722 0.950722 0.950722
0.950722 0.950722 0.950722
1.000000 1.000000 1.000000
1.000000 1.000000 1.000000
1.000000 1.000000 1.000000
1.000000 1.000000 1.000000
1.000000 1.000000 1.000000
1.000000 1.000000 1.000000
1.000000 1.000000 1.000000
1.000000 1.000000 1.000000
1.000000 1.000000 1.000000
1.000000 1.000000 1.000000
1.000000 1.000000 1.000000
1.000000 1.000000 1.000000
1.000000 1.000000 1.000000
1.000000 1.000000 1.000000
1.000000 1.000000 1.000000
1.000000 1.000000 1.000000
1.000000 1.000000 1.000000
0.174317 0.174317 0.174317
0.174317 0.174317 0.174317
0.174317 0.174317 0.174317
0.174317 0.174317 0.174317
0.242671 0.242671 0.242671
0.313664 0.313664 0.313664
0.386833 0.386833 0.386833
0.461862 0.461862 0.461862
0.538138 0.538138 0.538138
0.613167 0.613167 0.613167
0.686336 0.686336 0.686336
0.757329 0.757329 0.757329
0.825683 0.825683 0.825683
0.890646 0.890646 0.890646
0.950722 0.950722 0.950722
1.000000 1.000000 1.000000
0.174317 0.174317 0.174317
0.174317 0.174317 0.174317
0.174317 0.174317 0.174317
0.174317 0.174317 0.174317
0.242671 0.242671 0.242671
0.313664 0.313664 0.313664
0.386833 0.386833 0.386833
0.461862 0.461862 0.461862
0.538138 0.538138 0.538138
0.613167 0.613167 0.613167
0.686336 0.686336 0.686336
0.757329 0.757329 0.757329
0.825683 0.825683 0.825683
0.890646 0.890646 0.890646
0.950722 0.950722 0.950722
1.000000 1.000000 1.000000
0.174317 0.174317 0.174317
0.174317 0.174317 0.174317
0.174317 0.174317 0.174317
0.174317 0.174317 0.174317
0.242671 0.242671 0.242671
0.313664 0.313664 0.313664
0.386833 0.386833 0.386833
0.461862 0.461862 0.461862
0.538138 0.538138 0.538138
0.613167 0.613167 0.613167
0.686336 0.686336 0.686336
0.757329 0.757329 0.757329
0.825683 0.825683 0.825683
0.890646 0.890646 0.890646
0.950722 0.950722 0.950722
1.000000 1.000000 1.000000
0.174317 0.174317 0.174317
0.174317 0.174317 0.174317
0.174317 0.174317 0.174317
0.174317 0.174317 0.174317
0.242671 0.242671 0.242671
0.313664 0.313664 0.313664
0.386833 0.386833 0.386833
0.461862 0.461862 0.461862
0.538138 0.538138 0.538138
0.613167 0.613167 0.613167
0.686336 0.686336 0.686336
0.757329 0.757329 0.757329
0.825683 0.825683 0.825683
0.890646 0.890646 0.890646
0.950722 0.950722 0.950722
1.000000 1.000000 1.000000
0.242671 0.242671 0.242671
0.242671 0.242671 0.242671
0.242671 0.242671 0.242671
0.242671 0.242671 0.242671
0.242671 0.242671 0.242671
0.313664 0.313664 0.313664
0.386833 0.386833 0.386833
0.461862 0.461862 0.461862
0.538138 0.538138 0.538138
0.613167 0.613167 0.613167
0.686336 0.686336 0.686336
0.757329 0.757329 0.757329
0.825683 0.825683 0.825683
0.890646 0.890646 0.890646
0.950722 0.950722 0.950722
1.000000 1.000000 1.000000
0.313664 0.313664 0.313664
0.313664 0.313664 0.313664
0.313664 0.313664 0.313664
0.313664 0.313664 0.313664
0.313664 0.313664 0.313664
0.313664 0.313664 0.313664
0.386833 0.386833 0.386833
0.461862 0.461862 0.461862
0.538138 0.538138 0.538138
0.613167 0.613167 0.613167
0.686336 0.686336 0.686336
0.757329 0.757329 0.757329
0.825683 0.825683 0.825683
0.890646 0.890646 0.890646
0.950722 0.950722 0.950722
1.000000 1.000000 1.000000
0.386833 0.386833 0.386833
0.386833 0.386833 0.386833
0.386833 0.386833 0.386833
0.386833 0.386833 0.386833
0.386833 0.386833 0.386833
0.386833 0.386833 0.386833
0.386833 0.386833 0.386833
0.461862 0.461862 0.461862
0.538138 0.538138 0.538138
0.613167 0.613167 0.613167
0.686336 0.686336 0.686336
0.757329 0.757329 0.757329
0.825683 0.825683 0.825683
0.890646 0.890646 0.890646
0.950722 0.950722 0.950722
1.000000 1.000000 1.000000
0.461862 0.461862 0.461862
0.461862 0.461862 0.461862
0.461862 0.461862 0.461862
0.461862 0.461862 0.461862
0.461862 0.461862 0.461862
0.461862 0.461862 0.461862
0.461862 0.461862 0.461862
