dist/CUBE-to-XMP/_internal/built_in_luts/Fuji_Classic_Chrome.cube
TITLE "Fuji_Classic_Chrome"
LUT_3D_SIZE 6
0.000000 0.000000 0.000000
0.174317 0.059268 0.043579
0.386833 0.131523 0.096708
0.613167 0.208477 0.153292
0.825683 0.280732 0.206421
1.000000 0.340000 0.250000
0.043579 0.174317 0.043579
0.174317 0.174317 0.043579
0.386833 0.276586 0.096708
0.613167 0.361769 0.153292
0.825683 0.435548 0.206421
1.000000 0.490000 0.250000
0.096708 0.386833 0.096708
0.241771 0.386833 0.096708
0.386833 0.386833 0.096708
0.613167 0.459875 0.153292
0.825683 0.590364 0.206421
1.000000 0.640000 0.250000
0.153292 0.613167 0.153292
0.306584 0.613167 0.153292
0.459875 0.613167 0.153292
0.613167 0.613167 0.153292
0.825683 0.670868 0.206421
1.000000 0.790000 0.250000
0.206421 0.825683 0.206421
0.361236 0.825683 0.206421
0.516052 0.825683 0.206421
0.670868 0.825683 0.206421
0.825683 0.825683 0.206421
1.000000 0.850000 0.250000
0.250000 1.000000 0.250000
0.400000 1.000000 0.250000
0.550000 1.000000 0.250000
0.700000 1.000000 0.250000
0.850000 1.000000 0.250000
1.000000 1.000000 0.250000
0.043579 0.082800 0.174317
0.174317 0.043579 0.174317
0.386833 0.096708 0.206956
0.613167 0.153292 0.251398
0.825683 0.206421 0.286925
1.000000 0.250000 0.310000
0.043579 0.174317 0.174317
0.174317 0.174317 0.174317
0.386833 0.259178 0.241771
0.613167 0.343374 0.306584
0.825683 0.416970 0.361236
1.000000 0.472000 0.400000
0.096708 0.386833 0.241771
0.241771 0.386833 0.241771
0.386833 0.386833 0.241771
0.613167 0.496665 0.306584
0.825683 0.571786 0.361236
1.000000 0.622000 0.400000
0.153292 0.613167 0.306584
0.306584 0.613167 0.306584
0.459875 0.613167 0.306584
0.613167 0.613167 0.306584
0.825683 0.670868 0.361236
1.000000 0.772000 0.400000
0.206421 0.825683 0.361236
0.361236 0.825683 0.361236
0.516052 0.825683 0.361236
0.670868 0.825683 0.361236
0.825683 0.825683 0.361236
1.000000 0.850000 0.400000
0.250000 1.000000 0.400000
0.400000 1.000000 0.400000
0.550000 1.000000 0.400000
0.700000 1.000000 0.400000
0.850000 1.000000 0.400000
1.000000 1.000000 0.400000
0.096708 0.183746 0.386833
0.241771 0.096708 0.386833
0.386833 0.096708 0.386833
0.613167 0.153292 0.459875
0.825683 0.206421 0.441741
1.000000 0.250000 0.460000
0.096708 0.328808 0.386833
0.241771 0.285289 0.386833
0.386833 0.241771 0.386833
0.613167 0.306584 0.423085
0.825683 0.361236 0.460318
1.000000 0.400000 0.478000
0.096708 0.386833 0.386833
0.241771 0.386833 0.386833
0.386833 0.386833 0.386833
0.613167 0.478270 0.459875
0.825683 0.553208 0.516052
1.000000 0.604000 0.550000
0.153292 0.613167 0.459875
0.306584 0.613167 0.459875
0.459875 0.613167 0.459875
0.613167 0.613167 0.459875
0.825683 0.708023 0.516052
1.000000 0.754000 0.550000
0.206421 0.825683 0.516052
0.361236 0.825683 0.516052
0.516052 0.825683 0.516052
0.670868 0.825683 0.516052
0.825683 0.825683 0.516052
1.000000 0.850000 0.550000
0.250000 1.000000 0.550000
0.400000 1.000000 0.550000
0.550000 1.000000 0.550000
0.700000 1.000000 0.550000
0.850000 1.000000 0.550000
1.000000 1.000000 0.550000
0.153292 0.291254 0.613167
0.306584 0.153292 0.613167
0.459875 0.153292 0.613167
0.613167 0.153292 0.613167
0.825683 0.206421 0.670868
1.000000 0.250000 0.700000
0.153292 0.444546 0.613167
0.306584 0.398559 0.613167
0.459875 0.306584 0.613167
0.613167 0.306584 0.613167
0.825683 0.361236 0.670868
1.000000 0.400000 0.628000
0.153292 0.597838 0.613167
0.306584 0.551850 0.613167
0.459875 0.505863 0.613167
0.613167 0.459875 0.613167
0.825683 0.516052 0.633712
1.000000 0.550000 0.646000
0.153292 0.613167 0.613167
0.306584 0.613167 0.613167
0.459875 0.613167 0.613167
0.613167 0.613167 0.613167
0.825683 0.689446 0.670868
1.000000 0.736000 0.700000
0.206421 0.825683 0.670868
0.361236 0.825683 0.670868
0.516052 0.825683 0.670868
0.670868 0.825683 0.670868
0.825683 0.825683 0.670868
1.000000 0.886000 0.700000
0.250000 1.000000 0.700000
0.400000 1.000000 0.700000
0.550000 1.000000 0.700000
0.700000 1.000000 0.700000
0.850000 1.000000 0.700000
1.000000 1.000000 0.700000
0.206421 0.392200 0.825683
0.361236 0.206421 0.825683
0.516052 0.206421 0.825683
0.670868 0.206421 0.825683
0.825683 0.206421 0.825683
1.000000 0.250000 0.850000
0.206421 0.547015 0.825683
0.361236 0.500571 0.825683
0.516052 0.361236 0.825683
0.670868 0.361236 0.825683
0.825683 0.361236 0.825683
1.000000 0.400000 0.850000
0.206421 0.701831 0.825683
0.361236 0.655386 0.825683
0.516052 0.608941 0.825683
0.670868 0.516052 0.825683
0.825683 0.516052 0.825683
1.000000 0.550000 0.850000
0.206421 0.825683 0.794720
0.361236 0.810202 0.825683
0.516052 0.763757 0.825683
0.670868 0.717312 0.825683
0.825683 0.670868 0.825683
1.000000 0.700000 0.814000
0.206421 0.825683 0.825683
0.361236 0.825683 0.825683
0.516052 0.825683 0.825683
0.670868 0.825683 0.825683
0.825683 0.825683 0.825683
1.000000 0.868000 0.850000
0.250000 1.000000 0.850000
0.400000 1.000000 0.850000
0.550000 1.000000 0.850000
0.700000 1.000000 0.850000
0.850000 1.000000 0.850000
1.000000 1.000000 0.850000
0.250000 0.475000 1.000000
0.400000 0.250000 1.000000
0.550000 0.250000 1.000000
0.700000 0.250000 1.000000
0.850000 0.250000 1.000000
1.000000 0.250000 1.000000
0.250000 0.625000 1.000000
0.400000 0.580000 1.000000
0.550000 0.400000 1.000000
0.700000 0.400000 1.000000
0.850000 0.400000 1.000000
1.000000 0.400000 1.000000
0.250000 0.775000 1.000000
0.400000 0.730000 1.000000
0.550000 0.685000 1.000000
0.700000 0.550000 1.000000
0.850000 0.550000 1.000000
1.000000 0.550000 1.000000
0.250000 0.925000 1.000000
0.400000 0.880000 1.000000
0.550000 0.835000 1.000000
0.700000 0.790000 1.000000
0.850000 0.700000 1.000000
1.000000 0.700000 1.000000
0.250000 1.000000 0.925000
0.400000 1.000000 0.970000
0.550000 0.985000 1.000000
0.700000 0.940000 1.000000
0.850000 0.895000 1.000000
1.000000 0.850000 1.000000
0.250000 1.000000 1.000000
0.400000 1.000000 1.000000
0.550000 1.000000 1.000000
0.700000 1.000000 1.000000
0.850000 1.000000 1.000000
1.000000 1.000000 1.000000
