dist/CUBE-to-XMP/_internal/built_in_luts/Fuji_Monochrome.cube
TITLE "Fuji_Monochrome"
LUT_3D_SIZE 6
0.000000 0.000000 0.000000
0.174317 0.174317 0.174317
0.386833 0.386833 0.386833
0.613167 0.613167 0.613167
0.825683 0.825683 0.825683
1.000000 1.000000 1.000000
0.174317 0.174317 0.174317
0.174317 0.174317 0.174317
0.386833 0.386833 0.386833
0.613167 0.613167 0.613167
0.825683 0.825683 0.825683
1.000000 1.000000 1.000000
0.386833 0.386833 0.386833
0.386833 0.386833 0.386833
0.386833 0.386833 0.386833
0.613167 0.613167 0.613167
0.825683 0.825683 0.825683
1.000000 1.000000 1.000000
0.613167 0.613167 0.613167
0.613167 0.613167 0.613167
0.613167 0.613167 0.613167
0.613167 0.613167 0.613167
0.825683 0.825683 0.825683
1.000000 1.000000 1.000000
0.825683 0.825683 0.825683
0.825683 0.825683 0.825683
0.825683 0.825683 0.825683
0.825683 0.825683 0.825683
0.825683 0.825683 0.825683
1.000000 1.000000 1.000000
1.000000 1.000000 1.000000
1.000000 1.000000 1.000000
1.000000 1.000000 1.000000
1.000000 1.000000 1.000000
1.000000 1.000000 1.000000
1.000000 1.000000 1.000000
0.174317 0.174317 0.174317
0.174317 0.174317 0.174317
0.386833 0.386833 0.386833
0.613167 0.613167 0.613167
0.825683 0.825683 0.825683
1.000000 1.000000 1.000000
0.174317 0.174317 0.174317
0.174317 0.174317 0.174317
0.386833 0.386833 0.386833
0.613167 0.613167 0.613167
0.825683 0.825683 0.825683
1.000000 1.000000 1.000000
0.386833 0.386833 0.386833
0.386833 0.386833 0.386833
0.386833 0.386833 0.386833
0.613167 0.613167 0.613167
0.825683 0.825683 0.825683
1.000000 1.000000 1.000000
0.613167 0.613167 0.613167
0.613167 0.613167 0.613167
0.613167 0.613167 0.613167
0.613167 0.613167 0.613167
0.825683 0.825683 0.825683
1.000000 1.000000 1.000000
0.825683 0.825683 0.825683
0.825683 0.825683 0.825683
0.825683 0.825683 0.825683
0.825683 0.825683 0.825683
0.825683 0.825683 0.825683
1.000000 1.000000 1.000000
1.000000 1.000000 1.000000
1.000000 1.000000 1.000000
1.000000 1.000000 1.000000
1.000000 1.000000 1.000000
1.000000 1.000000 1.000000
1.000000 1.000000 1.000000
0.386833 0.386833 0.386833
0.386833 0.386833 0.386833
0.386833 0.386833 0.386833
0.613167 0.613167 0.613167
0.825683 0.825683 0.825683
1.000000 1.000000 1.000000
0.386833 0.386833 0.386833
0.386833 0.386833 0.386833
0.386833 0.386833 0.386833
0.613167 0.613167 0.613167
0.825683 0.825683 0.825683
1.000000 1.000000 1.000000
0.386833 0.386833 0.386833
0.386833 0.386833 0.386833
0.386833 0.386833 0.386833
0.613167 0.613167 0.613167
0.825683 0.825683 0.825683
1.000000 1.000000 1.000000
0.613167 0.613167 0.613167
0.613167 0.613167 0.613167
0.613167 0.613167 0.613167
0.613167 0.613167 0.613167
0.825683 0.825683 0.825683
1.000000 1.000000 1.000000
0.825683 0.825683 0.825683
0.825683 0.825683 0.825683
0.825683 0.825683 0.825683
0.825683 0.825683 0.825683
0.825683 0.825683 0.825683
1.000000 1.000000 1.000000
1.000000 1.000000 1.000000
1.000000 1.000000 1.000000
1.000000 1.000000 1.000000
1.000000 1.000000 1.000000
1.000000 1.000000 1.000000
1.000000 1.000000 1.000000
0.613167 0.613167 0.613167
0.613167 0.613167 0.613167
0.613167 0.613167 0.613167
0.613167 0.613167 0.613167
0.825683 0.825683 0.825683
1.000000 1.000000 1.000000
0.613167 0.613167 0.613167
0.613167 0.613167 0.613167
0.613167 0.613167 0.613167
0.613167 0.613167 0.613167
0.825683 0.825683 0.825683
1.000000 1.000000 1.000000
0.613167 0.613167 0.613167
0.613167 0.613167 0.613167
0.613167 0.613167 0.613167
0.613167 0.613167 0.613167
0.825683 0.825683 0.825683
1.000000 1.000000 1.000000
0.613167 0.613167 0.613167
0.613167 0.613167 0.613167
0.613167 0.613167 0.613167
0.613167 0.613167 0.613167
0.825683 0.825683 0.825683
1.000000 1.000000 1.000000
0.825683 0.825683 0.825683
0.825683 0.825683 0.825683
0.825683 0.825683 0.825683
0.825683 0.825683 0.825683
0.825683 0.825683 0.825683
1.000000 1.000000 1.000000
1.000000 1.000000 1.000000
1.000000 1.000000 1.000000
1.000000 1.000000 1.000000
1.000000 1.000000 1.000000
1.000000 1.000000 1.000000
1.000000 1.000000 1.000000
0.825683 0.825683 0.825683
0.825683 0.825683 0.825683
0.825683 0.825683 0.825683
0.825683 0.825683 0.825683
0.825683 0.825683 0.825683
1.000000 1.000000 1.000000
0.825683 0.825683 0.825683
0.825683 0.825683 0.825683
0.825683 0.825683 0.825683
0.825683 0.825683 0.825683
0.825683 0.825683 0.825683
1.000000 1.000000 1.000000
0.825683 0.825683 0.825683
0.825683 0.825683 0.825683
0.825683 0.825683 0.825683
0.825683 0.825683 0.825683
0.825683 0.825683 0.825683
1.000000 1.000000 1.000000
0.825683 0.825683 0.825683
0.825683 0.825683 0.825683
0.825683 0.825683 0.825683
0.825683 0.825683 0.825683
0.825683 0.825683 0.825683
1.000000 1.000000 1.000000
0.825683 0.825683 0.825683
0.825683 0.825683 0.825683
0.825683 0.825683 0.825683
0.825683 0.825683 0.825683
0.825683 0.825683 0.825683
1.000000 1.000000 1.000000
1.000000 1.000000 1.000000
1.000000 1.000000 1.000000
1.000000 1.000000 1.000000
1.000000 1.000000 1.000000
1.000000 1.000000 1.000000
1.000000 1.000000 1.000000
1.000000 1.000000 1.000000
1.000000 1.000000 1.000000
1.000000 1.000000 1.000000
1.000000 1.000000 1.000000
1.000000 1.000000 1.000000
1.000000 1.000000 1.000000
1.000000 1.000000 1.000000
1.000000 1.000000 1.000000
1.000000 1.000000 1.000000
1.000000 1.000000 1.000000
1.000000 1.000000 1.000000
1.000000 1.000000 1.000000
1.000000 1.000000 1.000000
1.000000 1.000000 1.000000
1.000000 1.000000 1.000000
1.000000 1.000000 1.000000
1.000000 1.000000 1.000000
1.000000 1.000000 1.000000
1.000000 1.000000 1.000000
1.000000 1.000000 1.000000
1.000000 1.000000 1.000000
1.000000 1.000000 1.000000
1.000000 1.000000 1.000000
1.000000 1.000000 1.000000
1.000000 1.000000 1.000000
1.000000 1.000000 1.000000
1.000000 1.000000 1.000000
1.000000 1.000000 1.000000
1.000000 1.000000 1.000000
1.000000 1.000000 1.000000
1.000000 1.000000 1.000000
1.000000 1.000000 1.000000
1.000000 1.000000 1.000000
1.000000 1.000000 1.000000
1.000000 1.000000 1.000000
1.000000 1.000000 1.000000
