dist/CUBE-to-XMP/_internal/built_in_luts/Fuji_Classic_Chrome.cube
TITLE "Fuji_Classic_Chrome"
LUT_3D_SIZE 16
0.000000 0.000000 0.000000
0.049278 0.016754 0.012319
0.109354 0.037180 0.027338
0.174317 0.059268 0.043579
0.242671 0.082508 0.060668
0.313664 0.106646 0.078416
0.386833 0.131523 0.096708
0.461862 0.157033 0.115466
0.538138 0.182967 0.134534
0.613167 0.208477 0.153292
0.686336 0.233354 0.171584
0.757329 0.257492 0.189332
0.825683 0.280732 0.206421
0.890646 0.302820 0.222662
0.950722 0.323246 0.237681
1.000000 0.340000 0.250000
0.012319 0.049278 0.012319
0.049278 0.049278 0.012319
0.109354 0.078188 0.027338
0.174317 0.102847 0.043579
0.242671 0.128009 0.060668
0.313664 0.153695 0.078416
0.386833 0.179877 0.096708
0.461862 0.206518 0.115466
0.538138 0.233417 0.134534
0.613167 0.259574 0.153292
0.686336 0.284829 0.171584
0.757329 0.309128 0.189332
0.825683 0.332338 0.206421
0.890646 0.354203 0.222662
0.950722 0.374177 0.237681
1.000000 0.390000 0.250000
0.027338 0.109354 0.027338
0.068346 0.109354 0.027338
0.109354 0.109354 0.027338
0.174317 0.130738 0.043579
0.242671 0.173510 0.060668
0.313664 0.200745 0.078416
0.386833 0.228231 0.096708
0.461862 0.256004 0.115466
0.538138 0.283868 0.134534
0.613167 0.310671 0.153292
0.686336 0.336305 0.171584
0.757329 0.360764 0.189332
0.825683 0.383943 0.206421
0.890646 0.405587 0.222662
0.950722 0.425109 0.237681
1.000000 0.440000 0.250000
0.043579 0.174317 0.043579
0.087158 0.174317 0.043579
0.130738 0.174317 0.043579
0.174317 0.174317 0.043579
0.242671 0.197170 0.060668
0.313664 0.219565 0.078416
0.386833 0.276586 0.096708
0.461862 0.305489 0.115466
0.538138 0.334318 0.134534
0.613167 0.361769 0.153292
0.686336 0.387780 0.171584
0.757329 0.412400 0.189332
0.825683 0.435548 0.206421
0.890646 0.456970 0.222662
0.950722 0.476040 0.237681
1.000000 0.490000 0.250000
0.060668 0.242671 0.060668
0.106169 0.242671 0.060668
0.151670 0.242671 0.060668
0.197170 0.242671 0.060668
0.242671 0.242671 0.060668
0.313664 0.266615 0.078416
0.386833 0.290125 0.096708
0.461862 0.354974 0.115466
0.538138 0.384769 0.134534
0.613167 0.412866 0.153292
0.686336 0.439255 0.171584
0.757329 0.464036 0.189332
0.825683 0.487153 0.206421
0.890646 0.508353 0.222662
0.950722 0.526972 0.237681
1.000000 0.540000 0.250000
0.078416 0.313664 0.078416
0.125466 0.313664 0.078416
0.172515 0.313664 0.078416
0.219565 0.313664 0.078416
0.266615 0.313664 0.078416
0.313664 0.313664 0.078416
0.386833 0.338479 0.096708
0.461862 0.362892 0.115466
0.538138 0.386787 0.134534
0.613167 0.463963 0.153292
0.686336 0.490730 0.171584
0.757329 0.515672 0.189332
0.825683 0.538758 0.206421
0.890646 0.559737 0.222662
0.950722 0.577903 0.237681
1.000000 0.590000 0.250000
0.096708 0.386833 0.096708
0.145062 0.386833 0.096708
0.193416 0.386833 0.096708
0.241771 0.386833 0.096708
0.290125 0.386833 0.096708
0.338479 0.386833 0.096708
0.386833 0.386833 0.096708
0.461862 0.412377 0.115466
0.538138 0.437237 0.134534
0.613167 0.459875 0.153292
0.686336 0.480435 0.171584
0.757329 0.567308 0.189332
0.825683 0.590364 0.206421
0.890646 0.611120 0.222662
0.950722 0.628835 0.237681
1.000000 0.640000 0.250000
0.115466 0.461862 0.115466
0.164951 0.461862 0.115466
0.214436 0.461862 0.115466
0.263921 0.461862 0.115466
0.313406 0.461862 0.115466
0.362892 0.461862 0.115466
0.412377 0.461862 0.115466
0.461862 0.461862 0.115466
0.538138 0.487687 0.134534
0.613167 0.510973 0.153292
0.686336 0.531910 0.171584
0.757329 0.550784 0.189332
0.825683 0.641969 0.206421
0.890646 0.662504 0.222662
0.950722 0.679767 0.237681
1.000000 0.690000 0.250000
0.134534 0.538138 0.134534
0.184985 0.538138 0.134534
0.235435 0.538138 0.134534
0.285886 0.538138 0.134534
0.336336 0.538138 0.134534
0.386787 0.538138 0.134534
0.437237 0.538138 0.134534
0.487687 0.538138 0.134534
0.538138 0.538138 0.134534
0.613167 0.562070 0.153292
0.686336 0.583385 0.171584
0.757329 0.602421 0.189332
0.825683 0.619262 0.206421
0.890646 0.633729 0.222662
0.950722 0.730698 0.237681
1.000000 0.740000 0.250000
0.153292 0.613167 0.153292
0.204389 0.613167 0.153292
0.255486 0.613167 0.153292
0.306584 0.613167 0.153292
0.357681 0.613167 0.153292
0.408778 0.613167 0.153292
0.459875 0.613167 0.153292
0.510973 0.613167 0.153292
0.562070 0.613167 0.153292
0.613167 0.613167 0.153292
0.686336 0.634861 0.171584
0.757329 0.654057 0.189332
0.825683 0.670868 0.206421
0.890646 0.685112 0.222662
0.950722 0.696065 0.237681
1.000000 0.790000 0.250000
0.171584 0.686336 0.171584
0.223059 0.686336 0.171584
0.274534 0.686336 0.171584
0.326009 0.686336 0.171584
0.377485 0.686336 0.171584
0.428960 0.686336 0.171584
0.480435 0.686336 0.171584
0.531910 0.686336 0.171584
0.583385 0.686336 0.171584
0.634861 0.686336 0.171584
0.686336 0.686336 0.171584
0.757329 0.705693 0.189332
0.825683 0.722473 0.206421
0.890646 0.736496 0.222662
0.950722 0.746996 0.237681
1.000000 0.750000 0.250000
0.189332 0.757329 0.189332
0.240968 0.757329 0.189332
0.292604 0.757329 0.189332
0.344240 0.757329 0.189332
0.395876 0.757329 0.189332
0.447512 0.757329 0.189332
0.499148 0.757329 0.189332
0.550784 0.757329 0.189332
0.602421 0.757329 0.189332
0.654057 0.757329 0.189332
0.705693 0.757329 0.189332
0.757329 0.757329 0.189332
0.825683 0.774078 0.206421
0.890646 0.787879 0.222662
0.950722 0.797928 0.237681
1.000000 0.800000 0.250000
0.206421 0.825683 0.206421
0.258026 0.825683 0.206421
0.309631 0.825683 0.206421
0.361236 0.825683 0.206421
0.412842 0.825683 0.206421
0.464447 0.825683 0.206421
0.516052 0.825683 0.206421
0.567657 0.825683 0.206421
0.619262 0.825683 0.206421
0.670868 0.825683 0.206421
0.722473 0.825683 0.206421
0.774078 0.825683 0.206421
0.825683 0.825683 0.206421
0.890646 0.839263 0.222662
0.950722 0.848859 0.237681
1.000000 0.850000 0.250000
0.222662 0.890646 0.222662
0.274045 0.890646 0.222662
0.325428 0.890646 0.222662
0.376812 0.890646 0.222662
0.428195 0.890646 0.222662
0.479579 0.890646 0.222662
0.530962 0.890646 0.222662
0.582346 0.890646 0.222662
0.633729 0.890646 0.222662
0.685112 0.890646 0.222662
0.736496 0.890646 0.222662
0.787879 0.890646 0.222662
0.839263 0.890646 0.222662
0.890646 0.890646 0.222662
0.950722 0.899791 0.237681
1.000000 0.900000 0.250000
0.237681 0.950722 0.237681
0.288612 0.950722 0.237681
0.339544 0.950722 0.237681
0.390475 0.950722 0.237681
0.441407 0.950722 0.237681
0.492338 0.950722 0.237681
0.543270 0.950722 0.237681
0.594201 0.950722 0.237681
0.645133 0.950722 0.237681
0.696065 0.950722 0.237681
0.746996 0.950722 0.237681
0.797928 0.950722 0.237681
0.848859 0.950722 0.237681
0.899791 0.950722 0.237681
0.950722 0.950722 0.237681
1.000000 0.950000 0.250000
0.250000 1.000000 0.250000
0.300000 1.000000 0.250000
0.350000 1.000000 0.250000
0.400000 1.000000 0.250000
0.450000 1.000000 0.250000
0.500000 1.000000 0.250000
0.550000 1.000000 0.250000
0.600000 1.000000 0.250000
0.650000 1.000000 0.250000
0.700000 1.000000 0.250000
0.750000 1.000000 0.250000
0.800000 1.000000 0.250000
0.850000 1.000000 0.250000
0.900000 1.000000 0.250000
0.950000 1.000000 0.250000
1.000000 1.000000 0.250000
0.012319 0.023407 0.049278
0.049278 0.012319 0.049278
0.109354 0.027338 0.058504
0.174317 0.043579 0.071470
0.242671 0.060668 0.084328
0.313664 0.078416 0.097236
0.386833 0.096708 0.110247
0.461862 0.115466 0.123383
0.538138 0.134534 0.136552
0.613167 0.157380 0.153292
0.686336 0.181879 0.171584
0.757329 0.205856 0.189332
0.825683 0.229127 0.206421
0.890646 0.251436 0.222662
0.950722 0.272314 0.237681
1.000000 0.290000 0.250000
0.012319 0.049278 0.049278
0.049278 0.049278 0.049278
0.109354 0.073267 0.068346
0.174317 0.097617 0.087158
0.242671 0.122549 0.106169
0.313664 0.148050 0.125466
0.386833 0.174075 0.145062
0.461862 0.200580 0.164951
0.538138 0.227363 0.184985
0.613167 0.253442 0.204389
0.686336 0.278652 0.223059
0.757329 0.302931 0.240968
0.825683 0.326145 0.258026
0.890646 0.348037 0.274045
0.950722 0.368065 0.288612
1.000000 0.384000 0.300000
0.027338 0.109354 0.068346
0.068346 0.109354 0.068346
0.109354 0.109354 0.068346
0.174317 0.141197 0.087158
0.242671 0.168050 0.106169
0.313664 0.195099 0.125466
0.386833 0.222429 0.145062
0.461862 0.250065 0.164951
0.538138 0.277814 0.184985
0.613167 0.304540 0.204389
0.686336 0.330127 0.223059
0.757329 0.354567 0.240968
0.825683 0.377750 0.258026
0.890646 0.399421 0.274045
0.950722 0.418997 0.288612
1.000000 0.434000 0.300000
0.043579 0.174317 0.087158
0.087158 0.174317 0.087158
0.130738 0.174317 0.087158
0.174317 0.174317 0.087158
0.242671 0.197170 0.106169
0.313664 0.242149 0.125466
0.386833 0.270783 0.145062
0.461862 0.299551 0.164951
0.538138 0.328264 0.184985
0.613167 0.355637 0.204389
0.686336 0.381603 0.223059
0.757329 0.406204 0.240968
0.825683 0.429355 0.258026
0.890646 0.450804 0.274045
0.950722 0.469929 0.288612
1.000000 0.484000 0.300000
0.060668 0.242671 0.106169
0.106169 0.242671 0.106169
0.151670 0.242671 0.106169
0.197170 0.242671 0.106169
0.242671 0.242671 0.106169
0.313664 0.266615 0.125466
0.386833 0.319137 0.145062
0.461862 0.349036 0.164951
0.538138 0.378715 0.184985
0.613167 0.406734 0.204389
0.686336 0.433078 0.223059
0.757329 0.457840 0.240968
0.825683 0.480961 0.258026
0.890646 0.502187 0.274045
0.950722 0.520860 0.288612
1.000000 0.534000 0.300000
0.078416 0.313664 0.125466
0.125466 0.313664 0.125466
0.172515 0.313664 0.125466
0.219565 0.313664 0.125466
0.266615 0.313664 0.125466
0.313664 0.313664 0.125466
0.386833 0.338479 0.145062
0.461862 0.362892 0.164951
0.538138 0.429165 0.184985
0.613167 0.457831 0.204389
0.686336 0.484553 0.223059
0.757329 0.509476 0.240968
0.825683 0.532566 0.258026
0.890646 0.553571 0.274045
0.950722 0.571792 0.288612
1.000000 0.584000 0.300000
0.096708 0.386833 0.145062
0.145062 0.386833 0.145062
0.193416 0.386833 0.145062
0.241771 0.386833 0.145062
0.290125 0.386833 0.145062
0.338479 0.386833 0.145062
0.386833 0.386833 0.145062
0.461862 0.412377 0.164951
0.538138 0.437237 0.184985
0.613167 0.459875 0.204389
0.686336 0.536028 0.223059
0.757329 0.561112 0.240968
0.825683 0.584171 0.258026
0.890646 0.604954 0.274045
0.950722 0.622723 0.288612
1.000000 0.634000 0.300000
0.115466 0.461862 0.164951
0.164951 0.461862 0.164951
0.214436 0.461862 0.164951
0.263921 0.461862 0.164951
0.313406 0.461862 0.164951
0.362892 0.461862 0.164951
0.412377 0.461862 0.164951
0.461862 0.461862 0.164951
0.538138 0.487687 0.184985
0.613167 0.510973 0.204389
0.686336 0.531910 0.223059
0.757329 0.550784 0.240968
0.825683 0.635776 0.258026
0.890646 0.656338 0.274045
0.950722 0.673655 0.288612
1.000000 0.684000 0.300000
0.134534 0.538138 0.184985
0.184985 0.538138 0.184985
0.235435 0.538138 0.184985
0.285886 0.538138 0.184985
0.336336 0.538138 0.184985
0.386787 0.538138 0.184985
0.437237 0.538138 0.184985
0.487687 0.538138 0.184985
0.538138 0.538138 0.184985
0.613167 0.562070 0.204389
0.686336 0.583385 0.223059
0.757329 0.602421 0.240968
0.825683 0.619262 0.258026
0.890646 0.707721 0.274045
0.950722 0.724586 0.288612
1.000000 0.734000 0.300000
0.153292 0.613167 0.204389
0.204389 0.613167 0.204389
0.255486 0.613167 0.204389
0.306584 0.613167 0.204389
0.357681 0.613167 0.204389
0.408778 0.613167 0.204389
0.459875 0.613167 0.204389
0.510973 0.613167 0.204389
0.562070 0.613167 0.204389
0.613167 0.613167 0.204389
0.686336 0.634861 0.223059
0.757329 0.654057 0.240968
0.825683 0.670868 0.258026
0.890646 0.685112 0.274045
0.950722 0.696065 0.288612
1.000000 0.784000 0.300000
0.171584 0.686336 0.223059
0.223059 0.686336 0.223059
0.274534 0.686336 0.223059
0.326009 0.686336 0.223059
0.377485 0.686336 0.223059
0.428960 0.686336 0.223059
0.480435 0.686336 0.223059
0.531910 0.686336 0.223059
0.583385 0.686336 0.223059
0.634861 0.686336 0.223059
0.686336 0.686336 0.223059
0.757329 0.705693 0.240968
0.825683 0.722473 0.258026
0.890646 0.736496 0.274045
0.950722 0.746996 0.288612
1.000000 0.750000 0.300000
0.189332 0.757329 0.240968
0.240968 0.757329 0.240968
0.292604 0.757329 0.240968
0.344240 0.757329 0.240968
0.395876 0.757329 0.240968
0.447512 0.757329 0.240968
0.499148 0.757329 0.240968
0.550784 0.757329 0.240968
0.602421 0.757329 0.240968
0.654057 0.757329 0.240968
0.705693 0.757329 0.240968
0.757329 0.757329 0.240968
0.825683 0.774078 0.258026
0.890646 0.787879 0.274045
0.950722 0.797928 0.288612
1.000000 0.800000 0.300000
0.206421 0.825683 0.258026
0.258026 0.825683 0.258026
0.309631 0.825683 0.258026
0.361236 0.825683 0.258026
0.412842 0.825683 0.258026
0.464447 0.825683 0.258026
0.516052 0.825683 0.258026
0.567657 0.825683 0.258026
0.619262 0.825683 0.258026
0.670868 0.825683 0.258026
0.722473 0.825683 0.258026
0.774078 0.825683 0.258026
0.825683 0.825683 0.258026
0.890646 0.839263 0.274045
0.950722 0.848859 0.288612
1.000000 0.850000 0.300000
0.222662 0.890646 0.274045
0.274045 0.890646 0.274045
0.325428 0.890646 0.274045
0.376812 0.890646 0.274045
0.428195 0.890646 0.274045
0.479579 0.890646 0.274045
0.530962 0.890646 0.274045
0.582346 0.890646 0.274045
0.633729 0.890646 0.274045
0.685112 0.890646 0.274045
0.736496 0.890646 0.274045
0.787879 0.890646 0.274045
0.839263 0.890646 0.274045
0.890646 0.890646 0.274045
0.950722 0.899791 0.288612
1.000000 0.900000 0.300000
0.237681 0.950722 0.288612
0.288612 0.950722 0.288612
0.339544 0.950722 0.288612
0.390475 0.950722 0.288612
0.441407 0.950722 0.288612
0.492338 0.950722 0.288612
0.543270 0.950722 0.288612
0.594201 0.950722 0.288612
0.645133 0.950722 0.288612
0.696065 0.950722 0.288612
0.746996 0.950722 0.288612
0.797928 0.950722 0.288612
0.848859 0.950722 0.288612
0.899791 0.950722 0.288612
0.950722 0.950722 0.288612
1.000000 0.950000 0.300000
0.250000 1.000000 0.300000
0.300000 1.000000 0.300000
0.350000 1.000000 0.300000
0.400000 1.000000 0.300000
0.450000 1.000000 0.300000
0.500000 1.000000 0.300000
0.550000 1.000000 0.300000
0.600000 1.000000 0.300000
0.650000 1.000000 0.300000
0.700000 1.000000 0.300000
0.750000 1.000000 0.300000
0.800000 1.000000 0.300000
0.850000 1.000000 0.300000
0.900000 1.000000 0.300000
0.950000 1.000000 0.300000
1.000000 1.000000 0.300000
0.027338 0.051943 0.109354
0.068346 0.027338 0.109354
0.109354 0.027338 0.109354
0.174317 0.043579 0.130738
0.242671 0.060668 0.129829
0.313664 0.078416 0.144286
0.386833 0.096708 0.158602
0.461862 0.115466 0.172868
0.538138 0.134534 0.187003
0.613167 0.153292 0.200301
0.686336 0.171584 0.212764
0.757329 0.189332 0.224445
0.825683 0.206421 0.235320
0.890646 0.222662 0.245270
0.950722 0.237681 0.253979
1.000000 0.250000 0.260000
0.027338 0.092951 0.109354
0.068346 0.080648 0.109354
0.109354 0.068346 0.109354
0.174317 0.087158 0.120279
0.242671 0.106169 0.135289
0.313664 0.125466 0.149932
0.386833 0.145062 0.164404
0.461862 0.164951 0.178807
0.538138 0.184985 0.193057
0.613167 0.204389 0.206433
0.686336 0.227177 0.223059
0.757329 0.251295 0.240968
0.825683 0.274540 0.258026
0.890646 0.296654 0.274045
0.950722 0.317134 0.288612
1.000000 0.334000 0.300000
0.027338 0.109354 0.109354
0.068346 0.109354 0.109354
0.109354 0.109354 0.109354
0.174317 0.135967 0.130738
0.242671 0.162590 0.151670
0.313664 0.189453 0.172515
0.386833 0.216626 0.193416
0.461862 0.244127 0.214436
0.538138 0.271760 0.235435
0.613167 0.298408 0.255486
0.686336 0.323950 0.274534
0.757329 0.348371 0.292604
0.825683 0.371557 0.309631
0.890646 0.393255 0.325428
0.950722 0.412885 0.339544
1.000000 0.428000 0.350000
0.043579 0.174317 0.130738
0.087158 0.174317 0.130738
0.130738 0.174317 0.130738
0.174317 0.174317 0.130738
0.242671 0.208091 0.151670
0.313664 0.236503 0.172515
0.386833 0.264981 0.193416
0.461862 0.293612 0.214436
0.538138 0.322210 0.235435
0.613167 0.349505 0.255486
0.686336 0.375426 0.274534
0.757329 0.400007 0.292604
0.825683 0.423163 0.309631
0.890646 0.444638 0.325428
0.950722 0.463817 0.339544
1.000000 0.478000 0.350000
0.060668 0.242671 0.151670
0.106169 0.242671 0.151670
0.151670 0.242671 0.151670
0.197170 0.242671 0.151670
0.242671 0.242671 0.151670
0.313664 0.266615 0.172515
0.386833 0.313335 0.193416
0.461862 0.343098 0.214436
0.538138 0.372661 0.235435
0.613167 0.400602 0.255486
0.686336 0.426901 0.274534
0.757329 0.451643 0.292604
0.825683 0.474768 0.309631
0.890646 0.496021 0.325428
0.950722 0.514748 0.339544
1.000000 0.528000 0.350000
0.078416 0.313664 0.172515
0.125466 0.313664 0.172515
0.172515 0.313664 0.172515
0.219565 0.313664 0.172515
0.266615 0.313664 0.172515
0.313664 0.313664 0.172515
0.386833 0.338479 0.193416
0.461862 0.392583 0.214436
0.538138 0.423111 0.235435
0.613167 0.451700 0.255486
0.686336 0.478376 0.274534
0.757329 0.503279 0.292604
0.825683 0.526373 0.309631
0.890646 0.547405 0.325428
0.950722 0.565680 0.339544
1.000000 0.578000 0.350000
0.096708 0.386833 0.193416
0.145062 0.386833 0.193416
0.193416 0.386833 0.193416
0.241771 0.386833 0.193416
0.290125 0.386833 0.193416
0.338479 0.386833 0.193416
0.386833 0.386833 0.193416
0.461862 0.412377 0.214436
0.538138 0.437237 0.235435
0.613167 0.502797 0.255486
0.686336 0.529851 0.274534
0.757329 0.554915 0.292604
0.825683 0.577978 0.309631
0.890646 0.598788 0.325428
0.950722 0.616611 0.339544
1.000000 0.628000 0.350000
0.115466 0.461862 0.214436
0.164951 0.461862 0.214436
0.214436 0.461862 0.214436
0.263921 0.461862 0.214436
0.313406 0.461862 0.214436
0.362892 0.461862 0.214436
0.412377 0.461862 0.214436
0.461862 0.461862 0.214436
0.538138 0.487687 0.235435
0.613167 0.510973 0.255486
0.686336 0.531910 0.274534
0.757329 0.606551 0.292604
0.825683 0.629584 0.309631
0.890646 0.650172 0.325428
0.950722 0.667543 0.339544
1.000000 0.678000 0.350000
0.134534 0.538138 0.235435
0.184985 0.538138 0.235435
0.235435 0.538138 0.235435
0.285886 0.538138 0.235435
0.336336 0.538138 0.235435
0.386787 0.538138 0.235435
0.437237 0.538138 0.235435
0.487687 0.538138 0.235435
0.538138 0.538138 0.235435
0.613167 0.562070 0.255486
0.686336 0.583385 0.274534
0.757329 0.602421 0.292604
0.825683 0.681189 0.309631
0.890646 0.701555 0.325428
0.950722 0.718474 0.339544
1.000000 0.728000 0.350000
0.153292 0.613167 0.255486
0.204389 0.613167 0.255486
0.255486 0.613167 0.255486
0.306584 0.613167 0.255486
0.357681 0.613167 0.255486
0.408778 0.613167 0.255486
0.459875 0.613167 0.255486
0.510973 0.613167 0.255486
0.562070 0.613167 0.255486
0.613167 0.613167 0.255486
0.686336 0.634861 0.274534
0.757329 0.654057 0.292604
0.825683 0.670868 0.309631
0.890646 0.685112 0.325428
0.950722 0.769406 0.339544
1.000000 0.778000 0.350000
0.171584 0.686336 0.274534
0.223059 0.686336 0.274534
0.274534 0.686336 0.274534
0.326009 0.686336 0.274534
0.377485 0.686336 0.274534
0.428960 0.686336 0.274534
0.480435 0.686336 0.274534
0.531910 0.686336 0.274534
0.583385 0.686336 0.274534
0.634861 0.686336 0.274534
0.686336 0.686336 0.274534
0.757329 0.705693 0.292604
0.825683 0.722473 0.309631
0.890646 0.736496 0.325428
0.950722 0.746996 0.339544
1.000000 0.750000 0.350000
0.189332 0.757329 0.292604
0.240968 0.757329 0.292604
0.292604 0.757329 0.292604
0.344240 0.757329 0.292604
0.395876 0.757329 0.292604
0.447512 0.757329 0.292604
0.499148 0.757329 0.292604
0.550784 0.757329 0.292604
0.602421 0.757329 0.292604
0.654057 0.757329 0.292604
0.705693 0.757329 0.292604
0.757329 0.757329 0.292604
0.825683 0.774078 0.309631
0.890646 0.787879 0.325428
0.950722 0.797928 0.339544
1.000000 0.800000 0.350000
0.206421 0.825683 0.309631
0.258026 0.825683 0.309631
0.309631 0.825683 0.309631
0.361236 0.825683 0.309631
0.412842 0.825683 0.309631
0.464447 0.825683 0.309631
0.516052 0.825683 0.309631
0.567657 0.825683 0.309631
0.619262 0.825683 0.309631
0.670868 0.825683 0.309631
0.722473 0.825683 0.309631
0.774078 0.825683 0.309631
0.825683 0.825683 0.309631
0.890646 0.839263 0.325428
0.950722 0.848859 0.339544
1.000000 0.850000 0.350000
0.222662 0.890646 0.325428
0.274045 0.890646 0.325428
0.325428 0.890646 0.325428
0.376812 0.890646 0.325428
0.428195 0.890646 0.325428
0.479579 0.890646 0.325428
0.530962 0.890646 0.325428
0.582346 0.890646 0.325428
0.633729 0.890646 0.325428
0.685112 0.890646 0.325428
0.736496 0.890646 0.325428
0.787879 0.890646 0.325428
0.839263 0.890646 0.325428
0.890646 0.890646 0.325428
0.950722 0.899791 0.339544
1.000000 0.900000 0.350000
0.237681 0.950722 0.339544
0.288612 0.950722 0.339544
0.339544 0.950722 0.339544
0.390475 0.950722 0.339544
0.441407 0.950722 0.339544
0.492338 0.950722 0.339544
0.543270 0.950722 0.339544
0.594201 0.950722 0.339544
0.645133 0.950722 0.339544
0.696065 0.950722 0.339544
0.746996 0.950722 0.339544
0.797928 0.950722 0.339544
0.848859 0.950722 0.339544
0.899791 0.950722 0.339544
0.950722 0.950722 0.339544
1.000000 0.950000 0.350000
0.250000 1.000000 0.350000
0.300000 1.000000 0.350000
0.350000 1.000000 0.350000
0.400000 1.000000 0.350000
0.450000 1.000000 0.350000
0.500000 1.000000 0.350000
0.550000 1.000000 0.350000
0.600000 1.000000 0.350000
0.650000 1.000000 0.350000
0.700000 1.000000 0.350000
0.750000 1.000000 0.350000
0.800000 1.000000 0.350000
0.850000 1.000000 0.350000
0.900000 1.000000 0.350000
0.950000 1.000000 0.350000
1.000000 1.000000 0.350000
0.043579 0.082800 0.174317
0.087158 0.043579 0.174317
0.130738 0.043579 0.174317
0.174317 0.043579 0.174317
0.242671 0.060668 0.197170
0.313664 0.078416 0.219565
0.386833 0.096708 0.206956
0.461862 0.115466 0.222354
0.538138 0.134534 0.237453
0.613167 0.153292 0.251398
0.686336 0.171584 0.264239
0.757329 0.189332 0.276081
0.825683 0.206421 0.286925
0.890646 0.222662 0.296654
0.950722 0.237681 0.304910
1.000000 0.250000 0.310000
0.043579 0.126380 0.174317
0.087158 0.113306 0.174317
0.130738 0.087158 0.174317
0.174317 0.087158 0.174317
0.242671 0.106169 0.197170
0.313664 0.125466 0.196981
0.386833 0.145062 0.212758
0.461862 0.164951 0.228292
0.538138 0.184985 0.243507
0.613167 0.204389 0.257530
0.686336 0.223059 0.270416
0.757329 0.240968 0.282277
0.825683 0.258026 0.293118
0.890646 0.274045 0.302820
0.950722 0.288612 0.311022
1.000000 0.300000 0.316000
0.043579 0.169959 0.174317
0.087158 0.156885 0.174317
0.130738 0.143811 0.174317
0.174317 0.130738 0.174317
0.242671 0.151670 0.186250
0.313664 0.172515 0.202627
0.386833 0.193416 0.218561
0.461862 0.214436 0.234230
0.538138 0.235435 0.249561
0.613167 0.255486 0.263662
0.686336 0.274534 0.276593
0.757329 0.296735 0.292604
0.825683 0.319952 0.309631
0.890646 0.341871 0.325428
0.950722 0.361954 0.339544
1.000000 0.378000 0.350000
0.043579 0.174317 0.174317
0.087158 0.174317 0.174317
0.130738 0.174317 0.174317
0.174317 0.174317 0.174317
0.242671 0.202631 0.197170
0.313664 0.230857 0.219565
0.386833 0.259178 0.241771
0.461862 0.287674 0.263921
0.538138 0.316156 0.285886
0.613167 0.343374 0.306584
0.686336 0.369249 0.326009
0.757329 0.393811 0.344240
0.825683 0.416970 0.361236
0.890646 0.438472 0.376812
0.950722 0.457705 0.390475
1.000000 0.472000 0.400000
0.060668 0.242671 0.197170
0.106169 0.242671 0.197170
0.151670 0.242671 0.197170
0.197170 0.242671 0.197170
0.242671 0.242671 0.197170
0.313664 0.277907 0.219565
0.386833 0.307532 0.241771
0.461862 0.337159 0.263921
0.538138 0.366606 0.285886
0.613167 0.394471 0.306584
0.686336 0.420724 0.326009
0.757329 0.445447 0.344240
0.825683 0.468575 0.361236
0.890646 0.489855 0.376812
0.950722 0.508636 0.390475
1.000000 0.522000 0.400000
0.078416 0.313664 0.219565
0.125466 0.313664 0.219565
0.172515 0.313664 0.219565
0.219565 0.313664 0.219565
0.266615 0.313664 0.219565
0.313664 0.313664 0.219565
0.386833 0.338479 0.241771
0.461862 0.386645 0.263921
0.538138 0.417057 0.285886
0.613167 0.445568 0.306584
0.686336 0.472199 0.326009
0.757329 0.497083 0.344240
0.825683 0.520180 0.361236
0.890646 0.541239 0.376812
0.950722 0.559568 0.390475
1.000000 0.572000 0.400000
0.096708 0.386833 0.241771
0.145062 0.386833 0.241771
0.193416 0.386833 0.241771
0.241771 0.386833 0.241771
0.290125 0.386833 0.241771
0.338479 0.386833 0.241771
0.386833 0.386833 0.241771
0.461862 0.412377 0.263921
0.538138 0.437237 0.285886
0.613167 0.496665 0.306584
0.686336 0.523674 0.326009
0.757329 0.548719 0.344240
0.825683 0.571786 0.361236
0.890646 0.592622 0.376812
0.950722 0.610500 0.390475
1.000000 0.622000 0.400000
0.115466 0.461862 0.263921
0.164951 0.461862 0.263921
0.214436 0.461862 0.263921
0.263921 0.461862 0.263921
0.313406 0.461862 0.263921
0.362892 0.461862 0.263921
0.412377 0.461862 0.263921
